; generated by Slic3r 1.1.7 on 2015-05-24 at 21:50:46

; perimeters extrusion width = 0.35mm
; infill extrusion width = 0.39mm
; solid infill extrusion width = 0.39mm
; top infill extrusion width = 0.39mm

G21 ; set units to millimeters
M107
M190 S65 ; wait for bed temperature to be reached
M104 S175 ; set temperature
M107 ; Fan off 
G92 X0 Y0 Z0 ; Manually move to zero pos
G1 Z0 F4000 ; move to print surface
M302 ; allow cold extrusion
M109 S175 ; wait for temperature to be reached
G90 ; use absolute coordinates
G92 E0
M82 ; use absolute distances for extrusion
G1 F60000.000 E-5.00000
G92 E0
G1 Z0.350 F7800.000
G1 X55.344 Y65.248 F7800.000
G1 E5.30000 F60000.000
G1 X57.508 Y64.424 E5.34413 F600.000
G1 X58.794 Y64.300 E5.36877
G1 X91.169 Y64.300 E5.98593
G1 X93.449 Y64.697 E6.03007
G1 X95.462 Y65.841 E6.07420 F600.000
G1 X96.969 Y67.599 E6.11834
G1 X97.794 Y69.762 E6.16247
G1 X97.919 Y71.048 E6.18711
G1 X97.919 Y75.052 E6.26343
G1 X97.521 Y77.333 E6.30756
G1 X96.376 Y79.345 E6.35170
G1 X94.653 Y80.831 E6.39507
G1 X88.183 Y84.731 E6.53909
G1 X86.025 Y85.568 E6.58322
G1 X84.698 Y85.700 E6.60863
G1 X65.294 Y85.700 E6.97853
G1 X63.013 Y85.303 E7.02267
G1 X61.821 Y84.738 E7.04781
G1 X55.321 Y80.838 E7.19232
G1 X53.570 Y79.324 E7.23645
G1 X52.433 Y77.307 E7.28059
G1 X52.044 Y75.052 E7.32422
G1 X52.044 Y71.048 E7.40054
G1 X52.442 Y68.767 E7.44467
G1 X53.587 Y66.755 E7.48881
G1 X55.304 Y65.282 E7.53194
G1 X55.541 Y65.572 F7800.000
G1 X55.678 Y65.460 E7.53532 F600.000
G1 X58.794 Y64.650 E7.59669
G1 X91.169 Y64.650 E8.21385
G1 X93.387 Y65.047 E8.25682
G1 X95.331 Y66.188 E8.29978 F600.000
G1 X96.758 Y67.933 E8.34275
G1 X97.569 Y71.048 E8.40412
G1 X97.569 Y75.052 E8.48044
G1 X97.171 Y77.270 E8.52340
G1 X96.029 Y79.213 E8.56637
G1 X94.472 Y80.531 E8.60525
G1 X88.002 Y84.431 E8.74927
G1 X85.897 Y85.237 E8.79223
G1 X84.698 Y85.350 E8.81519
G1 X65.294 Y85.350 E9.18510
G1 X63.076 Y84.953 E9.22806
G1 X62.001 Y84.438 E9.25077
G1 X55.501 Y80.538 E9.39528
G1 X53.803 Y79.056 E9.43824
G1 X52.724 Y77.077 E9.48121
G1 X52.394 Y75.052 E9.52033
G1 X52.394 Y73.168 E9.55625
G1 X52.394 Y71.048 E9.59665
G1 X52.792 Y68.830 E9.63962
G1 X53.934 Y66.887 E9.68258
G1 X55.501 Y65.605 E9.72117
G1 X55.728 Y65.898 F7800.000
G1 X56.011 Y65.678 E9.72799 F600.000
G1 X58.794 Y65.000 E9.78261
G1 X91.169 Y65.000 E10.39977
G1 X93.323 Y65.397 E10.44154
G1 X95.195 Y66.535 E10.48330 F600.000
G1 X96.539 Y68.265 E10.52507
G1 X97.219 Y71.048 E10.57969
G1 X97.219 Y75.052 E10.65600
G1 X96.821 Y77.206 E10.69776
G1 X95.683 Y79.078 E10.73953
G1 X94.292 Y80.231 E10.77398
G1 X87.822 Y84.131 E10.91799
G1 X84.698 Y85.000 E10.97979
G1 X65.294 Y85.000 E11.34970
G1 X62.182 Y84.138 E11.41127
G1 X55.682 Y80.238 E11.55577
G1 X54.038 Y78.789 E11.59754
G1 X53.018 Y76.850 E11.63930
G1 X52.744 Y75.052 E11.67398
G1 X52.744 Y71.048 E11.75030
G1 X53.141 Y68.894 E11.79206
G1 X54.280 Y67.022 E11.83383
G1 X55.686 Y65.930 E11.86777
G1 X55.903 Y66.226 F7800.000
G1 X56.341 Y65.905 E11.87811 F600.000
G1 X58.794 Y65.350 E11.92607
G1 X91.169 Y65.350 E12.54322
G1 X93.257 Y65.746 E12.58375
G1 X95.055 Y66.881 E12.62428 F600.000
G1 X96.313 Y68.595 E12.66481
G1 X96.869 Y71.049 E12.71277
G1 X96.869 Y75.051 E12.78908
G1 X96.471 Y77.140 E12.82960
G1 X95.337 Y78.938 E12.87013
G1 X94.111 Y79.932 E12.90021
G1 X87.641 Y83.832 E13.04423
G1 X84.698 Y84.650 E13.10245
G1 X65.294 Y84.650 E13.47236
G1 X62.362 Y83.838 E13.53037
G1 X55.862 Y79.938 E13.67487
G1 X54.275 Y78.523 E13.71540
G1 X53.316 Y76.625 E13.75593
G1 X53.094 Y75.051 E13.78623
G1 X53.094 Y73.168 E13.82214
G1 X53.094 Y71.049 E13.86254
G1 X53.491 Y68.960 E13.90307
G1 X54.626 Y67.162 E13.94360
G1 X55.861 Y66.257 E13.97278
G1 X56.066 Y66.555 F7800.000
G1 X56.668 Y66.141 E13.98672 F600.000
G1 X58.794 Y65.700 E14.02811
G1 X91.169 Y65.700 E14.64527
G1 X93.189 Y66.096 E14.68452
G1 X94.910 Y67.226 E14.72378 F600.000
G1 X96.077 Y68.923 E14.76303
G1 X96.519 Y71.049 E14.80442
G1 X96.519 Y75.051 E14.88072
G1 X96.122 Y77.072 E14.91998
G1 X94.991 Y78.793 E14.95923
G1 X93.930 Y79.632 E14.98501
G1 X87.460 Y83.532 E15.12903
G1 X84.698 Y84.300 E15.18368
G1 X65.294 Y84.300 E15.55358
G1 X62.542 Y83.538 E15.60803
G1 X56.042 Y79.638 E15.75253
G1 X54.513 Y78.258 E15.79179
G1 X53.618 Y76.404 E15.83104
G1 X53.444 Y75.051 E15.85703
G1 X53.444 Y71.049 E15.93334
G1 X53.841 Y69.028 E15.97259
G1 X54.972 Y67.307 E16.01184
G1 X56.022 Y66.585 E16.03616
G1 X56.542 Y66.593 F6240.000 E11.28615
G1 F60000.000 E11.03616
G92 E0
G1 X89.465 Y71.925 F7800.000
G1 E5.30000 F60000.000
G1 X90.294 Y71.925 E5.31580 F600.000
G1 X90.294 Y72.227 E5.32156
G1 X90.294 Y74.175 E5.35869 F600.000
G1 X83.824 Y74.175 E5.48203
G1 X83.824 Y78.075 E5.55637
G1 X66.169 Y78.075 E5.89292
G1 X66.169 Y74.175 E5.96727
G1 X59.669 Y74.175 E6.09118
G1 X59.669 Y71.925 E6.13407
G1 X89.413 Y71.925 E6.70108
G1 X89.413 Y71.575 F7800.000
G1 X90.644 Y71.575 E6.72455 F600.000
G1 X90.644 Y74.525 E6.78078
G1 X84.174 Y74.525 E6.90412
G1 X84.173 Y78.425 E6.97847
G1 X65.819 Y78.425 E7.32836
G1 X65.819 Y74.525 E7.40271
G1 X59.319 Y74.525 E7.52661
G1 X59.319 Y71.575 E7.58285
G1 X89.360 Y71.575 E8.15553 F600.000
G1 X89.360 Y71.225 F7800.000
G1 X90.994 Y71.225 E8.18666 F600.000
G1 X90.994 Y72.228 E8.20578
G1 X90.994 Y74.875 E8.25625 F600.000
G1 X84.524 Y74.875 E8.37958
G1 X84.523 Y78.775 E8.45393
G1 X65.469 Y78.775 E8.81716
G1 X65.469 Y74.875 E8.89151
G1 X58.969 Y74.875 E9.01541
G1 X58.969 Y71.225 E9.08499
G1 X89.308 Y71.225 E9.66334
G1 X90.816 Y72.529 F7800.000
G1 X90.855 Y73.047 F6240.000 E4.91334
G1 F60000.000 E4.66334
G92 E0
G1 X83.485 Y77.736 F7800.000
G1 E5.30000 F60000.000
G1 X66.508 Y77.736 E5.63635 F600.000
G1 X66.507 Y73.836 E5.71362
G1 X60.008 Y73.836 E5.84239
G1 X60.007 Y73.168 E5.85563
G1 X60.008 Y72.264 E5.87355
G1 X89.955 Y72.264 E6.46686
G1 X89.955 Y73.836 E6.49802
G1 X83.485 Y73.836 E6.62620
G1 X83.485 Y77.684 E6.70243
G1 X83.118 Y77.369 F7800.000
G1 X66.875 Y77.369 E7.02423 F600.000
G1 X66.875 Y73.469 E7.10150
G1 X60.375 Y73.469 E7.23027
G1 X60.375 Y73.168 E7.23624
G1 X60.375 Y72.631 E7.24688
G1 X89.588 Y72.631 E7.82564
G1 X89.588 Y73.469 E7.84225
G1 X83.118 Y73.469 E7.97043
G1 X83.118 Y77.317 E8.04666
G1 X82.751 Y77.002 F7800.000
G1 X67.242 Y77.002 E8.35391 F600.000
G1 X67.242 Y72.998 E8.43323
G1 X82.751 Y72.998 E8.74050
G1 X82.751 Y76.949 E8.81878
G1 X82.383 Y76.635 F7800.000
G1 X67.609 Y76.635 E9.11148 F600.000
G1 X67.609 Y73.365 E9.17625
G1 X82.384 Y73.365 E9.46897
G1 X82.383 Y76.582 E9.53270
G1 X82.016 Y76.267 F7800.000
G1 X67.976 Y76.267 E9.81085 F600.000
G1 X67.976 Y73.733 E9.86107
G1 X82.016 Y73.733 E10.13923
G1 X82.016 Y76.215 E10.18842
G1 X81.649 Y75.900 F7800.000
G1 X68.344 Y75.900 E10.45202 F600.000
G1 X68.343 Y74.100 E10.48769
G1 X81.649 Y74.100 E10.75130
G1 X81.649 Y75.848 E10.78593
G1 X81.282 Y75.533 F7800.000
G1 X68.711 Y75.533 E11.03499 F600.000
G1 X68.711 Y74.467 E11.05611
G1 X81.282 Y74.467 E11.30517
G1 X81.282 Y75.481 E11.32525
M104 S170 ; set temperature
M140 S30 ; set bed temperature
G1 X81.282 Y74.961 F3324.510 E6.57526
G1 F60000.000 E6.32525
G92 E0
G1 Z0.600 F7800.000
G1 X81.297 Y71.925 F7800.000
G1 E5.30000 F60000.000
G1 X90.705 Y71.925 E5.42810 F1598.322
G1 X90.705 Y74.175 E5.45874
G1 X84.216 Y74.175 E5.54710 F1598.322
G1 X84.216 Y78.075 E5.60021
G1 X65.777 Y78.075 E5.85128
G1 X65.777 Y74.175 E5.90439
G1 X59.277 Y74.175 E5.99290
G1 X59.277 Y71.925 E6.02353
G1 X81.245 Y71.925 E6.32266
G1 X81.245 Y71.575 F7800.000
G1 X91.055 Y71.575 E6.45624 F1598.322
G1 X91.055 Y74.525 E6.49641
G1 X84.566 Y74.525 E6.58477
G1 X84.566 Y78.425 E6.63788
G1 X65.427 Y78.425 E6.89849
G1 X65.427 Y74.525 E6.95159
G1 X58.927 Y74.525 E7.04010
G1 X58.927 Y71.575 E7.08027
G1 X81.192 Y71.575 E7.38345 F1598.322
G1 X84.873 Y78.775 F7800.000
G1 X65.119 Y78.775 E7.65243 F1598.322
G1 X65.077 Y78.775 E7.65306 F600.000
G1 X65.077 Y75.225 E7.70622
G1 X65.077 Y74.875 E7.71098 F1598.322
G1 X58.619 Y74.875 E7.79891
G1 X58.577 Y74.875 E7.79955 F600.000
G1 X58.577 Y71.225 E7.85420
G1 X58.619 Y71.225 E7.85483
G1 X81.192 Y71.225 F7800.000
G1 X91.344 Y71.225 E7.99306 F1598.322
G1 X91.405 Y71.225 E7.99398 F600.000
G1 X91.405 Y74.875 E8.04863
G1 X91.344 Y74.875 E8.04955
G1 X84.916 Y74.875 E8.13707 F1598.322
G1 X84.916 Y75.225 E8.14184
G1 X84.916 Y78.775 E8.19499 F600.000
G1 X84.873 Y78.775 E8.19562
G1 X58.619 Y71.225 F7800.000
G1 X81.140 Y71.225 E8.50227 F1598.322
G1 X58.922 Y71.400 F7800.000
G1 X59.558 Y72.167 F7800.000
G1 X59.518 Y72.207 E8.50312 F1118.825
G1 X59.518 Y72.760 E8.51140
G1 X60.111 Y72.167 E8.52396
G1 X60.665 Y72.167 E8.53224
G1 X59.518 Y73.313 E8.55651
G1 X59.518 Y73.866 E8.56479
G1 X61.218 Y72.167 E8.60077
G1 X61.771 Y72.167 E8.60905
G1 X60.004 Y73.933 E8.64646
G1 X60.557 Y73.933 E8.65474
G1 X62.324 Y72.167 E8.69216
G1 X62.877 Y72.167 E8.70044
G1 X61.110 Y73.933 E8.73785
G1 X61.663 Y73.933 E8.74613
G1 X63.430 Y72.167 E8.78354
G1 X63.983 Y72.167 E8.79182
G1 X62.216 Y73.933 E8.82923
G1 X62.769 Y73.933 E8.83751
G1 X64.536 Y72.167 E8.87492
G1 X65.089 Y72.167 E8.88321
G1 X63.322 Y73.933 E8.92062
G1 X63.875 Y73.933 E8.92890
G1 X65.642 Y72.167 E8.96631
G1 X66.195 Y72.167 E8.97459
G1 X64.428 Y73.933 E9.01200
G1 X64.982 Y73.933 E9.02028
G1 X66.748 Y72.167 E9.05769
G1 X67.302 Y72.167 E9.06597
G1 X65.535 Y73.933 E9.10339
G1 X66.018 Y74.003 E9.11070
G1 X67.855 Y72.167 E9.14958
G1 X68.408 Y72.167 E9.15786
G1 X66.018 Y74.556 E9.20845
G1 X66.018 Y75.109 E9.21674
G1 X68.961 Y72.167 E9.27904
G1 X69.514 Y72.167 E9.28732
G1 X66.018 Y75.662 E9.36133
G1 X66.018 Y76.215 E9.36961
G1 X70.067 Y72.167 E9.45534
G1 X70.620 Y72.167 E9.46362
G1 X66.018 Y76.768 E9.56105
G1 X66.018 Y77.321 E9.56934
G1 X71.173 Y72.167 E9.67848
G1 X71.726 Y72.167 E9.68676
G1 X66.059 Y77.833 E9.80675
G1 X66.612 Y77.833 E9.81503
G1 X72.279 Y72.167 E9.93502
G1 X72.832 Y72.167 E9.94330
G1 X67.165 Y77.833 E10.06329
G1 X67.719 Y77.833 E10.07157
G1 X73.385 Y72.167 E10.19156
G1 X73.939 Y72.167 E10.19985
G1 X68.272 Y77.833 E10.31983
G1 X68.825 Y77.833 E10.32812
G1 X74.492 Y72.167 E10.44811
G1 X75.045 Y72.167 E10.45639
G1 X69.378 Y77.833 E10.57638
G1 X69.931 Y77.833 E10.58466
G1 X75.598 Y72.167 E10.70465
G1 X76.151 Y72.167 E10.71293
G1 X70.484 Y77.833 E10.83292
G1 X71.037 Y77.833 E10.84120
G1 X76.704 Y72.167 E10.96119
G1 X77.257 Y72.167 E10.96947
G1 X71.590 Y77.833 E11.08946
G1 X72.143 Y77.833 E11.09774
G1 X77.810 Y72.167 E11.21773
G1 X78.363 Y72.167 E11.22601
G1 X72.696 Y77.833 E11.34600
G1 X73.249 Y77.833 E11.35428
G1 X78.916 Y72.167 E11.47427
G1 X79.469 Y72.167 E11.48255
G1 X73.802 Y77.833 E11.60254
G1 X74.356 Y77.833 E11.61082
G1 X80.022 Y72.167 E11.73081
G1 X80.576 Y72.167 E11.73909
G1 X74.909 Y77.833 E11.85908
G1 X75.462 Y77.833 E11.86736
G1 X81.129 Y72.167 E11.98735
G1 X81.682 Y72.167 E11.99563
G1 X76.015 Y77.833 E12.11562
G1 X76.568 Y77.833 E12.12390
G1 X82.235 Y72.167 E12.24389
G1 X82.788 Y72.167 E12.25218
G1 X77.121 Y77.833 E12.37217
G1 X77.674 Y77.833 E12.38045
G1 X83.341 Y72.167 E12.50044
G1 X83.894 Y72.167 E12.50872
G1 X78.227 Y77.833 E12.62871
G1 X78.780 Y77.833 E12.63699
G1 X84.447 Y72.167 E12.75698
G1 X85.000 Y72.167 E12.76526
G1 X79.333 Y77.833 E12.88525
G1 X79.886 Y77.833 E12.89353
G1 X85.553 Y72.167 E13.01352
G1 X86.106 Y72.167 E13.02180
G1 X84.340 Y73.933 E13.05921
G1 X84.893 Y73.933 E13.06749
G1 X86.659 Y72.167 E13.10490
G1 X87.213 Y72.167 E13.11318
G1 X85.446 Y73.933 E13.15060
G1 X85.999 Y73.933 E13.15888
G1 X87.766 Y72.167 E13.19629
G1 X88.319 Y72.167 E13.20457
G1 X86.552 Y73.933 E13.24198
G1 X87.105 Y73.933 E13.25026
G1 X88.872 Y72.167 E13.28767
G1 X89.425 Y72.167 E13.29595
G1 X87.658 Y73.933 E13.33336
G1 X88.211 Y73.933 E13.34165
G1 X89.978 Y72.167 E13.37906
G1 X90.463 Y72.234 E13.38640
G1 X88.764 Y73.933 E13.42238
G1 X89.317 Y73.933 E13.43066
G1 X90.463 Y72.787 E13.45492
G1 X90.463 Y73.340 E13.46321
G1 X89.870 Y73.933 E13.47576
G1 X90.423 Y73.933 E13.48404
G1 X90.463 Y73.893 E13.48489
G1 X78.424 Y72.050 F7800.000
G1 X83.974 Y77.617 F7800.000
G1 X83.758 Y77.833 E13.48947 F1118.825
G1 X83.205 Y77.833 E13.49775
G1 X83.974 Y77.064 E13.51404
G1 X83.974 Y76.511 E13.52232
G1 X82.652 Y77.833 E13.55032
G1 X82.099 Y77.833 E13.55860
G1 X83.974 Y75.958 E13.59831
G1 X83.974 Y75.405 E13.60660
G1 X81.546 Y77.833 E13.65802
G1 X80.993 Y77.833 E13.66630
G1 X83.974 Y74.852 E13.72943
G1 X83.974 Y74.299 E13.73771
G1 X80.440 Y77.833 E13.81256
M106 S229
G1 X80.807 Y77.466 F3117.979 E9.06256
G1 F60000.000 E8.81256
G92 E0
G1 Z0.850 F7800.000
G1 X88.611 Y71.925 F7800.000
G1 E5.30000 F60000.000
G1 X90.901 Y71.925 E5.33118 F1499.028
G1 X90.901 Y72.589 E5.34022
G1 X90.901 Y74.175 E5.36181 F1499.028
G1 X84.404 Y74.175 E5.45028
G1 X84.404 Y78.075 E5.50338
G1 X65.588 Y78.075 E5.75959
G1 X65.588 Y74.175 E5.81269
G1 X59.088 Y74.175 E5.90120
G1 X59.088 Y71.925 E5.93184
G1 X88.559 Y71.925 E6.33312
G1 X88.559 Y71.575 F7800.000
G1 X91.251 Y71.575 E6.36978 F1499.028
G1 X91.251 Y74.525 E6.40995
G1 X84.754 Y74.525 E6.49841
G1 X84.754 Y78.425 E6.55151
G1 X65.238 Y78.425 E6.81725
G1 X65.238 Y74.525 E6.87036
G1 X58.738 Y74.525 E6.95886
G1 X58.738 Y71.575 E6.99903
G1 X88.506 Y71.575 E7.40437 F1499.028
G1 X88.506 Y71.225 F7800.000
G1 X91.601 Y71.225 E7.44650 F1499.028
G1 X91.601 Y72.589 E7.46508
G1 X91.601 Y74.875 E7.49621 F1499.028
G1 X85.104 Y74.875 E7.58467
G1 X85.104 Y78.775 E7.63777
G1 X64.888 Y78.775 E7.91304
G1 X64.888 Y74.875 E7.96614
G1 X58.388 Y74.875 E8.05465
G1 X58.388 Y71.225 E8.10435
G1 X88.454 Y71.225 E8.51374
G1 X91.422 Y72.890 F7800.000
G1 X91.468 Y73.408 F3117.979 E3.76373
G1 F60000.000 E3.51374
G92 E0
G1 X84.157 Y77.833 F7800.000
G1 E5.30000 F60000.000
G1 X84.107 Y77.784 E5.30105 F3297.862
G1 X76.390 Y72.050 F7800.000
G1 X90.619 Y72.167 F7800.000
G1 X90.659 Y72.207 E5.30190 F1049.320
G1 X90.659 Y72.757 E5.31014
G1 X90.069 Y72.167 E5.32264
G1 X89.519 Y72.167 E5.33088
G1 X90.659 Y73.307 E5.35503
G1 X90.659 Y73.857 E5.36326
G1 X88.968 Y72.167 E5.39907
G1 X88.418 Y72.167 E5.40730
G1 X90.185 Y73.933 E5.44472
G1 X89.635 Y73.933 E5.45295
G1 X87.868 Y72.167 E5.49037
G1 X87.318 Y72.167 E5.49860
G1 X89.084 Y73.933 E5.53602
G1 X88.534 Y73.933 E5.54425
G1 X86.767 Y72.167 E5.58167
G1 X86.217 Y72.167 E5.58990
G1 X87.984 Y73.933 E5.62732
G1 X87.434 Y73.933 E5.63555
G1 X85.667 Y72.167 E5.67297
G1 X85.117 Y72.167 E5.68120
G1 X86.883 Y73.933 E5.71862
G1 X86.333 Y73.933 E5.72686
G1 X84.566 Y72.167 E5.76427
G1 X84.016 Y72.167 E5.77251
G1 X85.783 Y73.933 E5.80992
G1 X85.233 Y73.933 E5.81816
G1 X83.466 Y72.167 E5.85557
G1 X82.915 Y72.167 E5.86381
G1 X84.682 Y73.933 E5.90122
G1 X84.163 Y73.964 E5.90901
G1 X82.365 Y72.167 E5.94707
G1 X81.815 Y72.167 E5.95531
G1 X84.163 Y74.514 E6.00502
G1 X84.134 Y75.036 E6.01284
G1 X81.265 Y72.167 E6.07359
G1 X80.714 Y72.167 E6.08183
G1 X83.974 Y75.426 E6.15086
G1 X83.974 Y75.977 E6.15910
G1 X80.164 Y72.167 E6.23977
G1 X79.614 Y72.167 E6.24801
G1 X83.974 Y76.527 E6.34034
G1 X83.974 Y77.077 E6.34858
G1 X79.064 Y72.167 E6.45255
G1 X78.513 Y72.167 E6.46079
G1 X83.974 Y77.627 E6.57642
G1 X83.630 Y77.833 E6.58243
G1 X77.963 Y72.167 E6.70242
G1 X77.413 Y72.167 E6.71066
G1 X83.080 Y77.833 E6.83065
G1 X82.529 Y77.833 E6.83888
G1 X76.862 Y72.167 E6.95887
G1 X76.312 Y72.167 E6.96711
G1 X81.979 Y77.833 E7.08710
G1 X81.429 Y77.833 E7.09534
G1 X75.762 Y72.167 E7.21533
G1 X75.212 Y72.167 E7.22357
G1 X80.879 Y77.833 E7.34356
G1 X80.328 Y77.833 E7.35180
G1 X74.661 Y72.167 E7.47179
G1 X74.111 Y72.167 E7.48003
G1 X79.778 Y77.833 E7.60002
G1 X79.228 Y77.833 E7.60826
G1 X73.561 Y72.167 E7.72825
G1 X73.011 Y72.167 E7.73648
G1 X78.677 Y77.833 E7.85647
G1 X78.127 Y77.833 E7.86471
G1 X72.460 Y72.167 E7.98470
G1 X71.910 Y72.167 E7.99294
G1 X77.577 Y77.833 E8.11293
G1 X77.027 Y77.833 E8.12117
G1 X71.360 Y72.167 E8.24116
G1 X70.810 Y72.167 E8.24940
G1 X76.476 Y77.833 E8.36939
G1 X75.926 Y77.833 E8.37763
G1 X70.259 Y72.167 E8.49762
G1 X69.709 Y72.167 E8.50585
G1 X75.376 Y77.833 E8.62584
G1 X74.826 Y77.833 E8.63408
G1 X69.159 Y72.167 E8.75407
G1 X68.608 Y72.167 E8.76231
G1 X74.275 Y77.833 E8.88230
G1 X73.725 Y77.833 E8.89054
G1 X68.058 Y72.167 E9.01053
G1 X67.508 Y72.167 E9.01877
G1 X73.175 Y77.833 E9.13876
G1 X72.625 Y77.833 E9.14700
G1 X66.958 Y72.167 E9.26699
