; generated by Slic3r 1.1.7 on 2015-05-24 at 21:32:22

; perimeters extrusion width = 0.35mm
; infill extrusion width = 0.39mm
; solid infill extrusion width = 0.39mm
; top infill extrusion width = 0.39mm

G21 ; set units to millimeters
M107
M190 S65 ; wait for bed temperature to be reached
M104 S175 ; set temperature
M107 ; Fan off 
G92 X0 Y0 Z0 ; Manually move to zero pos
G1 Z0 F4000 ; move to print surface
M302 ; allow cold extrusion
M109 S175 ; wait for temperature to be reached
G90 ; use absolute coordinates
G92 E0
M82 ; use absolute distances for extrusion
G1 F60000.000 E-5.00000
G92 E0
G1 Z0.350 F7800.000
G1 X81.785 Y55.109 F7800.000
G1 E5.30000 F60000.000
G1 X81.926 Y54.917 E5.30453 F600.000
G1 X82.951 Y53.808 E5.33332
G1 X83.570 Y53.293 E5.34868
G1 X84.726 Y52.586 E5.37450
G1 X85.139 Y52.387 E5.38325
G1 X87.389 Y51.753 E5.42781
G1 X88.327 Y51.688 E5.44572
G1 X90.489 Y51.903 E5.48715
G1 X91.613 Y52.281 E5.50976 F600.000
G1 X91.975 Y52.439 E5.51730
G1 X93.603 Y53.444 E5.55376
G1 X94.033 Y53.806 E5.56447
G1 X95.563 Y55.710 E5.61103
G1 X95.896 Y56.328 E5.62443
G1 X96.625 Y58.588 E5.66968
G1 X96.734 Y59.572 E5.68856
G1 X96.743 Y59.925 E5.69529
G1 X96.690 Y90.629 E6.28061
G1 X96.589 Y91.395 E6.29534
G1 X95.901 Y93.479 E6.33718
G1 X95.428 Y94.343 E6.35595
G1 X94.345 Y95.679 E6.38874
G1 X93.785 Y96.187 E6.40315
G1 X92.281 Y97.206 E6.43778
G1 X91.131 Y97.683 E6.46152
G1 X90.749 Y97.803 E6.46914
G1 X89.119 Y98.099 E6.50073
G1 X87.809 Y98.096 E6.52570
G1 X87.206 Y98.021 E6.53728
G1 X86.909 Y97.968 E6.54303
G1 X85.674 Y97.617 E6.56751
G1 X85.301 Y97.471 E6.57514
G1 X83.843 Y96.682 E6.60675
G1 X82.833 Y95.871 E6.63144
G1 X82.652 Y95.693 E6.63628
G1 X82.099 Y95.091 E6.65185
G1 X81.578 Y94.360 E6.66898
G1 X81.402 Y94.075 E6.67535
G1 X80.577 Y92.082 E6.71648
G1 X80.423 Y91.429 E6.72926
G1 X80.243 Y89.879 E6.75901
G1 X80.297 Y59.028 E7.34713
G1 X80.433 Y58.221 E7.36274
G1 X80.944 Y56.603 E7.39508
G1 X81.189 Y56.083 E7.40604
G1 X81.758 Y55.154 E7.42681
G1 X82.056 Y55.336 F7800.000
G1 X82.208 Y55.125 E7.43177 F600.000
G1 X83.180 Y54.073 E7.45908
G1 X83.781 Y53.572 E7.47399
G1 X84.878 Y52.901 E7.49850
G1 X85.291 Y52.702 E7.50725
G1 X87.424 Y52.101 E7.54949
G1 X88.349 Y52.037 E7.56716
G1 X90.399 Y52.241 E7.60643
G1 X91.473 Y52.602 E7.62804 F600.000
G1 X91.836 Y52.760 E7.63558
G1 X93.379 Y53.713 E7.67016
G1 X93.804 Y54.071 E7.68075
G1 X95.255 Y55.876 E7.72489
G1 X95.587 Y56.493 E7.73825
G1 X96.278 Y58.635 E7.78115
G1 X96.384 Y59.589 E7.79947
G1 X96.393 Y59.925 E7.80587
G1 X96.343 Y90.585 E8.39035
G1 X96.243 Y91.339 E8.40485
G1 X95.591 Y93.317 E8.44455
G1 X95.130 Y94.159 E8.46285
G1 X94.103 Y95.426 E8.49394
G1 X93.551 Y95.926 E8.50813
G1 X92.125 Y96.892 E8.54097
G1 X91.026 Y97.349 E8.56366
G1 X90.644 Y97.468 E8.57129
G1 X89.099 Y97.750 E8.60123
G1 X87.842 Y97.748 E8.62519
G1 X87.264 Y97.676 E8.63629
G1 X86.973 Y97.624 E8.64194
G1 X85.801 Y97.291 E8.66515
G1 X85.429 Y97.145 E8.67278
G1 X84.046 Y96.397 E8.70275
G1 X83.077 Y95.619 E8.72644
G1 X82.900 Y95.447 E8.73114
G1 X82.370 Y94.870 E8.74607
G1 X81.875 Y94.176 E8.76232
G1 X81.700 Y93.892 E8.76869
G1 X80.918 Y92.002 E8.80769
G1 X80.764 Y91.349 E8.82047
G1 X80.593 Y89.879 E8.84868
G1 X80.644 Y59.072 E9.43596
G1 X80.778 Y58.283 E9.45121
G1 X81.262 Y56.750 E9.48187
G1 X81.501 Y56.242 E9.49258
G1 X82.028 Y55.380 E9.51182
G1 X82.326 Y55.562 F7800.000
G1 X82.490 Y55.332 E9.51722 F600.000
G1 X83.409 Y54.338 E9.54303
G1 X83.992 Y53.852 E9.55749
G1 X85.030 Y53.216 E9.58069
G1 X85.443 Y53.017 E9.58943
G1 X87.459 Y52.449 E9.62937
G1 X88.370 Y52.386 E9.64678
G1 X90.308 Y52.579 E9.68390
G1 X91.333 Y52.923 E9.70452 F600.000
G1 X91.696 Y53.081 E9.71205
G1 X93.155 Y53.982 E9.74474
G1 X93.576 Y54.336 E9.75522
G1 X94.947 Y56.042 E9.79695
G1 X95.278 Y56.657 E9.81027
G1 X95.931 Y58.682 E9.85082
G1 X96.035 Y59.607 E9.86857
G1 X96.043 Y59.925 E9.87464
G1 X95.995 Y90.541 E10.45828
G1 X95.898 Y91.284 E10.47256
G1 X95.280 Y93.155 E10.51012
G1 X94.832 Y93.975 E10.52794
G1 X93.861 Y95.173 E10.55733
G1 X93.318 Y95.665 E10.57131
G1 X91.970 Y96.579 E10.60235
G1 X90.922 Y97.015 E10.62399
G1 X90.540 Y97.134 E10.63162
G1 X89.079 Y97.400 E10.65993
G1 X87.875 Y97.399 E10.68287
G1 X87.323 Y97.331 E10.69348
G1 X87.036 Y97.280 E10.69904
G1 X85.929 Y96.965 E10.72099
G1 X85.556 Y96.819 E10.72861
G1 X84.249 Y96.112 E10.75694
G1 X83.320 Y95.368 E10.77964
G1 X83.149 Y95.200 E10.78420
G1 X82.641 Y94.649 E10.79849
G1 X82.173 Y93.992 E10.81386
G1 X81.998 Y93.708 E10.82023
G1 X81.259 Y91.921 E10.85709
G1 X81.105 Y91.269 E10.86987
G1 X80.943 Y89.879 E10.89654
G1 X80.991 Y59.116 E11.48297
G1 X81.122 Y58.346 E11.49787
G1 X81.580 Y56.896 E11.52685
G1 X81.813 Y56.400 E11.53731
G1 X82.298 Y55.607 E11.55502
G1 X82.596 Y55.789 F7800.000
G1 X82.772 Y55.539 E11.56085 F600.000
G1 X83.638 Y54.602 E11.58517
G1 X84.202 Y54.131 E11.59918
G1 X85.181 Y53.532 E11.62107
G1 X85.595 Y53.333 E11.62982
G1 X87.495 Y52.797 E11.66744
G1 X88.392 Y52.736 E11.68459
G1 X90.218 Y52.917 E11.71957
G1 X91.193 Y53.244 E11.73918 F600.000
G1 X91.556 Y53.402 E11.74672
G1 X92.930 Y54.251 E11.77752
G1 X93.347 Y54.601 E11.78789
G1 X94.639 Y56.208 E11.82720
G1 X94.969 Y56.821 E11.84048
G1 X95.584 Y58.729 E11.87869
G1 X95.685 Y59.624 E11.89587
G1 X95.693 Y59.925 E11.90160
G1 X95.648 Y90.497 E12.48441
G1 X95.552 Y91.228 E12.49845
G1 X94.970 Y92.992 E12.53387
G1 X94.534 Y93.791 E12.55122
G1 X93.620 Y94.920 E12.57891
G1 X93.084 Y95.405 E12.59268
G1 X91.814 Y96.265 E12.62193
G1 X90.817 Y96.681 E12.64252
G1 X90.435 Y96.800 E12.65015
G1 X89.059 Y97.051 E12.67682
G1 X87.908 Y97.051 E12.69875
G1 X87.382 Y96.985 E12.70887
G1 X87.099 Y96.935 E12.71434
G1 X86.056 Y96.639 E12.73501
G1 X85.683 Y96.493 E12.74264
G1 X84.452 Y95.827 E12.76933
G1 X83.563 Y95.116 E12.79102
G1 X83.397 Y94.954 E12.79545
G1 X82.913 Y94.427 E12.80909
G1 X82.471 Y93.808 E12.82358
G1 X82.296 Y93.524 E12.82995
G1 X81.599 Y91.841 E12.86468
G1 X81.445 Y91.188 E12.87746
G1 X81.293 Y89.879 E12.90259
G1 X81.338 Y59.160 E13.48818
G1 X81.466 Y58.409 E13.50272
G1 X81.898 Y57.043 E13.53002
G1 X82.126 Y56.558 E13.54024
G1 X82.568 Y55.834 E13.55642
G1 X82.866 Y56.016 F7800.000
G1 X83.054 Y55.747 E13.56268 F600.000
G1 X83.867 Y54.867 E13.58550
G1 X84.413 Y54.411 E13.59907
G1 X85.333 Y53.847 E13.61964
G1 X85.747 Y53.648 E13.62839
G1 X87.530 Y53.145 E13.66371
G1 X88.414 Y53.085 E13.68060
G1 X90.128 Y53.255 E13.71343
G1 X91.054 Y53.565 E13.73205 F600.000
G1 X91.416 Y53.723 E13.73958
G1 X92.706 Y54.519 E13.76849
G1 X93.118 Y54.865 E13.77874
G1 X94.331 Y56.375 E13.81565
G1 X94.660 Y56.985 E13.82888
G1 X95.237 Y58.776 E13.86474
G1 X95.336 Y59.642 E13.88135
G1 X95.343 Y59.925 E13.88675
G1 X95.301 Y90.454 E14.46873
G1 X95.202 Y91.201 E14.48309
G1 X94.660 Y92.830 E14.51583
G1 X94.236 Y93.607 E14.53271
G1 X93.378 Y94.667 E14.55869
G1 X92.851 Y95.144 E14.57226
G1 X91.659 Y95.952 E14.59970
G1 X90.713 Y96.347 E14.61925
G1 X90.331 Y96.466 E14.62687
G1 X89.039 Y96.702 E14.65190
G1 X87.942 Y96.703 E14.67283
G1 X87.440 Y96.640 E14.68246
G1 X87.276 Y96.612 E14.68564
G1 X86.183 Y96.313 E14.70723
G1 X85.811 Y96.167 E14.71486
G1 X84.655 Y95.542 E14.73991
G1 X83.807 Y94.864 E14.76060
G1 X83.646 Y94.707 E14.76489
G1 X83.184 Y94.206 E14.77789
G1 X82.769 Y93.625 E14.79150
G1 X82.594 Y93.340 E14.79787
G1 X81.940 Y91.760 E14.83046
G1 X81.786 Y91.108 E14.84324
G1 X81.643 Y89.879 E14.86683
G1 X81.686 Y59.205 E15.45158
G1 X81.811 Y58.471 E15.46576
G1 X82.216 Y57.189 E15.49139
G1 X82.438 Y56.716 E15.50135
G1 X82.839 Y56.060 E15.51601
G1 X83.336 Y55.909 F6240.000 E10.76600
G1 F60000.000 E10.51601
G92 E0
G1 X87.868 Y74.666 F7800.000
G1 E5.30000 F60000.000
G1 X87.868 Y59.954 E5.58045 F600.000
G1 X87.915 Y59.695 E5.58547
G1 X87.978 Y59.558 E5.58835
G1 X88.125 Y59.415 E5.59225
G1 X88.300 Y59.329 E5.59596
G1 X88.649 Y59.307 E5.60263
G1 X88.814 Y59.379 E5.60608
G1 X88.928 Y59.474 E5.60889 F600.000
G1 X89.090 Y59.772 E5.61536
G1 X89.118 Y59.982 E5.61941
G1 X89.118 Y89.728 E6.18645
G1 X89.073 Y90.080 E6.19322
G1 X88.985 Y90.249 E6.19686
G1 X88.771 Y90.432 E6.20222
G1 X88.576 Y90.493 E6.20612
G1 X88.466 Y90.499 E6.20822
G1 X88.371 Y90.484 E6.21004
G1 X88.177 Y90.408 E6.21401
G1 X88.084 Y90.342 E6.21621
G1 X88.004 Y90.250 E6.21852
G1 X87.965 Y90.188 E6.21992
G1 X87.868 Y89.775 E6.22800
G1 X87.868 Y74.718 E6.51503
G1 X87.518 Y74.718 F7800.000
G1 X87.518 Y59.922 E6.79709 F600.000
G1 X87.579 Y59.589 E6.80355
G1 X87.675 Y59.379 E6.80795
G1 X87.753 Y59.274 E6.81045
G1 X87.930 Y59.121 E6.81491
G1 X88.208 Y58.984 E6.82082
G1 X88.680 Y58.955 E6.82983 F600.000
G1 X89.000 Y59.079 E6.83638
G1 X89.203 Y59.248 E6.84141
G1 X89.428 Y59.662 E6.85040
G1 X89.468 Y59.959 E6.85612
G1 X89.468 Y89.750 E7.42402
G1 X89.413 Y90.187 E7.43242
G1 X89.266 Y90.468 E7.43846
G1 X89.001 Y90.705 E7.44523
G1 X88.909 Y90.756 E7.44724
G1 X88.639 Y90.840 E7.45263
G1 X88.459 Y90.850 E7.45607
G1 X88.275 Y90.822 E7.45961
G1 X88.010 Y90.719 E7.46505
G1 X87.825 Y90.578 E7.46947
G1 X87.638 Y90.325 E7.47546
G1 X87.518 Y89.816 E7.48545
G1 X87.518 Y74.771 E7.77225
G1 X87.168 Y74.771 F7800.000
G1 X87.168 Y59.891 E8.05591 F600.000
G1 X87.242 Y59.483 E8.06382
G1 X87.374 Y59.198 E8.06979
G1 X87.494 Y59.035 E8.07367
G1 X87.735 Y58.826 E8.07974
G1 X88.117 Y58.639 E8.08783
G1 X88.723 Y58.601 E8.09942
G1 X88.758 Y58.613 E8.10012
G1 X88.862 Y58.637 E8.10215 F600.000
G1 X89.186 Y58.778 E8.10889
G1 X89.478 Y59.022 E8.11615
G1 X89.767 Y59.551 E8.12765
G1 X89.818 Y59.930 E8.13493
G1 X89.818 Y89.772 E8.70381
G1 X89.752 Y90.293 E8.71383
G1 X89.546 Y90.686 E8.72229
G1 X89.187 Y91.009 E8.73149
G1 X89.047 Y91.079 E8.73448
G1 X88.702 Y91.187 E8.74136
G1 X88.452 Y91.201 E8.74614
G1 X88.179 Y91.160 E8.75140
G1 X87.842 Y91.029 E8.75830
G1 X87.571 Y90.818 E8.76485
G1 X87.464 Y90.705 E8.76781
G1 X87.311 Y90.463 E8.77328
G1 X87.176 Y89.890 E8.78450
G1 X87.168 Y74.823 E9.07172
G1 X88.840 Y58.681 F7800.000
G1 X88.713 Y90.038 F7800.000
G1 X88.623 Y90.119 E9.07412 F600.000
G1 X88.510 Y90.157 E9.07648
G1 X88.340 Y90.108 E9.08000
G1 X88.278 Y90.039 E9.08183
G1 X88.207 Y89.736 E9.08801
G1 X88.207 Y59.985 E9.67743
G1 X88.260 Y59.756 E9.68207
G1 X88.323 Y59.695 E9.68381
G1 X88.388 Y59.663 E9.68526
G1 X88.588 Y59.650 E9.68923
G1 X88.635 Y59.671 E9.69023
G1 X88.763 Y59.879 E9.69508
G1 X88.779 Y60.005 E9.69759
G1 X88.779 Y89.707 E10.28604
G1 X88.738 Y89.991 E10.29174
M104 S170 ; set temperature
M140 S30 ; set bed temperature
G1 X88.779 Y89.707 F1360.729 E7.66221
G1 X88.779 Y89.475 F1360.729 E5.54175
G1 F60000.000 E5.29174
G92 E0
G1 Z0.600 F7800.000
G1 X89.118 Y75.516 F7800.000
G1 E5.30000 F60000.000
G1 X89.118 Y89.728 E5.49352 F654.197
G1 X89.073 Y90.083 E5.49839
G1 X88.983 Y90.255 E5.50104
G1 X88.834 Y90.388 E5.50375
G1 X88.703 Y90.449 E5.50572
G1 X88.520 Y90.492 E5.50828
G1 X88.309 Y90.456 E5.51119
G1 X88.183 Y90.406 E5.51304
G1 X88.002 Y90.234 E5.51645
G1 X87.951 Y90.154 E5.51773
G1 X87.868 Y89.785 E5.52289
G1 X87.868 Y59.947 E5.92918
G1 X87.912 Y59.706 E5.93251
G1 X87.983 Y59.551 E5.93483
G1 X88.113 Y59.425 E5.93729
G1 X88.320 Y59.324 E5.94044
G1 X88.599 Y59.306 E5.94425
G1 X88.639 Y59.320 E5.94482
G1 X88.811 Y59.382 E5.94730 F654.197
G1 X88.933 Y59.484 E5.94947
G1 X89.090 Y59.773 E5.95395
G1 X89.118 Y59.976 E5.95675
G1 X89.118 Y75.464 E6.16763
G1 X89.468 Y75.464 F7800.000
G1 X89.468 Y89.750 E6.36216 F654.197
G1 X89.413 Y90.189 E6.36819
G1 X89.263 Y90.474 E6.37257
G1 X89.023 Y90.689 E6.37696
G1 X88.841 Y90.773 E6.37969
G1 X88.641 Y90.835 E6.38255
G1 X88.477 Y90.839 E6.38477
G1 X88.213 Y90.794 E6.38842
G1 X88.015 Y90.717 E6.39132
G1 X87.909 Y90.641 E6.39308
G1 X87.734 Y90.471 E6.39641
G1 X87.624 Y90.292 E6.39928
G1 X87.518 Y89.812 E6.40596
G1 X87.518 Y59.915 E6.81306
G1 X87.575 Y59.600 E6.81742
G1 X87.684 Y59.367 E6.82092
G1 X87.753 Y59.274 E6.82251
G1 X87.918 Y59.131 E6.82548
G1 X88.229 Y58.979 E6.83019
G1 X88.648 Y58.952 E6.83591 F654.197
G1 X88.996 Y59.081 E6.84097
G1 X89.209 Y59.259 E6.84474
G1 X89.429 Y59.662 E6.85099
G1 X89.468 Y59.943 E6.85486
G1 X89.468 Y75.411 E7.06548
G1 X89.818 Y75.411 F7800.000
G1 X89.818 Y89.772 E7.26102 F654.197
G1 X89.750 Y90.300 E7.26827
G1 X89.541 Y90.692 E7.27432
G1 X89.212 Y90.989 E7.28036
G1 X88.979 Y91.096 E7.28385
G1 X88.704 Y91.182 E7.28778
G1 X88.505 Y91.194 E7.29049
G1 X88.192 Y91.146 E7.29480
G1 X87.847 Y91.027 E7.29977
G1 X87.685 Y90.911 E7.30248
G1 X87.563 Y90.780 E7.30491
G1 X87.461 Y90.706 E7.30663
G1 X87.297 Y90.429 E7.31101
G1 X87.168 Y89.840 E7.31923
G1 X87.168 Y59.890 E7.72704
G1 X87.239 Y59.494 E7.73252
G1 X87.385 Y59.183 E7.73720
G1 X87.494 Y59.035 E7.73971
G1 X87.749 Y58.817 E7.74427
G1 X88.131 Y58.637 E7.75002
G1 X88.697 Y58.599 E7.75775
G1 X88.832 Y58.646 E7.75969
G1 X88.918 Y58.665 E7.76089 F654.197
G1 X89.182 Y58.780 E7.76482
G1 X89.486 Y59.036 E7.77022
G1 X89.767 Y59.552 E7.77822
G1 X89.817 Y59.903 E7.78306
G1 X89.818 Y75.359 E7.99351
G1 X88.911 Y58.684 F7800.000
G1 X88.175 Y59.724 F7800.000
G1 X88.292 Y59.606 E7.99600 F600.000
G1 X88.763 Y59.689 E8.00315
G1 X88.110 Y60.342 E8.01698
G1 X88.110 Y60.895 E8.02526
G1 X88.876 Y60.128 E8.04150
G1 X88.876 Y60.681 E8.04978
G1 X88.110 Y61.448 E8.06602
G1 X88.110 Y62.001 E8.07430
G1 X88.876 Y61.234 E8.09053
G1 X88.876 Y61.787 E8.09881
G1 X88.110 Y62.554 E8.11505
G1 X88.110 Y63.107 E8.12333
G1 X88.876 Y62.340 E8.13957
G1 X88.876 Y62.893 E8.14785
G1 X88.110 Y63.660 E8.16408
G1 X88.110 Y64.213 E8.17236
G1 X88.876 Y63.446 E8.18860
G1 X88.876 Y63.999 E8.19688
G1 X88.110 Y64.766 E8.21312
G1 X88.110 Y65.319 E8.22140
G1 X88.876 Y64.552 E8.23763
G1 X88.876 Y65.105 E8.24591
G1 X88.110 Y65.872 E8.26215
G1 X88.110 Y66.425 E8.27043
G1 X88.876 Y65.658 E8.28667
G1 X88.876 Y66.211 E8.29495
G1 X88.110 Y66.978 E8.31119
G1 X88.110 Y67.531 E8.31946
G1 X88.876 Y66.764 E8.33570
G1 X88.876 Y67.317 E8.34398
G1 X88.110 Y68.084 E8.36022
G1 X88.110 Y68.636 E8.36850
G1 X88.876 Y67.870 E8.38474
G1 X88.876 Y68.423 E8.39301
G1 X88.110 Y69.189 E8.40925
G1 X88.110 Y69.742 E8.41753
G1 X88.876 Y68.976 E8.43377
G1 X88.876 Y69.529 E8.44205
G1 X88.110 Y70.295 E8.45829
G1 X88.110 Y70.848 E8.46657
G1 X88.876 Y70.082 E8.48280
G1 X88.876 Y70.634 E8.49108
G1 X88.110 Y71.401 E8.50732
G1 X88.110 Y71.954 E8.51560
G1 X88.876 Y71.187 E8.53184
G1 X88.876 Y71.740 E8.54012
G1 X88.110 Y72.507 E8.55635
G1 X88.110 Y73.060 E8.56463
G1 X88.876 Y72.293 E8.58087
G1 X88.876 Y72.846 E8.58915
G1 X88.110 Y73.613 E8.60539
G1 X88.110 Y74.166 E8.61367
G1 X88.876 Y73.399 E8.62990
G1 X88.876 Y73.952 E8.63818
G1 X88.110 Y74.719 E8.65442
G1 X88.110 Y75.272 E8.66270
G1 X88.876 Y74.505 E8.67894
G1 X88.876 Y75.058 E8.68722
G1 X88.110 Y75.825 E8.70345
G1 X88.110 Y76.378 E8.71173
G1 X88.876 Y75.611 E8.72797
G1 X88.876 Y76.164 E8.73625
G1 X88.110 Y76.931 E8.75249
G1 X88.110 Y77.484 E8.76077
G1 X88.876 Y76.717 E8.77700
G1 X88.876 Y77.270 E8.78528
G1 X88.110 Y78.037 E8.80152
G1 X88.110 Y78.590 E8.80980
G1 X88.876 Y77.823 E8.82604
G1 X88.876 Y78.376 E8.83432
G1 X88.110 Y79.143 E8.85056
G1 X88.110 Y79.696 E8.85883
G1 X88.876 Y78.929 E8.87507
G1 X88.876 Y79.482 E8.88335
G1 X88.110 Y80.249 E8.89959
G1 X88.110 Y80.802 E8.90787
G1 X88.876 Y80.035 E8.92411
G1 X88.876 Y80.588 E8.93238
G1 X88.110 Y81.355 E8.94862
G1 X88.110 Y81.908 E8.95690
G1 X88.876 Y81.141 E8.97314
G1 X88.876 Y81.694 E8.98142
G1 X88.110 Y82.461 E8.99766
G1 X88.110 Y83.014 E9.00594
G1 X88.876 Y82.247 E9.02217
G1 X88.876 Y82.800 E9.03045
G1 X88.110 Y83.567 E9.04669
G1 X88.110 Y84.120 E9.05497
G1 X88.876 Y83.353 E9.07121
G1 X88.876 Y83.906 E9.07949
G1 X88.110 Y84.673 E9.09572
G1 X88.110 Y85.226 E9.10400
G1 X88.876 Y84.459 E9.12024
G1 X88.876 Y85.012 E9.12852
G1 X88.110 Y85.779 E9.14476
G1 X88.110 Y86.332 E9.15304
G1 X88.876 Y85.565 E9.16927
G1 X88.876 Y86.118 E9.17755
G1 X88.110 Y86.885 E9.19379
G1 X88.110 Y87.438 E9.20207
G1 X88.876 Y86.671 E9.21831
G1 X88.876 Y87.224 E9.22659
G1 X88.110 Y87.991 E9.24282
G1 X88.110 Y88.544 E9.25110
G1 X88.876 Y87.777 E9.26734
G1 X88.876 Y88.330 E9.27562
G1 X88.110 Y89.097 E9.29186
G1 X88.110 Y89.650 E9.30014
G1 X88.876 Y88.883 E9.31637
G1 X88.876 Y89.436 E9.32465
G1 X88.223 Y90.089 E9.33849
G1 X88.673 Y90.192 E9.34540
G1 X88.820 Y90.045 E9.34851
M106 S229
G1 X88.673 Y90.192 F1361.537 E7.44960
