; generated by Slic3r 1.1.7 on 2015-05-24 at 22:37:16

; perimeters extrusion width = 0.35mm
; infill extrusion width = 0.39mm
; solid infill extrusion width = 0.39mm
; top infill extrusion width = 0.39mm

G21 ; set units to millimeters
M107
M190 S65 ; wait for bed temperature to be reached
M104 S175 ; set temperature
M107 ; Fan off 
G92 X0 Y0 Z0 ; Manually move to zero pos
G1 Z0 F4000 ; move to print surface
M302 ; allow cold extrusion
M109 S175 ; wait for temperature to be reached
G90 ; use absolute coordinates
G92 E0
M82 ; use absolute distances for extrusion
G1 F60000.000 E-5.00000
G92 E0
G1 Z0.350 F7800.000
G1 X53.965 Y52.307 F7800.000
G1 E5.30000 F60000.000
G1 X54.507 Y51.748 E5.31484 F600.000
G1 X55.453 Y51.037 E5.33741
G1 X56.500 Y50.483 E5.35999
G1 X57.620 Y50.100 E5.38255
G1 X58.787 Y49.896 E5.40514
G1 X59.492 Y49.859 E5.41859
G1 X84.004 Y49.841 E5.88587
G1 X90.979 Y49.860 E6.01883
G1 X92.151 Y50.027 E6.04140 F600.000
G1 X93.282 Y50.375 E6.06397
G1 X93.492 Y50.462 E6.06831
G1 X94.346 Y50.896 E6.08656
G1 X94.539 Y51.015 E6.09089
G1 X95.314 Y51.577 E6.10913
G1 X96.165 Y52.401 E6.13172
G1 X96.876 Y53.348 E6.15429
G1 X96.994 Y53.541 E6.15860
G1 X97.430 Y54.395 E6.17687
G1 X97.516 Y54.603 E6.18116
G1 X97.813 Y55.515 E6.19946
G1 X97.866 Y55.734 E6.20376
G1 X98.017 Y56.682 E6.22204
G1 X98.054 Y57.391 E6.23558
G1 X98.035 Y93.066 E6.91566
G1 X97.868 Y94.238 E6.93823
G1 X97.815 Y94.457 E6.94254
G1 X97.520 Y95.370 E6.96082
G1 X97.434 Y95.578 E6.96511
G1 X96.999 Y96.433 E6.98340
G1 X96.881 Y96.625 E6.98769
G1 X96.318 Y97.401 E7.00597
G1 X95.493 Y98.252 E7.02856
G1 X94.547 Y98.963 E7.05113
G1 X94.354 Y99.081 E7.05543
G1 X93.500 Y99.517 E7.07372
G1 X93.292 Y99.603 E7.07801
G1 X92.379 Y99.900 E7.09630
G1 X91.213 Y100.104 E7.11887
G1 X90.521 Y100.141 E7.13209
G1 X83.996 Y100.159 E7.25647
G1 X59.022 Y100.140 E7.73256
G1 X58.797 Y100.123 E7.73687
G1 X57.849 Y99.973 E7.75515
G1 X57.630 Y99.921 E7.75944
G1 X56.717 Y99.625 E7.77773
G1 X55.654 Y99.104 E7.80031
G1 X54.686 Y98.423 E7.82287
G1 X53.835 Y97.599 E7.84546
G1 X53.124 Y96.652 E7.86803
G1 X52.570 Y95.605 E7.89060
G1 X52.187 Y94.485 E7.91318
G1 X52.134 Y94.264 E7.91751
G1 X51.983 Y93.319 E7.93576
G1 X51.966 Y93.094 E7.94005
G1 X51.946 Y92.609 E7.94930
G1 X51.965 Y56.934 E8.62938
G1 X52.132 Y55.762 E8.65195
G1 X52.480 Y54.631 E8.67452
G1 X52.567 Y54.420 E8.67886
G1 X53.001 Y53.567 E8.69711
G1 X53.682 Y52.598 E8.71968
G1 X53.928 Y52.345 E8.72642
G1 X54.179 Y52.587 F7800.000
G1 X54.734 Y52.014 E8.74163 F600.000
G1 X55.636 Y51.336 E8.76315
G1 X56.634 Y50.806 E8.78468
G1 X57.702 Y50.440 E8.80620
G1 X58.815 Y50.245 E8.82773
G1 X59.492 Y50.209 E8.84067
G1 X84.004 Y50.191 E9.30794
G1 X90.951 Y50.208 E9.44038
G1 X92.069 Y50.367 E9.46190 F600.000
G1 X93.148 Y50.698 E9.48343
G1 X93.358 Y50.785 E9.48776
G1 X94.163 Y51.194 E9.50497
G1 X94.356 Y51.313 E9.50929
G1 X95.087 Y51.843 E9.52650
G1 X95.899 Y52.629 E9.54804
G1 X96.577 Y53.531 E9.56956
G1 X96.695 Y53.724 E9.57387
G1 X97.106 Y54.529 E9.59109
G1 X97.192 Y54.737 E9.59539
G1 X97.473 Y55.597 E9.61263
G1 X97.525 Y55.816 E9.61693
G1 X97.668 Y56.709 E9.63417
G1 X97.704 Y57.391 E9.64719
G1 X97.686 Y93.038 E10.32674
G1 X97.528 Y94.156 E10.34826
G1 X97.475 Y94.376 E10.35257
G1 X97.196 Y95.236 E10.36980
G1 X97.110 Y95.444 E10.37410
G1 X96.700 Y96.250 E10.39134
G1 X96.583 Y96.442 E10.39563
G1 X96.052 Y97.174 E10.41286
G1 X95.266 Y97.986 E10.43440
G1 X94.364 Y98.664 E10.45593
G1 X94.172 Y98.782 E10.46022
G1 X93.366 Y99.194 E10.47747
G1 X93.158 Y99.280 E10.48176
G1 X92.298 Y99.560 E10.49901
G1 X91.186 Y99.755 E10.52053
G1 X90.520 Y99.791 E10.53324
G1 X83.996 Y99.809 E10.65760
G1 X59.049 Y99.792 E11.13317
G1 X58.824 Y99.774 E11.13748
G1 X57.931 Y99.633 E11.15471
G1 X57.712 Y99.581 E11.15901
G1 X56.851 Y99.302 E11.17625
G1 X55.837 Y98.806 E11.19778
G1 X54.913 Y98.157 E11.21929
G1 X54.101 Y97.372 E11.24083
G1 X53.423 Y96.469 E11.26235
G1 X52.894 Y95.471 E11.28389
G1 X52.527 Y94.403 E11.30541
G1 X52.474 Y94.182 E11.30974
G1 X52.332 Y93.291 E11.32695
G1 X52.315 Y93.067 E11.33124
G1 X52.296 Y92.609 E11.33997
G1 X52.314 Y56.962 E12.01952
G1 X52.472 Y55.844 E12.04104
G1 X52.804 Y54.764 E12.06257
G1 X52.891 Y54.554 E12.06690
G1 X53.300 Y53.750 E12.08411
G1 X53.948 Y52.826 E12.10563
G1 X54.142 Y52.625 E12.11096
G1 X54.394 Y52.868 F7800.000
G1 X54.961 Y52.280 E12.12653 F600.000
G1 X55.819 Y51.634 E12.14701
G1 X56.768 Y51.130 E12.16749
G1 X57.784 Y50.780 E12.18796
G1 X58.842 Y50.594 E12.20845
G1 X59.492 Y50.559 E12.22086
G1 X84.004 Y50.541 E12.68813
G1 X90.924 Y50.557 E12.82005
G1 X91.987 Y50.707 E12.84052 F600.000
G1 X93.014 Y51.021 E12.86100
G1 X93.224 Y51.108 E12.86533
G1 X93.980 Y51.493 E12.88150
G1 X94.173 Y51.611 E12.88582
G1 X94.860 Y52.109 E12.90198
G1 X95.633 Y52.856 E12.92247
G1 X96.279 Y53.714 E12.94294
G1 X96.397 Y53.907 E12.94726
G1 X96.783 Y54.662 E12.96343
G1 X96.869 Y54.871 E12.96773
G1 X97.132 Y55.678 E12.98393
G1 X97.185 Y55.898 E12.98822
G1 X97.319 Y56.736 E13.00441
G1 X97.354 Y57.391 E13.01691
G1 X97.337 Y93.011 E13.69594
G1 X97.187 Y94.074 E13.71641
G1 X97.135 Y94.294 E13.72072
G1 X96.873 Y95.102 E13.73691
G1 X96.787 Y95.310 E13.74120
G1 X96.402 Y96.067 E13.75739
G1 X96.284 Y96.259 E13.76169
G1 X95.786 Y96.947 E13.77787
G1 X95.039 Y97.720 E13.79837
G1 X94.181 Y98.366 E13.81884
G1 X93.989 Y98.484 E13.82314
G1 X93.232 Y98.870 E13.83934
G1 X93.024 Y98.956 E13.84363
G1 X92.216 Y99.220 E13.85983
G1 X91.158 Y99.406 E13.88031
G1 X90.519 Y99.441 E13.89251
G1 X83.996 Y99.459 E14.01685
G1 X59.077 Y99.443 E14.49190
G1 X58.852 Y99.425 E14.49621
G1 X58.013 Y99.293 E14.51239
G1 X57.794 Y99.240 E14.51669
G1 X56.985 Y98.978 E14.53289
G1 X56.020 Y98.507 E14.55336
G1 X55.140 Y97.891 E14.57384
G1 X54.367 Y97.144 E14.59433
G1 X53.721 Y96.286 E14.61480
G1 X53.217 Y95.337 E14.63529
G1 X52.868 Y94.322 E14.65576
G1 X52.815 Y94.101 E14.66009
G1 X52.681 Y93.264 E14.67625
G1 X52.646 Y92.609 E14.68875
G1 X52.663 Y56.989 E15.36778
G1 X52.813 Y55.926 E15.38825
G1 X53.127 Y54.898 E15.40873
G1 X53.214 Y54.689 E15.41306
G1 X53.598 Y53.933 E15.42923
G1 X54.214 Y53.053 E15.44970
G1 X54.357 Y52.905 E15.45361
G1 X54.876 Y52.875 F6240.000 E10.70361
G1 F60000.000 E10.45361
G92 E0
G1 X86.500 Y59.537 F7800.000
G1 E5.30000 F60000.000
G1 X86.587 Y59.214 E5.30638 F600.000
G1 X86.726 Y58.910 E5.31276
G1 X86.914 Y58.632 E5.31914
G1 X87.144 Y58.390 E5.32552
G1 X87.411 Y58.188 E5.33191
G1 X87.708 Y58.033 E5.33829
G1 X88.026 Y57.929 E5.34467
G1 X88.412 Y57.880 E5.35207
G1 X88.692 Y57.885 E5.35742 F600.000
G1 X89.021 Y57.945 E5.36380
G1 X89.336 Y58.058 E5.37018
G1 X89.628 Y58.222 E5.37656
G1 X89.889 Y58.432 E5.38295
G1 X90.112 Y58.681 E5.38932
G1 X90.291 Y58.965 E5.39571
G1 X90.421 Y59.273 E5.40209
G1 X90.498 Y59.599 E5.40847
G1 X90.518 Y59.907 E5.41436
G1 X90.515 Y90.067 E5.98930
G1 X90.459 Y90.390 E5.99555
G1 X90.352 Y90.700 E6.00180
G1 X90.244 Y90.899 E6.00613
G1 X89.996 Y91.247 E6.01427
G1 X89.756 Y91.471 E6.02052
G1 X89.483 Y91.653 E6.02677
G1 X89.276 Y91.749 E6.03111
G1 X88.868 Y91.875 E6.03926
G1 X88.542 Y91.908 E6.04551
G1 X88.315 Y91.897 E6.04985
G1 X87.895 Y91.817 E6.05799
G1 X87.591 Y91.695 E6.06424
G1 X87.400 Y91.583 E6.06846
G1 X87.091 Y91.341 E6.07596
G1 X86.875 Y91.096 E6.08217
G1 X86.734 Y90.876 E6.08716
G1 X86.597 Y90.579 E6.09339
G1 X86.540 Y90.404 E6.09690
G1 X86.468 Y90.404 E6.09827
G1 X86.468 Y59.856 E6.68060
G1 X86.495 Y59.590 E6.68571
G1 X86.843 Y59.624 F7800.000
G1 X86.917 Y59.333 E6.69143 F600.000
G1 X87.032 Y59.082 E6.69670
G1 X87.187 Y58.852 E6.70198
G1 X87.378 Y58.652 E6.70725
G1 X87.599 Y58.485 E6.71253
G1 X87.844 Y58.357 E6.71781
G1 X88.132 Y58.267 E6.72356
G1 X88.381 Y58.230 E6.72835 F600.000
G1 X88.658 Y58.234 E6.73363
G1 X88.930 Y58.284 E6.73890
G1 X89.190 Y58.378 E6.74418
G1 X89.432 Y58.513 E6.74945
G1 X89.647 Y58.687 E6.75473
G1 X89.832 Y58.893 E6.76000
G1 X89.979 Y59.127 E6.76528
G1 X90.087 Y59.382 E6.77055
G1 X90.150 Y59.651 E6.77583
G1 X90.168 Y59.919 E6.78094
G1 X90.165 Y90.036 E7.35506
G1 X90.119 Y90.302 E7.36023
G1 X90.030 Y90.558 E7.36539
G1 X89.902 Y90.796 E7.37054
G1 X89.736 Y91.010 E7.37571
G1 X89.538 Y91.195 E7.38087
G1 X89.313 Y91.346 E7.38603
G1 X89.067 Y91.458 E7.39119
G1 X88.875 Y91.512 E7.39498
G1 X88.536 Y91.558 E7.40150
G1 X88.266 Y91.542 E7.40667
G1 X88.002 Y91.483 E7.41183
G1 X87.751 Y91.383 E7.41699
G1 X87.539 Y91.257 E7.42168
G1 X87.331 Y91.086 E7.42681
G1 X87.154 Y90.884 E7.43194
G1 X87.011 Y90.656 E7.43707
G1 X86.922 Y90.449 E7.44137
G1 X86.818 Y90.054 E7.44915
G1 X86.818 Y59.874 E8.02448
G1 X86.838 Y59.676 E8.02826
G1 X88.165 Y58.018 F7800.000
G1 X63.532 Y59.596 F7800.000
G1 X63.532 Y90.144 E8.61059 F600.000
G1 X63.500 Y90.463 E8.61670
G1 X63.413 Y90.786 E8.62308
G1 X63.274 Y91.090 E8.62946
G1 X63.086 Y91.368 E8.63585
G1 X62.856 Y91.610 E8.64223
G1 X62.589 Y91.812 E8.64861
G1 X62.292 Y91.967 E8.65499
G1 X61.974 Y92.071 E8.66137
G1 X61.643 Y92.121 E8.66775
G1 X61.308 Y92.115 E8.67413
G1 X60.979 Y92.055 E8.68051
G1 X60.664 Y91.942 E8.68690
G1 X60.372 Y91.778 E8.69328
G1 X60.111 Y91.568 E8.69966
G1 X59.888 Y91.318 E8.70604
G1 X59.709 Y91.035 E8.71242
G1 X59.579 Y90.727 E8.71880
G1 X59.502 Y90.401 E8.72518
G1 X59.482 Y90.093 E8.73107
G1 X59.485 Y59.933 E9.30602
G1 X59.541 Y59.610 E9.31227
G1 X59.648 Y59.300 E9.31852
G1 X59.756 Y59.101 E9.32284
G1 X60.004 Y58.753 E9.33098
G1 X60.244 Y58.529 E9.33723
G1 X60.517 Y58.347 E9.34348
G1 X60.815 Y58.211 E9.34973
G1 X61.131 Y58.125 E9.35598
G1 X61.458 Y58.092 E9.36224
G1 X61.685 Y58.103 E9.36658
G1 X62.105 Y58.183 E9.37472 F600.000
G1 X62.317 Y58.265 E9.37906
G1 X62.657 Y58.453 E9.38647
G1 X62.859 Y58.616 E9.39141
G1 X63.157 Y58.950 E9.39995
G1 X63.299 Y59.180 E9.40510
G1 X63.460 Y59.596 E9.41361
G1 X63.479 Y59.596 E9.41398
G1 X63.118 Y59.684 F7800.000
G1 X63.182 Y59.946 E9.41913 F600.000
G1 X63.182 Y90.126 E9.99446
G1 X63.155 Y90.400 E9.99969
G1 X63.083 Y90.667 E10.00496
G1 X62.968 Y90.918 E10.01024
G1 X62.813 Y91.148 E10.01551
G1 X62.622 Y91.348 E10.02079
G1 X62.401 Y91.515 E10.02607
G1 X62.156 Y91.643 E10.03134
G1 X61.868 Y91.733 E10.03709
G1 X61.619 Y91.770 E10.04189
G1 X61.342 Y91.766 E10.04716
G1 X61.070 Y91.716 E10.05244
G1 X60.810 Y91.622 E10.05771
G1 X60.568 Y91.487 E10.06299
G1 X60.353 Y91.313 E10.06826
G1 X60.168 Y91.107 E10.07354
G1 X60.021 Y90.873 E10.07882
G1 X59.913 Y90.618 E10.08409
G1 X59.850 Y90.349 E10.08937
G1 X59.832 Y90.081 E10.09448
G1 X59.835 Y59.964 E10.66860
G1 X59.881 Y59.698 E10.67376
G1 X59.970 Y59.442 E10.67892
G1 X60.098 Y59.204 E10.68408
G1 X60.264 Y58.990 E10.68924
G1 X60.462 Y58.805 E10.69440
G1 X60.687 Y58.654 E10.69957
G1 X60.933 Y58.542 E10.70473
G1 X61.194 Y58.470 E10.70989
G1 X61.392 Y58.448 E10.71368
G1 X61.734 Y58.458 E10.72020 F600.000
G1 X61.998 Y58.517 E10.72536
G1 X62.249 Y58.617 E10.73053
G1 X62.461 Y58.743 E10.73521
G1 X62.669 Y58.914 E10.74034
G1 X62.846 Y59.116 E10.74547
G1 X62.989 Y59.344 E10.75060
G1 X63.106 Y59.633 E10.75654
G1 X61.280 Y58.125 F7800.000
G1 X61.699 Y58.432 F6240.000 E6.00654
G1 F60000.000 E5.75654
G92 E0
G1 X81.674 Y93.234 F7800.000
G1 E5.30000 F60000.000
G1 X59.531 Y93.234 E5.72213 F600.000
G1 X59.399 Y93.224 E5.72465
G1 X59.214 Y93.164 E5.72836
G1 X59.056 Y93.049 E5.73207
G1 X58.993 Y92.975 E5.73393
G1 X58.904 Y92.801 E5.73764
G1 X58.871 Y92.575 E5.74201
G1 X58.871 Y90.267 E5.78599
G1 X59.142 Y90.258 E5.79115
G1 X59.155 Y90.454 E5.79488
G1 X59.246 Y90.836 E5.80237
G1 X59.398 Y91.198 E5.80986
G1 X59.607 Y91.530 E5.81734
G1 X59.869 Y91.823 E5.82483
G1 X60.175 Y92.069 E5.83232
G1 X60.518 Y92.261 E5.83981
G1 X60.887 Y92.394 E5.84729
G1 X61.274 Y92.465 E5.85478
G1 X61.666 Y92.471 E5.86227
G1 X62.055 Y92.412 E5.86976
G1 X62.428 Y92.290 E5.87724
G1 X62.776 Y92.109 E5.88473
G1 X63.090 Y91.872 E5.89222
G1 X63.360 Y91.588 E5.89970
G1 X63.580 Y91.262 E5.90719
G1 X63.743 Y90.905 E5.91468
G1 X63.846 Y90.526 E5.92216
G1 X63.882 Y90.161 E5.92916
G1 X63.882 Y59.246 E6.51848
G1 X63.709 Y59.246 E6.52176
G1 X63.608 Y59.016 E6.52656
G1 X63.449 Y58.757 E6.53236
G1 X63.205 Y58.461 E6.53967
G1 X62.854 Y58.162 E6.54846
G1 X62.568 Y57.993 E6.55479
G1 X62.211 Y57.849 E6.56213
G1 X61.836 Y57.764 E6.56946
G1 X61.452 Y57.741 E6.57680
G1 X61.069 Y57.780 E6.58414
G1 X60.697 Y57.881 E6.59148
G1 X60.347 Y58.040 E6.59882
G1 X60.026 Y58.254 E6.60616
G1 X59.745 Y58.517 E6.61350
G1 X59.509 Y58.821 E6.62084
G1 X59.327 Y59.159 E6.62815
G1 X59.201 Y59.522 E6.63548
G1 X59.128 Y59.945 E6.64367
G1 X58.871 Y59.924 E6.64859
G1 X58.871 Y57.443 E6.69588
G1 X58.904 Y57.217 E6.70024
G1 X58.993 Y57.043 E6.70395
G1 X59.131 Y56.906 E6.70767
G1 X59.304 Y56.817 E6.71138
G1 X59.531 Y56.784 E6.71575
G1 X90.601 Y56.776 E7.30805
G1 X90.786 Y56.836 E7.31176 F600.000
G1 X90.944 Y56.951 E7.31547
G1 X91.058 Y57.108 E7.31918
G1 X91.118 Y57.294 E7.32289
G1 X91.129 Y59.733 E7.36939
G1 X90.858 Y59.742 E7.37455
G1 X90.845 Y59.546 E7.37828
G1 X90.754 Y59.164 E7.38577
G1 X90.602 Y58.802 E7.39325
G1 X90.392 Y58.470 E7.40074
G1 X90.131 Y58.177 E7.40823
G1 X89.825 Y57.931 E7.41572
G1 X89.482 Y57.739 E7.42320
G1 X89.113 Y57.606 E7.43069
G1 X88.727 Y57.535 E7.43817
G1 X88.334 Y57.529 E7.44566
G1 X87.946 Y57.588 E7.45315
G1 X87.572 Y57.710 E7.46064
G1 X87.224 Y57.891 E7.46812
G1 X86.910 Y58.128 E7.47561
G1 X86.640 Y58.412 E7.48310
G1 X86.420 Y58.738 E7.49059
G1 X86.257 Y59.095 E7.49808
G1 X86.154 Y59.474 E7.50556
G1 X86.118 Y59.839 E7.51255
G1 X86.118 Y90.754 E8.10188
G1 X86.291 Y90.754 E8.10516
G1 X86.392 Y90.984 E8.10996
G1 X86.551 Y91.243 E8.11575
G1 X86.795 Y91.539 E8.12306
G1 X87.146 Y91.838 E8.13186
G1 X87.432 Y92.007 E8.13819
G1 X87.789 Y92.151 E8.14552
G1 X88.164 Y92.236 E8.15286
G1 X88.548 Y92.259 E8.16020
G1 X88.931 Y92.220 E8.16754
G1 X89.303 Y92.119 E8.17488
G1 X89.653 Y91.960 E8.18222
G1 X89.974 Y91.746 E8.18956
G1 X90.255 Y91.483 E8.19690
G1 X90.491 Y91.179 E8.20424
G1 X90.673 Y90.841 E8.21154
G1 X90.799 Y90.478 E8.21888
G1 X90.872 Y90.055 E8.22707
G1 X91.129 Y90.076 E8.23198
G1 X91.129 Y92.557 E8.27927
G1 X91.096 Y92.783 E8.28364
G1 X91.007 Y92.957 E8.28735
G1 X90.869 Y93.094 E8.29106
G1 X90.696 Y93.183 E8.29477
G1 X90.469 Y93.216 E8.29914
G1 X84.195 Y93.216 E8.41875
G1 X83.964 Y93.234 E8.42317
G1 X81.727 Y93.234 E8.46582
G1 X81.727 Y93.584 F7800.000
G1 X59.517 Y93.584 E8.88921 F600.000
G1 X59.344 Y93.571 E8.89251
G1 X59.054 Y93.476 E8.89832
G1 X58.808 Y93.297 E8.90412
G1 X58.709 Y93.181 E8.90704
G1 X58.571 Y92.910 E8.91284
G1 X58.535 Y92.761 E8.91575
G1 X58.521 Y92.588 E8.91906
G1 X58.521 Y57.430 E9.58930
G1 X58.535 Y57.257 E9.59260
G1 X58.571 Y57.108 E9.59552
G1 X58.629 Y56.967 E9.59843
G1 X58.808 Y56.721 E9.60423
G1 X59.054 Y56.542 E9.61004
G1 X59.196 Y56.483 E9.61295
G1 X59.344 Y56.448 E9.61586
G1 X59.517 Y56.434 E9.61917
G1 X84.529 Y56.434 E10.09597
G1 X84.529 Y56.416 E10.09632
G1 X90.483 Y56.416 E10.20983 F600.000
G1 X90.656 Y56.430 E10.21314
G1 X90.946 Y56.524 E10.21894
G1 X91.192 Y56.703 E10.22475
G1 X91.371 Y56.949 E10.23055
G1 X91.465 Y57.239 E10.23636
G1 X91.479 Y57.412 E10.23966
G1 X91.479 Y92.570 E10.90990
G1 X91.465 Y92.743 E10.91321
G1 X91.429 Y92.892 E10.91612
G1 X91.291 Y93.163 E10.92193
G1 X91.192 Y93.279 E10.92484
G1 X90.946 Y93.458 E10.93064
G1 X90.656 Y93.552 E10.93645
G1 X90.483 Y93.566 E10.93976
G1 X84.209 Y93.566 E11.05936
G1 X83.977 Y93.584 E11.06379
G1 X81.779 Y93.584 E11.10569
G1 X81.779 Y93.934 F7800.000
G1 X59.503 Y93.934 E11.53035 F600.000
G1 X59.289 Y93.917 E11.53444
G1 X59.087 Y93.869 E11.53840
G1 X58.895 Y93.789 E11.54236
G1 X58.718 Y93.681 E11.54633
G1 X58.560 Y93.546 E11.55029
G1 X58.425 Y93.388 E11.55425
G1 X58.316 Y93.210 E11.55821
G1 X58.237 Y93.018 E11.56217
G1 X58.188 Y92.816 E11.56614
G1 X58.171 Y92.602 E11.57023
G1 X58.171 Y57.416 E12.24099
G1 X58.188 Y57.202 E12.24509
G1 X58.237 Y57.000 E12.24905
G1 X58.316 Y56.808 E12.25301
G1 X58.425 Y56.631 E12.25697
G1 X58.560 Y56.473 E12.26093
G1 X58.718 Y56.338 E12.26490
G1 X58.895 Y56.229 E12.26886
G1 X59.087 Y56.149 E12.27282
G1 X59.289 Y56.101 E12.27678
G1 X59.503 Y56.084 E12.28087
G1 X84.179 Y56.084 E12.75127
G1 X84.179 Y56.066 E12.75162
G1 X90.497 Y56.066 E12.87206
G1 X90.711 Y56.083 E12.87615
G1 X90.913 Y56.131 E12.88012 F600.000
G1 X91.105 Y56.211 E12.88408
