; generated by Slic3r 1.1.7 on 2015-05-25 at 19:01:30

; perimeters extrusion width = 0.35mm
; infill extrusion width = 0.39mm
; solid infill extrusion width = 0.39mm
; top infill extrusion width = 0.39mm

G21 ; set units to millimeters
M107
M190 S65 ; wait for bed temperature to be reached
M104 S175 ; set temperature
M107 ; Fan off 
G92 X0 Y0 Z0 ; Manually move to zero pos
G1 Z0 F4000 ; move to print surface
M302 ; allow cold extrusion
M109 S175 ; wait for temperature to be reached
G90 ; use absolute coordinates
G92 E0
M82 ; use absolute distances for extrusion
G1 F60000.000 E-5.00000
G92 E0
G1 Z0.350 F7800.000
G1 X54.115 Y52.115 F7800.000
G1 E5.30000 F60000.000
G1 X54.660 Y51.613 E5.31413 F600.000
G1 X55.162 Y51.228 E5.32619
G1 X55.696 Y50.886 E5.33827
G1 X56.251 Y50.593 E5.35025
G1 X56.834 Y50.345 E5.36231
G1 X57.428 Y50.149 E5.37424
G1 X58.042 Y50.001 E5.38629
G1 X58.667 Y49.906 E5.39834
G1 X59.124 Y49.869 E5.40707
G1 X90.725 Y49.845 E6.00950
G1 X91.323 Y49.886 E6.02091 F600.000
G1 X92.002 Y49.992 E6.03402
G1 X92.557 Y50.126 E6.04491
G1 X93.157 Y50.323 E6.05695
G1 X93.743 Y50.572 E6.06907
G1 X94.299 Y50.865 E6.08106
G1 X94.829 Y51.204 E6.09304
G1 X95.330 Y51.586 E6.10507
G1 X95.805 Y52.017 E6.11730
G1 X96.300 Y52.555 E6.13123
G1 X96.685 Y53.057 E6.14328
G1 X97.025 Y53.589 E6.15532
G1 X97.320 Y54.146 E6.16733
G1 X97.514 Y54.590 E6.17657
G1 X97.764 Y55.324 E6.19136
G1 X97.912 Y55.937 E6.20338
G1 X98.007 Y56.562 E6.21543
G1 X98.054 Y57.391 E6.23126
G1 X98.050 Y92.812 E6.90650
G1 X98.009 Y93.409 E6.91790
G1 X97.914 Y94.034 E6.92996
G1 X97.768 Y94.647 E6.94196
G1 X97.571 Y95.246 E6.95399
G1 X97.325 Y95.826 E6.96600
G1 X97.030 Y96.384 E6.97803
G1 X96.691 Y96.916 E6.99005
G1 X96.307 Y97.419 E7.00211
G1 X95.885 Y97.885 E7.01410
G1 X95.430 Y98.311 E7.02599
G1 X94.940 Y98.698 E7.03789
G1 X94.421 Y99.044 E7.04978
G1 X93.874 Y99.346 E7.06169
G1 X93.305 Y99.601 E7.07358
G1 X92.716 Y99.808 E7.08548
G1 X92.113 Y99.966 E7.09737
G1 X91.498 Y100.074 E7.10927
G1 X90.876 Y100.131 E7.12117
G1 X83.996 Y100.159 E7.25232
G1 X59.275 Y100.155 E7.72359
G1 X58.678 Y100.114 E7.73500
G1 X58.055 Y100.020 E7.74700
G1 X57.392 Y99.859 E7.76001
G1 X56.842 Y99.676 E7.77106
G1 X56.261 Y99.430 E7.78309
G1 X55.704 Y99.136 E7.79510
G1 X55.171 Y98.796 E7.80714
G1 X54.656 Y98.402 E7.81951
G1 X54.202 Y97.991 E7.83118
G1 X53.776 Y97.535 E7.84308
G1 X53.389 Y97.046 E7.85498
G1 X53.043 Y96.526 E7.86687
G1 X52.742 Y95.980 E7.87878
G1 X52.433 Y95.273 E7.89348
G1 X52.235 Y94.673 E7.90551
G1 X52.089 Y94.064 E7.91747
G1 X51.993 Y93.438 E7.92953
G1 X51.951 Y92.840 E7.94096
G1 X51.950 Y57.187 E8.62062
G1 X51.992 Y56.590 E8.63202
G1 X52.086 Y55.965 E8.64407
G1 X52.232 Y55.355 E8.65604
G1 X52.445 Y54.713 E8.66893
G1 X52.676 Y54.172 E8.68014
G1 X52.985 Y53.589 E8.69272
G1 X53.323 Y53.065 E8.70461
G1 X53.693 Y52.581 E8.71621
G1 X54.079 Y52.154 E8.72720
G1 X54.339 Y52.389 F7800.000
G1 X54.796 Y51.956 E8.73920 F600.000
G1 X55.263 Y51.586 E8.75056
G1 X55.874 Y51.188 E8.76446
G1 X56.404 Y50.908 E8.77588
G1 X56.959 Y50.672 E8.78738
G1 X57.525 Y50.485 E8.79876
G1 X58.111 Y50.344 E8.81025
G1 X58.707 Y50.253 E8.82174
G1 X59.138 Y50.219 E8.82998
G1 X90.712 Y50.195 E9.43188
G1 X91.282 Y50.234 E9.44277 F600.000
G1 X91.930 Y50.335 E9.45527
G1 X92.460 Y50.463 E9.46566
G1 X93.032 Y50.650 E9.47714
G1 X93.590 Y50.887 E9.48870
G1 X94.121 Y51.166 E9.50013
G1 X94.626 Y51.489 E9.51155
G1 X95.104 Y51.854 E9.52303
G1 X95.558 Y52.265 E9.53469
G1 X96.033 Y52.781 E9.54806
G1 X96.399 Y53.260 E9.55956
G1 X96.724 Y53.767 E9.57104
G1 X97.005 Y54.298 E9.58249
G1 X97.188 Y54.717 E9.59120
G1 X97.428 Y55.422 E9.60540
G1 X97.569 Y56.006 E9.61686
G1 X97.660 Y56.602 E9.62835
G1 X97.704 Y57.391 E9.64341
G1 X97.700 Y92.799 E10.31841
G1 X97.661 Y93.368 E10.32929
G1 X97.571 Y93.965 E10.34079
G1 X97.432 Y94.549 E10.35223
G1 X97.244 Y95.120 E10.36370
G1 X97.010 Y95.673 E10.37515
G1 X96.729 Y96.206 E10.38662
G1 X96.406 Y96.713 E10.39808
G1 X96.040 Y97.193 E10.40958
G1 X95.638 Y97.637 E10.42101
G1 X95.203 Y98.044 E10.43236
G1 X94.737 Y98.414 E10.44370
G1 X94.242 Y98.743 E10.45504
G1 X93.720 Y99.031 E10.46640
G1 X93.178 Y99.275 E10.47774
G1 X92.616 Y99.473 E10.48908
G1 X92.041 Y99.624 E10.50043
G1 X91.455 Y99.727 E10.51178
G1 X90.862 Y99.781 E10.52312
G1 X83.996 Y99.809 E10.65400
G1 X59.288 Y99.805 E11.12502
G1 X58.718 Y99.766 E11.13591
G1 X58.125 Y99.677 E11.14735
G1 X57.492 Y99.523 E11.15976
G1 X56.967 Y99.350 E11.17030
G1 X56.413 Y99.115 E11.18176
G1 X55.882 Y98.835 E11.19322
G1 X55.374 Y98.511 E11.20470
G1 X54.883 Y98.135 E11.21649
G1 X54.450 Y97.743 E11.22762
G1 X54.043 Y97.309 E11.23897
G1 X53.673 Y96.842 E11.25032
G1 X53.344 Y96.347 E11.26166
G1 X53.056 Y95.826 E11.27301
G1 X52.759 Y95.147 E11.28713
G1 X52.571 Y94.576 E11.29859
G1 X52.432 Y93.994 E11.31000
G1 X52.340 Y93.398 E11.32149
G1 X52.300 Y92.827 E11.33240
G1 X52.300 Y57.200 E12.01157
G1 X52.339 Y56.631 E12.02245
G1 X52.429 Y56.035 E12.03394
G1 X52.568 Y55.452 E12.04536
G1 X52.771 Y54.840 E12.05765
G1 X52.991 Y54.325 E12.06834
G1 X53.286 Y53.768 E12.08034
G1 X53.608 Y53.268 E12.09167
G1 X53.960 Y52.807 E12.10273
G1 X54.303 Y52.428 E12.11249
G1 X54.563 Y52.662 F7800.000
G1 X55.022 Y52.223 E12.12461 F600.000
G1 X55.467 Y51.871 E12.13542
G1 X56.052 Y51.489 E12.14874
G1 X56.556 Y51.223 E12.15960
G1 X57.084 Y50.999 E12.17054
G1 X57.623 Y50.821 E12.18137
G1 X58.181 Y50.687 E12.19229
G1 X58.748 Y50.601 E12.20322
G1 X59.153 Y50.569 E12.21097
G1 X90.700 Y50.544 E12.81236
G1 X91.242 Y50.581 E12.82272 F600.000
G1 X91.858 Y50.677 E12.83461
G1 X92.362 Y50.799 E12.84449
G1 X92.906 Y50.977 E12.85541
G1 X93.438 Y51.202 E12.86640
G1 X93.942 Y51.468 E12.87728
G1 X94.423 Y51.774 E12.88815
G1 X94.878 Y52.121 E12.89906
G1 X95.310 Y52.512 E12.91017
G1 X95.766 Y53.007 E12.92298
G1 X96.114 Y53.463 E12.93392
G1 X96.423 Y53.945 E12.94484
G1 X96.689 Y54.450 E12.95573
G1 X96.862 Y54.844 E12.96393
G1 X97.092 Y55.519 E12.97753
G1 X97.225 Y56.076 E12.98843
G1 X97.312 Y56.642 E12.99936
G1 X97.354 Y57.391 E13.01365
G1 X97.350 Y92.787 E13.68841
G1 X97.313 Y93.328 E13.69876
G1 X97.228 Y93.896 E13.70970
G1 X97.095 Y94.451 E13.72059
G1 X96.917 Y94.995 E13.73149
G1 X96.694 Y95.521 E13.74238
G1 X96.428 Y96.028 E13.75330
G1 X96.121 Y96.510 E13.76420
G1 X95.773 Y96.967 E13.77514
G1 X95.390 Y97.390 E13.78601
G1 X94.977 Y97.777 E13.79681
G1 X94.534 Y98.129 E13.80760
G1 X94.063 Y98.443 E13.81839
G1 X93.567 Y98.717 E13.82919
G1 X93.050 Y98.949 E13.83998
G1 X92.517 Y99.137 E13.85078
G1 X91.969 Y99.281 E13.86157
G1 X91.411 Y99.380 E13.87237
G1 X90.847 Y99.431 E13.88316
G1 X83.996 Y99.459 E14.01376
G1 X59.301 Y99.456 E14.48454
G1 X58.759 Y99.419 E14.49490
G1 X58.194 Y99.333 E14.50579
G1 X57.592 Y99.188 E14.51759
G1 X57.093 Y99.023 E14.52761
G1 X56.566 Y98.800 E14.53852
G1 X56.060 Y98.534 E14.54942
G1 X55.577 Y98.226 E14.56034
G1 X55.109 Y97.868 E14.57157
G1 X54.697 Y97.496 E14.58215
G1 X54.310 Y97.083 E14.59294
G1 X53.958 Y96.639 E14.60374
G1 X53.644 Y96.168 E14.61453
G1 X53.370 Y95.672 E14.62533
G1 X53.086 Y95.022 E14.63885
G1 X52.907 Y94.478 E14.64977
G1 X52.775 Y93.925 E14.66061
G1 X52.688 Y93.358 E14.67155
G1 X52.650 Y92.815 E14.68193
G1 X52.650 Y57.213 E15.36061
G1 X52.687 Y56.671 E15.37097
G1 X52.772 Y56.104 E15.38190
G1 X52.904 Y55.550 E15.39276
G1 X53.097 Y54.967 E15.40445
G1 X53.306 Y54.477 E15.41462
G1 X53.587 Y53.947 E15.42604
G1 X53.893 Y53.471 E15.43683
G1 X54.227 Y53.033 E15.44733
G1 X54.527 Y52.701 E15.45587
G1 X55.046 Y52.671 F6240.000 E10.70586
G1 F60000.000 E10.45587
G92 E0
G1 X86.505 Y59.519 F7800.000
G1 E5.30000 F60000.000
G1 X86.584 Y59.226 E5.30577 F600.000
G1 X86.647 Y59.071 E5.30897
G1 X86.809 Y58.777 E5.31536
G1 X87.018 Y58.515 E5.32175
G1 X87.267 Y58.290 E5.32815
G1 X87.550 Y58.110 E5.33454
G1 X87.858 Y57.979 E5.34093
G1 X88.184 Y57.900 E5.34732
G1 X88.552 Y57.878 E5.35434
G1 X88.853 Y57.908 E5.36011 F600.000
G1 X89.016 Y57.945 E5.36331
G1 X89.332 Y58.058 E5.36970
G1 X89.625 Y58.222 E5.37609
G1 X89.887 Y58.431 E5.38249
G1 X90.110 Y58.682 E5.38888
G1 X90.303 Y58.994 E5.39589
G1 X90.419 Y59.274 E5.40166
G1 X90.465 Y59.435 E5.40486
G1 X90.515 Y59.767 E5.41125
G1 X90.522 Y89.921 E5.98608
G1 X90.512 Y90.091 E5.98933
G1 X90.456 Y90.393 E5.99519
G1 X90.329 Y90.746 E6.00234
G1 X90.137 Y91.069 E6.00949
G1 X89.940 Y91.304 E6.01535
G1 X89.815 Y91.421 E6.01860
G1 X89.652 Y91.545 E6.02251
G1 X89.388 Y91.702 E6.02836
G1 X89.199 Y91.782 E6.03227
G1 X88.904 Y91.867 E6.03813
G1 X88.702 Y91.897 E6.04203
G1 X88.395 Y91.906 E6.04789
G1 X88.191 Y91.884 E6.05179
G1 X87.891 Y91.816 E6.05765
G1 X87.699 Y91.744 E6.06156
G1 X87.427 Y91.603 E6.06741
G1 X87.259 Y91.485 E6.07132
G1 X87.030 Y91.280 E6.07717
G1 X86.897 Y91.124 E6.08108
G1 X86.727 Y90.868 E6.08693
G1 X86.637 Y90.684 E6.09084
G1 X86.540 Y90.404 E6.09650
G1 X86.468 Y90.404 E6.09786
G1 X86.468 Y59.877 E6.67979
G1 X86.496 Y59.570 E6.68567
G1 X86.843 Y59.619 F7800.000
G1 X86.916 Y59.340 E6.69116 F600.000
G1 X87.030 Y59.088 E6.69645
G1 X87.184 Y58.857 E6.70173
G1 X87.374 Y58.656 E6.70701
G1 X87.595 Y58.488 E6.71229
G1 X87.840 Y58.359 E6.71758
G1 X88.104 Y58.273 E6.72286
G1 X88.396 Y58.230 E6.72849
G1 X88.792 Y58.253 E6.73606 F600.000
G1 X89.060 Y58.325 E6.74134
G1 X89.327 Y58.449 E6.74697
G1 X89.646 Y58.686 E6.75454
G1 X89.831 Y58.893 E6.75982
G1 X89.987 Y59.143 E6.76545
G1 X90.124 Y59.516 E6.77301
G1 X90.165 Y59.790 E6.77830
G1 X90.172 Y89.914 E7.35255
G1 X90.115 Y90.313 E7.36025
G1 X90.012 Y90.597 E7.36600
G1 X89.859 Y90.857 E7.37175
G1 X89.587 Y91.155 E7.37945
G1 X89.233 Y91.388 E7.38751
G1 X88.970 Y91.490 E7.39289
G1 X88.814 Y91.527 E7.39596
G1 X88.552 Y91.557 E7.40097
G1 X88.270 Y91.543 E7.40636
G1 X87.862 Y91.433 E7.41442
G1 X87.494 Y91.225 E7.42248
G1 X87.283 Y91.037 E7.42787
G1 X87.178 Y90.915 E7.43093
G1 X87.032 Y90.696 E7.43595
G1 X86.961 Y90.552 E7.43901
G1 X86.875 Y90.303 E7.44402
G1 X86.818 Y90.054 E7.44890
G1 X86.818 Y59.884 E8.02403
G1 X86.836 Y59.671 E8.02811
G1 X88.497 Y57.895 F7800.000
G1 X63.532 Y59.596 F7800.000
G1 X63.523 Y90.283 E8.61309 F600.000
G1 X63.495 Y90.481 E8.61691
G1 X63.416 Y90.774 E8.62268
G1 X63.278 Y91.079 E8.62908
G1 X63.172 Y91.249 E8.63290
G1 X62.982 Y91.485 E8.63867
G1 X62.733 Y91.710 E8.64506
G1 X62.567 Y91.823 E8.64888
G1 X62.299 Y91.962 E8.65465
G1 X62.110 Y92.031 E8.65848
G1 X61.816 Y92.100 E8.66424
G1 X61.481 Y92.123 E8.67064
G1 X61.281 Y92.110 E8.67446
G1 X60.983 Y92.055 E8.68023
G1 X60.668 Y91.942 E8.68662
G1 X60.490 Y91.849 E8.69044
G1 X60.240 Y91.679 E8.69622
G1 X59.976 Y91.423 E8.70323
G1 X59.794 Y91.181 E8.70900
G1 X59.711 Y91.035 E8.71220
G1 X59.592 Y90.757 E8.71796
G1 X59.535 Y90.565 E8.72178
G1 X59.503 Y90.400 E8.72498
G1 X59.482 Y90.098 E8.73074
G1 X59.478 Y60.079 E9.30300
G1 X59.488 Y59.909 E9.30626
G1 X59.544 Y59.607 E9.31211
G1 X59.671 Y59.254 E9.31927
G1 X59.842 Y58.958 E9.32577
G1 X60.085 Y58.672 E9.33293
G1 X60.319 Y58.474 E9.33878
G1 X60.462 Y58.380 E9.34204
G1 X60.768 Y58.230 E9.34854
G1 X61.129 Y58.127 E9.35570
G1 X61.435 Y58.093 E9.36155
G1 X61.605 Y58.094 E9.36481
G1 X61.944 Y58.140 E9.37131 F600.000
G1 X62.269 Y58.242 E9.37782
G1 X62.573 Y58.397 E9.38432
G1 X62.741 Y58.515 E9.38823
G1 X62.970 Y58.720 E9.39409
G1 X63.183 Y58.986 E9.40059
G1 X63.349 Y59.284 E9.40710
G1 X63.460 Y59.596 E9.41341
G1 X63.479 Y59.596 E9.41377
G1 X63.125 Y59.697 F7800.000
G1 X63.182 Y59.946 E9.41865 F600.000
G1 X63.174 Y90.255 E9.99642
G1 X63.084 Y90.660 E10.00434
G1 X62.970 Y90.912 E10.00962
G1 X62.887 Y91.046 E10.01261
G1 X62.725 Y91.247 E10.01755
G1 X62.519 Y91.433 E10.02283
G1 X62.160 Y91.641 E10.03074
G1 X61.760 Y91.754 E10.03866
G1 X61.484 Y91.773 E10.04394
G1 X61.327 Y91.763 E10.04693
G1 X61.073 Y91.716 E10.05187
G1 X60.812 Y91.623 E10.05715
G1 X60.458 Y91.405 E10.06506
G1 X60.246 Y91.200 E10.07069
G1 X60.021 Y90.873 E10.07826
G1 X59.876 Y90.484 E10.08617
G1 X59.832 Y90.077 E10.09397
G1 X59.828 Y60.086 E10.66570
G1 X59.885 Y59.687 E10.67339
G1 X59.988 Y59.403 E10.67915
G1 X60.129 Y59.158 E10.68453
G1 X60.310 Y58.941 E10.68991
G1 X60.524 Y58.758 E10.69530
G1 X60.784 Y58.605 E10.70105
G1 X61.167 Y58.476 E10.70874
G1 X61.448 Y58.443 E10.71413
G1 X61.730 Y58.457 E10.71951 F600.000
G1 X62.005 Y58.519 E10.72490
G1 X62.267 Y58.626 E10.73028
G1 X62.506 Y58.775 E10.73566
G1 X62.717 Y58.963 E10.74105
G1 X62.894 Y59.183 E10.74643
G1 X63.031 Y59.430 E10.75182
G1 X63.110 Y59.647 E10.75620
G1 X61.363 Y58.173 F7800.000
G1 X75.139 Y56.784 F7800.000
G1 X90.555 Y56.769 E11.05008 F600.000
G1 X90.754 Y56.819 E11.05400 F600.000
G1 X90.926 Y56.932 E11.05792
G1 X91.053 Y57.094 E11.06184
G1 X91.119 Y57.288 E11.06576
G1 X91.129 Y59.726 E11.11223
G1 X90.864 Y59.741 E11.11729
G1 X90.806 Y59.355 E11.12473
G1 X90.752 Y59.165 E11.12848
G1 X90.600 Y58.803 E11.13598
G1 X90.502 Y58.632 E11.13973
G1 X90.295 Y58.355 E11.14633
G1 X89.979 Y58.047 E11.15473
G1 X89.652 Y57.828 E11.16223
G1 X89.294 Y57.665 E11.16974
G1 X88.913 Y57.564 E11.17724
G1 X88.522 Y57.526 E11.18474
G1 X88.129 Y57.554 E11.19225
G1 X87.936 Y57.593 E11.19600
G1 X87.606 Y57.699 E11.20261
G1 X87.214 Y57.900 E11.21100
G1 X86.901 Y58.139 E11.21851
G1 X86.632 Y58.426 E11.22601
G1 X86.414 Y58.754 E11.23351
G1 X86.253 Y59.113 E11.24101
G1 X86.196 Y59.301 E11.24477
G1 X86.133 Y59.642 E11.25137
G1 X86.118 Y59.871 E11.25574
G1 X86.118 Y90.754 E11.84447
G1 X86.287 Y90.754 E11.84768
G1 X86.501 Y91.170 E11.85660
G1 X86.745 Y91.486 E11.86423
G1 X87.078 Y91.788 E11.87278
G1 X87.375 Y91.976 E11.87948
G1 X87.600 Y92.083 E11.88423
G1 X87.981 Y92.202 E11.89185
G1 X88.378 Y92.256 E11.89948
G1 X88.778 Y92.242 E11.90711
G1 X89.170 Y92.161 E11.91474
G1 X89.498 Y92.036 E11.92144
G1 X89.719 Y91.920 E11.92618
G1 X90.043 Y91.686 E11.93381
G1 X90.190 Y91.550 E11.93763
G1 X90.416 Y91.281 E11.94433
G1 X90.646 Y90.896 E11.95288
G1 X90.785 Y90.520 E11.96051
G1 X90.869 Y90.065 E11.96933
G1 X91.129 Y90.084 E11.97429
G1 X91.119 Y92.694 E12.02403
G1 X91.053 Y92.888 E12.02795
G1 X90.926 Y93.050 E12.03187
G1 X90.754 Y93.163 E12.03579
G1 X90.555 Y93.213 E12.03971
G1 X84.171 Y93.216 E12.16141
G1 X83.979 Y93.234 E12.16509
G1 X59.513 Y93.234 E12.63148
G1 X59.294 Y93.200 E12.63572
G1 X59.113 Y93.102 E12.63964
G1 X58.974 Y92.950 E12.64356
G1 X58.891 Y92.762 E12.64748
G1 X58.871 Y92.592 E12.65074
G1 X58.871 Y90.274 E12.69494
G1 X59.136 Y90.259 E12.69999
G1 X59.194 Y90.645 E12.70743
G1 X59.248 Y90.835 E12.71118
G1 X59.400 Y91.197 E12.71868
G1 X59.498 Y91.368 E12.72244
G1 X59.705 Y91.646 E12.72904
G1 X60.021 Y91.953 E12.73744
G1 X60.348 Y92.172 E12.74494
G1 X60.706 Y92.335 E12.75245
G1 X61.086 Y92.436 E12.75995
G1 X61.282 Y92.463 E12.76370
G1 X61.628 Y92.470 E12.77031
G1 X62.064 Y92.407 E12.77870
G1 X62.438 Y92.284 E12.78621
G1 X62.615 Y92.199 E12.78996
G1 X62.909 Y92.015 E12.79656
G1 X63.239 Y91.723 E12.80496
G1 X63.484 Y91.414 E12.81247
G1 X63.586 Y91.246 E12.81622
G1 X63.730 Y90.931 E12.82282
G1 X63.846 Y90.506 E12.83122
G1 X63.882 Y90.129 E12.83844
G1 X63.882 Y59.246 E13.42717
G1 X63.713 Y59.246 E13.43038
G1 X63.499 Y58.830 E13.43930
G1 X63.255 Y58.514 E13.44693
G1 X62.922 Y58.212 E13.45548
G1 X62.625 Y58.024 E13.46218
G1 X62.401 Y57.918 E13.46692
G1 X62.018 Y57.798 E13.47455
G1 X61.622 Y57.744 E13.48218
G1 X61.222 Y57.758 E13.48981
G1 X60.830 Y57.839 E13.49743
G1 X60.502 Y57.964 E13.50414
G1 X60.281 Y58.080 E13.50888
G1 X59.957 Y58.314 E13.51651
G1 X59.810 Y58.450 E13.52033
G1 X59.584 Y58.719 E13.52702
G1 X59.354 Y59.105 E13.53558
G1 X59.214 Y59.480 E13.54321
G1 X59.131 Y59.935 E13.55203
G1 X58.871 Y59.916 E13.55699
G1 X58.871 Y57.426 E13.60445
G1 X58.880 Y57.306 E13.60674
G1 X58.925 Y57.158 E13.60968
G1 X59.004 Y57.026 E13.61263
G1 X59.155 Y56.886 E13.61655
G1 X59.343 Y56.804 E13.62047
G1 X59.513 Y56.784 E13.62373
G1 X75.087 Y56.784 E13.92061
G1 X75.087 Y56.434 F7800.000
G1 X84.529 Y56.434 E14.10061 F600.000
G1 X84.529 Y56.416 E14.10095
G1 X90.584 Y56.420 E14.21639 F600.000
G1 X90.743 Y56.446 E14.21946
G1 X90.895 Y56.498 E14.22253
G1 X91.037 Y56.575 E14.22560
G1 X91.164 Y56.674 E14.22866
G1 X91.273 Y56.792 E14.23174
G1 X91.361 Y56.927 E14.23480
G1 X91.425 Y57.075 E14.23787
G1 X91.465 Y57.231 E14.24094
G1 X91.479 Y57.401 E14.24419
G1 X91.479 Y92.581 E14.91485
