(.../EagleCAD.Playground/PCB-GCODE/pcb-gcode.ulp)
(Copyright 2005 - 2012 by John Johnson)
(See readme.txt for licensing terms.)
(This file generated from the board:)
(.../TUTORIALS/BlinkyBoard (New)/v1.brd)
(Current profile is .../EagleCAD.Playground/PCB-GCODE/profiles/mach.pp  )
(This file generated 5/18/2015 10:03:53 PM)
(Settings from pcb-machine.h)
(spindle on time = 3.0000)
(  Tool Size)
(0.0025  )
(spindle speed = 30000.0000)
(tool change at 0.0000  0.0000  3.0000  )
(feed rate xy = F7     )
(feed rate z  = F5     )
(Z Axis Settings)
(  High     Up        Down     Drill)
(0.5000  	0.3000  	-0.0070 	-0.0630 )
(Settings from pcb-defaults.h)
(isolate min = 0.0010)
(isolate max = 0.0200)
(isolate step = 0.0050)
(Generated top outlines, top drill, )
(Unit of measure: inch)
(Inch Mode)
G20
(Absolute Coordinates)
G90
S30000
G00 Z0.5000  
G00 X0.0000  Y0.0000  
M03
G04 P3.000000
G00 Z0.3000  
G00 X0.0417  Y0.1383  
G01 Z-0.0070 F5     
G01 X0.0398  Y0.1402  F7     
G01 X0.0384  Y0.1425  
G01 X0.0384  Y0.1427  
G01 X0.0377  Y0.1452  
G01 X0.0377  Y1.5377  
G01 X0.0377  Y1.5404  
G01 X0.0384  Y1.5430  
G01 X0.0398  Y1.5453  
G01 X0.0417  Y1.5472  
G01 X0.0440  Y1.5486  
G01 X0.0467  Y1.5493  
G01 X1.0526  Y1.5493  
G01 X1.0552  Y1.5486  
G01 X1.0575  Y1.5472  
G01 X1.0594  Y1.5453  
G01 X1.0608  Y1.5430  
G01 X1.0615  Y1.5404  
G01 X1.0615  Y0.0467  
G01 X1.0608  Y0.0440  
G01 X1.0594  Y0.0417  
G01 X1.0575  Y0.0398  
G01 X1.0552  Y0.0384  
G01 X1.0526  Y0.0377  
G01 X0.1452  Y0.0377  
G01 X0.1425  Y0.0384  
G01 X0.1402  Y0.0398  
G01 X0.1383  Y0.0417  
G01 X0.1370  Y0.0440  
G01 X0.1363  Y0.0467  
G01 X0.1363  Y0.0493  
G01 X0.1370  Y0.0520  
G01 X0.1383  Y0.0543  
G01 X0.1504  Y0.0664  
G01 X0.1594  Y0.0882  
G01 X0.1594  Y0.1118  
G01 X0.1504  Y0.1336  
G01 X0.1336  Y0.1504  
G01 X0.1118  Y0.1594  
G01 X0.0882  Y0.1594  
G01 X0.0664  Y0.1504  
G01 X0.0562  Y0.1402  
G01 X0.0543  Y0.1383  
G01 X0.0520  Y0.1370  
G01 X0.0518  Y0.1369  
G01 X0.0493  Y0.1363  
G01 X0.0467  Y0.1363  
G01 X0.0440  Y0.1370  
G01 X0.0417  Y0.1383  
G00 Z0.3000  
G00 X0.1610  Y0.2793  
G01 Z-0.0070 F5     
G01 X0.2934  Y0.2793  F7     
G01 X0.2979  Y0.2838  
G01 X0.2979  Y0.4162  
G01 X0.2934  Y0.4207  
G01 X0.2886  Y0.4207  
G01 X0.2860  Y0.4214  
G01 X0.2836  Y0.4228  
G01 X0.2817  Y0.4247  
G01 X0.2804  Y0.4270  
G01 X0.2797  Y0.4296  
G01 X0.2797  Y0.4323  
G01 X0.2804  Y0.4349  
G01 X0.2817  Y0.4373  
G01 X0.4287  Y0.5843  
G01 X0.4306  Y0.5862  
G01 X0.4330  Y0.5876  
G01 X0.4356  Y0.5882  
G01 X0.5064  Y0.5882  
G01 X0.5090  Y0.5876  
G01 X0.5114  Y0.5862  
G01 X0.7602  Y0.3373  
G01 X0.7653  Y0.3352  
G01 X0.7932  Y0.3352  
G01 X0.7958  Y0.3346  
G01 X0.7981  Y0.3332  
G01 X0.8000  Y0.3313  
G01 X0.8014  Y0.3290  
G01 X0.8021  Y0.3263  
G01 X0.8021  Y0.2838  
G01 X0.8066  Y0.2793  
G01 X0.9390  Y0.2793  
G01 X0.9436  Y0.2838  
G01 X0.9436  Y0.4162  
G01 X0.9390  Y0.4207  
G01 X0.8066  Y0.4207  
G01 X0.8021  Y0.4162  
G01 X0.8021  Y0.3717  
G01 X0.8014  Y0.3690  
G01 X0.8000  Y0.3667  
G01 X0.7981  Y0.3648  
G01 X0.7958  Y0.3634  
G01 X0.7932  Y0.3627  
G01 X0.7766  Y0.3627  
G01 X0.7740  Y0.3634  
G01 X0.7716  Y0.3648  
G01 X0.5291  Y0.6074  
G01 X0.5228  Y0.6137  
G01 X0.5177  Y0.6157  
G01 X0.4497  Y0.6157  
G01 X0.4470  Y0.6164  
G01 X0.4447  Y0.6178  
G01 X0.4428  Y0.6197  
G01 X0.4414  Y0.6220  
G01 X0.4407  Y0.6247  
G01 X0.4407  Y0.6953  
G01 X0.4414  Y0.6980  
G01 X0.4428  Y0.7003  
G01 X0.4447  Y0.7022  
G01 X0.4470  Y0.7036  
G01 X0.4497  Y0.7042  
G01 X0.4722  Y0.7042  
G01 X0.4767  Y0.7088  
G01 X0.4767  Y0.7412  
G01 X0.4743  Y0.7437  
G01 X0.4729  Y0.7460  
G01 X0.4722  Y0.7487  
G01 X0.4722  Y0.7513  
G01 X0.4724  Y0.7521  
G01 X0.4729  Y0.7540  
G01 X0.4743  Y0.7563  
G01 X0.4762  Y0.7582  
G01 X0.4767  Y0.7588  
G01 X0.4767  Y0.7912  
G01 X0.4763  Y0.7917  
G01 X0.4749  Y0.7940  
G01 X0.4742  Y0.7967  
G01 X0.4742  Y0.7993  
G01 X0.4746  Y0.8008  
G01 X0.4749  Y0.8020  
G01 X0.4750  Y0.8022  
G01 X0.4763  Y0.8043  
G01 X0.4782  Y0.8062  
G01 X0.4805  Y0.8076  
G01 X0.4831  Y0.8082  
G01 X0.5394  Y0.8082  
G01 X0.5420  Y0.8076  
G01 X0.5444  Y0.8062  
G01 X0.5779  Y0.7726  
G01 X0.5799  Y0.7707  
G01 X0.5842  Y0.7663  
G01 X0.5893  Y0.7642  
G01 X0.6149  Y0.7642  
G01 X0.6175  Y0.7636  
G01 X0.6198  Y0.7622  
G01 X0.6238  Y0.7582  
G01 X0.6257  Y0.7563  
G01 X0.6271  Y0.7540  
G01 X0.6276  Y0.7520  
G01 X0.6278  Y0.7513  
G01 X0.6278  Y0.7487  
G01 X0.6271  Y0.7460  
G01 X0.6257  Y0.7437  
G01 X0.6232  Y0.7412  
G01 X0.6232  Y0.7088  
G01 X0.6278  Y0.7042  
G01 X0.7142  Y0.7042  
G01 X0.7202  Y0.7102  
G01 X0.7225  Y0.7116  
G01 X0.7251  Y0.7122  
G01 X0.7507  Y0.7122  
G01 X0.7558  Y0.7143  
G01 X0.7601  Y0.7187  
G01 X0.7827  Y0.7413  
G01 X0.7846  Y0.7432  
G01 X0.7870  Y0.7446  
G01 X0.7896  Y0.7452  
G01 X0.8038  Y0.7452  
G01 X0.8064  Y0.7446  
G01 X0.8088  Y0.7432  
G01 X0.8107  Y0.7413  
G01 X0.8120  Y0.7390  
G01 X0.8122  Y0.7382  
G01 X0.8173  Y0.7332  
G01 X0.8827  Y0.7332  
G01 X0.8873  Y0.7377  
G01 X0.8873  Y0.7971  
G01 X0.8871  Y0.7976  
G01 X0.8869  Y0.7987  
G01 X0.8869  Y0.8000  
G01 X0.8869  Y0.8013  
G01 X0.8872  Y0.8028  
G01 X0.8873  Y0.8029  
G01 X0.8873  Y0.8623  
G01 X0.8827  Y0.8668  
G01 X0.8173  Y0.8668  
G01 X0.8127  Y0.8623  
G01 X0.8127  Y0.8477  
G01 X0.8120  Y0.8450  
G01 X0.8107  Y0.8427  
G01 X0.8088  Y0.8408  
G01 X0.8064  Y0.8394  
G01 X0.8038  Y0.8387  
G01 X0.7907  Y0.8387  
G01 X0.7880  Y0.8394  
G01 X0.7857  Y0.8408  
G01 X0.7838  Y0.8427  
G01 X0.7824  Y0.8450  
G01 X0.7817  Y0.8477  
G01 X0.7817  Y1.0413  
G01 X0.7824  Y1.0440  
G01 X0.7838  Y1.0463  
G01 X0.7857  Y1.0482  
G01 X0.7880  Y1.0496  
G01 X0.7907  Y1.0502  
G01 X0.8587  Y1.0502  
G01 X0.8638  Y1.0523  
G01 X0.8944  Y1.0829  
G01 X0.9007  Y1.0892  
G01 X0.9027  Y1.0943  
G01 X0.9027  Y1.1058  
G01 X0.9034  Y1.1084  
G01 X0.9048  Y1.1107  
G01 X0.9067  Y1.1126  
G01 X0.9090  Y1.1140  
G01 X0.9117  Y1.1147  
G01 X0.9142  Y1.1147  
G01 X0.9188  Y1.1192  
G01 X0.9188  Y1.1808  
G01 X0.9142  Y1.1853  
G01 X0.8645  Y1.1853  
G01 X0.8563  Y1.1771  
G01 X0.8540  Y1.1758  
G01 X0.8538  Y1.1757  
G01 X0.8513  Y1.1750  
G01 X0.8487  Y1.1750  
G01 X0.8460  Y1.1757  
G01 X0.8437  Y1.1771  
G01 X0.8418  Y1.1790  
G01 X0.8355  Y1.1853  
G01 X0.8347  Y1.1853  
G01 X0.8320  Y1.1860  
G01 X0.8297  Y1.1874  
G01 X0.8278  Y1.1893  
G01 X0.8264  Y1.1916  
G01 X0.8257  Y1.1942  
G01 X0.8257  Y1.3417  
G01 X0.8237  Y1.3468  
G01 X0.8174  Y1.3531  
G01 X0.7098  Y1.4607  
G01 X0.7047  Y1.4627  
G01 X0.6316  Y1.4627  
G01 X0.6290  Y1.4634  
G01 X0.6267  Y1.4648  
G01 X0.6248  Y1.4667  
G01 X0.6234  Y1.4690  
G01 X0.6227  Y1.4717  
G01 X0.6227  Y1.4768  
G01 X0.6182  Y1.4814  
G01 X0.5645  Y1.4814  
G01 X0.5563  Y1.4732  
G01 X0.5540  Y1.4718  
G01 X0.5538  Y1.4718  
G01 X0.5513  Y1.4711  
G01 X0.5487  Y1.4711  
G01 X0.5460  Y1.4718  
G01 X0.5437  Y1.4732  
G01 X0.5418  Y1.4751  
G01 X0.5355  Y1.4814  
G01 X0.4818  Y1.4814  
G01 X0.4773  Y1.4768  
G01 X0.4773  Y1.4717  
G01 X0.4766  Y1.4690  
G01 X0.4752  Y1.4667  
G01 X0.4733  Y1.4648  
G01 X0.4710  Y1.4634  
G01 X0.4684  Y1.4627  
G01 X0.4023  Y1.4627  
G01 X0.3972  Y1.4607  
G01 X0.1026  Y1.1661  
G01 X0.0963  Y1.1598  
G01 X0.0942  Y1.1547  
G01 X0.0942  Y1.1442  
G01 X0.0936  Y1.1416  
G01 X0.0922  Y1.1393  
G01 X0.0903  Y1.1374  
G01 X0.0880  Y1.1360  
G01 X0.0859  Y1.1355  
G01 X0.0812  Y1.1308  
G01 X0.0812  Y1.0692  
G01 X0.0859  Y1.0645  
G01 X0.0880  Y1.0640  
G01 X0.0903  Y1.0626  
G01 X0.0922  Y1.0607  
G01 X0.0936  Y1.0584  
G01 X0.0942  Y1.0558  
G01 X0.0942  Y0.9733  
G01 X0.0963  Y0.9682  
G01 X0.3469  Y0.7176  
G01 X0.3532  Y0.7113  
G01 X0.3583  Y0.7092  
G01 X0.3779  Y0.7092  
G01 X0.3805  Y0.7086  
G01 X0.3828  Y0.7072  
G01 X0.3858  Y0.7042  
G01 X0.4043  Y0.7042  
G01 X0.4070  Y0.7036  
G01 X0.4093  Y0.7022  
G01 X0.4112  Y0.7003  
G01 X0.4126  Y0.6980  
G01 X0.4132  Y0.6953  
G01 X0.4132  Y0.6106  
G01 X0.4126  Y0.6080  
G01 X0.4112  Y0.6056  
G01 X0.2303  Y0.4247  
G01 X0.2283  Y0.4228  
G01 X0.2260  Y0.4214  
G01 X0.2234  Y0.4207  
G01 X0.1610  Y0.4207  
G01 X0.1564  Y0.4162  
G01 X0.1564  Y0.2838  
G01 X0.1610  Y0.2793  
G00 Z0.3000  
G00 X0.1619  Y0.2861  
G01 Z-0.0070 F5     
G01 X0.1619  Y0.4139  F7     
G01 X0.1632  Y0.4152  
G01 X0.2286  Y0.4152  
G01 X0.4188  Y0.6054  
G01 X0.4188  Y0.7097  
G01 X0.3881  Y0.7097  
G01 X0.3867  Y0.7111  
G01 X0.3867  Y0.7147  
G01 X0.3594  Y0.7147  
G01 X0.3563  Y0.7160  
G01 X0.3540  Y0.7183  
G01 X0.1010  Y0.9713  
G01 X0.0998  Y0.9744  
G01 X0.0998  Y1.0702  
G01 X0.0880  Y1.0702  
G01 X0.0867  Y1.0715  
G01 X0.0867  Y1.1285  
G01 X0.0880  Y1.1298  
G01 X0.0998  Y1.1298  
G01 X0.0998  Y1.1536  
G01 X0.1010  Y1.1567  
G01 X0.1033  Y1.1590  
G01 X0.4003  Y1.4560  
G01 X0.4034  Y1.4572  
G01 X0.4828  Y1.4572  
G01 X0.4828  Y1.4746  
G01 X0.4841  Y1.4759  
G01 X0.5332  Y1.4759  
G01 X0.5345  Y1.4746  
G01 X0.5345  Y1.4254  
G01 X0.5332  Y1.4241  
G01 X0.5122  Y1.4241  
G01 X0.5122  Y1.0784  
G01 X0.6760  Y0.9147  
G01 X0.6772  Y0.9116  
G01 X0.6772  Y0.8902  
G01 X0.7119  Y0.8902  
G01 X0.7132  Y0.8889  
G01 X0.7132  Y0.8611  
G01 X0.7119  Y0.8598  
G01 X0.6301  Y0.8598  
G01 X0.6288  Y0.8611  
G01 X0.6288  Y0.8889  
G01 X0.6301  Y0.8902  
G01 X0.6607  Y0.8902  
G01 X0.6607  Y0.9066  
G01 X0.4993  Y1.0680  
G01 X0.4970  Y1.0703  
G01 X0.4958  Y1.0734  
G01 X0.4958  Y1.4241  
G01 X0.4841  Y1.4241  
G01 X0.4828  Y1.4254  
G01 X0.4828  Y1.4407  
G01 X0.4084  Y1.4407  
G01 X0.1162  Y1.1486  
G01 X0.1162  Y1.1298  
G01 X0.1332  Y1.1298  
G01 X0.1345  Y1.1285  
G01 X0.1345  Y1.0715  
G01 X0.1332  Y1.0702  
G01 X0.1162  Y1.0702  
G01 X0.1162  Y0.9794  
G01 X0.3644  Y0.7312  
G01 X0.3867  Y0.7312  
G01 X0.3867  Y0.7389  
G01 X0.3881  Y0.7402  
G01 X0.4699  Y0.7402  
G01 X0.4712  Y0.7389  
G01 X0.4712  Y0.7111  
G01 X0.4699  Y0.7097  
G01 X0.4352  Y0.7097  
G01 X0.4352  Y0.6102  
G01 X0.5166  Y0.6102  
G01 X0.5197  Y0.6090  
G01 X0.5220  Y0.6067  
G01 X0.7714  Y0.3572  
G01 X0.8076  Y0.3572  
G01 X0.8076  Y0.4139  
G01 X0.8089  Y0.4152  
G01 X0.9368  Y0.4152  
G01 X0.9381  Y0.4139  
G01 X0.9381  Y0.2861  
G01 X0.9368  Y0.2848  
G01 X0.8089  Y0.2848  
G01 X0.8076  Y0.2861  
G01 X0.8076  Y0.3407  
G01 X0.7664  Y0.3407  
G01 X0.7633  Y0.3420  
G01 X0.5116  Y0.5938  
G01 X0.4304  Y0.5938  
G01 X0.2519  Y0.4152  
G01 X0.2911  Y0.4152  
G01 X0.2924  Y0.4139  
G01 X0.2924  Y0.2861  
G01 X0.2911  Y0.2848  
G01 X0.1632  Y0.2848  
G01 X0.1619  Y0.2861  
G00 Z0.3000  
G00 X0.4655  Y0.2722  
G01 Z-0.0070 F5     
G01 X0.4660  Y0.2702  F7     
G01 X0.4670  Y0.2685  
G01 X0.4685  Y0.2670  
G01 X0.4702  Y0.2660  
G01 X0.4722  Y0.2655  
G01 X0.5318  Y0.2655  
G01 X0.5318  Y0.2710  
G01 X0.4723  Y0.2710  
G01 X0.4710  Y0.2723  
G01 X0.4710  Y0.3318  
G01 X0.4655  Y0.3318  
G01 X0.4655  Y0.2722  
G00 Z0.3000  
G00 X0.4655  Y0.3682  
G01 Z-0.0070 F5     
G01 X0.4710  Y0.3682  F7     
G01 X0.4710  Y0.4277  
G01 X0.4723  Y0.4290  
G01 X0.5318  Y0.4290  
G01 X0.5318  Y0.4345  
G01 X0.4722  Y0.4345  
G01 X0.4702  Y0.4340  
G01 X0.4685  Y0.4330  
G01 X0.4670  Y0.4315  
G01 X0.4660  Y0.4298  
G01 X0.4655  Y0.4278  
G01 X0.4655  Y0.3682  
G00 Z0.3000  
G00 X0.5682  Y0.4290  
G01 Z-0.0070 F5     
G01 X0.6277  Y0.4290  F7     
G01 X0.6290  Y0.4277  
G01 X0.6290  Y0.3682  
G01 X0.6345  Y0.3682  
G01 X0.6345  Y0.4278  
G01 X0.6340  Y0.4298  
G01 X0.6330  Y0.4315  
G01 X0.6315  Y0.4330  
G01 X0.6298  Y0.4340  
G01 X0.6278  Y0.4345  
G01 X0.5682  Y0.4345  
G01 X0.5682  Y0.4290  
G00 Z0.3000  
G00 X0.5682  Y0.2710  
G01 Z-0.0070 F5     
G01 X0.5682  Y0.2655  F7     
G01 X0.6278  Y0.2655  
G01 X0.6298  Y0.2660  
G01 X0.6315  Y0.2670  
G01 X0.6330  Y0.2685  
G01 X0.6340  Y0.2702  
G01 X0.6345  Y0.2722  
G01 X0.6345  Y0.3318  
G01 X0.6290  Y0.3318  
G01 X0.6290  Y0.2723  
G01 X0.6277  Y0.2710  
G01 X0.5682  Y0.2710  
G00 Z0.3000  
G00 X0.6288  Y0.7111  
G01 Z-0.0070 F5     
G01 X0.6288  Y0.7389  F7     
G01 X0.6301  Y0.7402  
G01 X0.7119  Y0.7402  
G01 X0.7132  Y0.7389  
G01 X0.7132  Y0.7342  
G01 X0.7446  Y0.7342  
G01 X0.7763  Y0.7660  
G01 X0.7794  Y0.7672  
G01 X0.8182  Y0.7672  
G01 X0.8182  Y0.7931  
G01 X0.8195  Y0.7944  
G01 X0.8805  Y0.7944  
G01 X0.8818  Y0.7931  
G01 X0.8818  Y0.7400  
G01 X0.8805  Y0.7387  
G01 X0.8195  Y0.7387  
G01 X0.8182  Y0.7400  
G01 X0.8182  Y0.7508  
G01 X0.7844  Y0.7508  
G01 X0.7550  Y0.7213  
G01 X0.7527  Y0.7190  
G01 X0.7496  Y0.7177  
G01 X0.7132  Y0.7177  
G01 X0.7132  Y0.7111  
G01 X0.7119  Y0.7097  
G01 X0.6301  Y0.7097  
G01 X0.6288  Y0.7111  
G00 Z0.3000  
G00 X0.6288  Y0.7611  
G01 Z-0.0070 F5     
G01 X0.6288  Y0.7698  F7     
G01 X0.5904  Y0.7698  
G01 X0.5873  Y0.7710  
G01 X0.5850  Y0.7733  
G01 X0.5446  Y0.8137  
G01 X0.4712  Y0.8137  
G01 X0.4712  Y0.8111  
G01 X0.4699  Y0.8097  
G01 X0.3881  Y0.8097  
G01 X0.3867  Y0.8111  
G01 X0.3867  Y0.8389  
G01 X0.3881  Y0.8402  
G01 X0.4699  Y0.8402  
G01 X0.4712  Y0.8389  
G01 X0.4712  Y0.8302  
G01 X0.5068  Y0.8302  
G01 X0.5068  Y0.9066  
G01 X0.3870  Y1.0263  
G01 X0.3857  Y1.0294  
G01 X0.3857  Y1.0702  
G01 X0.3668  Y1.0702  
G01 X0.3655  Y1.0715  
G01 X0.3655  Y1.1285  
G01 X0.3668  Y1.1298  
G01 X0.3857  Y1.1298  
G01 X0.3857  Y1.1887  
G01 X0.3695  Y1.1887  
G01 X0.3682  Y1.1900  
G01 X0.3682  Y1.2431  
G01 X0.3695  Y1.2444  
G01 X0.4305  Y1.2444  
G01 X0.4318  Y1.2431  
G01 X0.4318  Y1.1900  
G01 X0.4305  Y1.1887  
G01 X0.4022  Y1.1887  
G01 X0.4022  Y1.1298  
G01 X0.4120  Y1.1298  
G01 X0.4133  Y1.1285  
G01 X0.4133  Y1.0715  
G01 X0.4120  Y1.0702  
G01 X0.4022  Y1.0702  
G01 X0.4022  Y1.0344  
G01 X0.5197  Y0.9170  
G01 X0.5220  Y0.9147  
G01 X0.5232  Y0.9116  
G01 X0.5232  Y0.8302  
G01 X0.5496  Y0.8302  
G01 X0.5527  Y0.8290  
G01 X0.5954  Y0.7862  
G01 X0.6288  Y0.7862  
G01 X0.6288  Y0.7889  
G01 X0.6301  Y0.7902  
G01 X0.7119  Y0.7902  
G01 X0.7132  Y0.7889  
G01 X0.7132  Y0.7611  
G01 X0.7119  Y0.7598  
G01 X0.6301  Y0.7598  
G01 X0.6288  Y0.7611  
G00 Z0.3000  
G00 X0.6218  Y0.7938  
G01 Z-0.0070 F5     
G01 X0.6195  Y0.7924  F7     
G01 X0.6169  Y0.7917  
G01 X0.6033  Y0.7917  
G01 X0.6006  Y0.7917  
G01 X0.5980  Y0.7924  
G01 X0.5956  Y0.7938  
G01 X0.5621  Y0.8274  
G01 X0.5601  Y0.8293  
G01 X0.5558  Y0.8337  
G01 X0.5507  Y0.8357  
G01 X0.5377  Y0.8357  
G01 X0.5350  Y0.8364  
G01 X0.5327  Y0.8378  
G01 X0.5308  Y0.8397  
G01 X0.5294  Y0.8420  
G01 X0.5287  Y0.8447  
G01 X0.5287  Y0.9127  
G01 X0.5267  Y0.9178  
G01 X0.5223  Y0.9221  
G01 X0.4117  Y1.0327  
G01 X0.4098  Y1.0346  
G01 X0.4084  Y1.0370  
G01 X0.4077  Y1.0396  
G01 X0.4077  Y1.0558  
G01 X0.4084  Y1.0584  
G01 X0.4098  Y1.0607  
G01 X0.4117  Y1.0626  
G01 X0.4128  Y1.0633  
G01 X0.4188  Y1.0692  
G01 X0.4188  Y1.1308  
G01 X0.4128  Y1.1367  
G01 X0.4117  Y1.1374  
G01 X0.4098  Y1.1393  
G01 X0.4084  Y1.1416  
G01 X0.4077  Y1.1442  
G01 X0.4077  Y1.1743  
G01 X0.4084  Y1.1769  
G01 X0.4098  Y1.1792  
G01 X0.4117  Y1.1811  
G01 X0.4140  Y1.1825  
G01 X0.4167  Y1.1832  
G01 X0.4327  Y1.1832  
G01 X0.4373  Y1.1877  
G01 X0.4373  Y1.2459  
G01 X0.4367  Y1.2469  
G01 X0.4364  Y1.2482  
G01 X0.4360  Y1.2495  
G01 X0.4360  Y1.2509  
G01 X0.4360  Y1.2522  
G01 X0.4364  Y1.2535  
G01 X0.4367  Y1.2548  
G01 X0.4373  Y1.2569  
G01 X0.4373  Y1.2684  
G01 X0.4318  Y1.2684  
G01 X0.4318  Y1.2569  
G01 X0.4305  Y1.2556  
G01 X0.3695  Y1.2556  
G01 X0.3682  Y1.2569  
G01 X0.3682  Y1.2684  
G01 X0.3627  Y1.2684  
G01 X0.3627  Y1.2569  
G01 X0.3632  Y1.2549  
G01 X0.3636  Y1.2535  
G01 X0.3640  Y1.2522  
G01 X0.3640  Y1.2509  
G01 X0.3640  Y1.2495  
G01 X0.3636  Y1.2482  
G01 X0.3633  Y1.2469  
G01 X0.3627  Y1.2459  
G01 X0.3627  Y1.1877  
G01 X0.3673  Y1.1832  
G01 X0.3713  Y1.1832  
G01 X0.3740  Y1.1825  
G01 X0.3763  Y1.1811  
G01 X0.3782  Y1.1792  
G01 X0.3796  Y1.1769  
G01 X0.3802  Y1.1743  
G01 X0.3802  Y1.1442  
G01 X0.3796  Y1.1416  
G01 X0.3782  Y1.1393  
G01 X0.3763  Y1.1374  
G01 X0.3740  Y1.1360  
G01 X0.3713  Y1.1353  
G01 X0.3645  Y1.1353  
G01 X0.3563  Y1.1271  
G01 X0.3540  Y1.1258  
G01 X0.3538  Y1.1257  
G01 X0.3513  Y1.1250  
G01 X0.3487  Y1.1250  
G01 X0.3460  Y1.1257  
G01 X0.3437  Y1.1271  
G01 X0.3418  Y1.1290  
G01 X0.3355  Y1.1353  
G01 X0.2858  Y1.1353  
G01 X0.2812  Y1.1308  
G01 X0.2812  Y1.1307  
G01 X0.2805  Y1.1280  
G01 X0.2792  Y1.1257  
G01 X0.2773  Y1.1238  
G01 X0.2749  Y1.1224  
G01 X0.2723  Y1.1217  
G01 X0.2277  Y1.1217  
G01 X0.2251  Y1.1224  
G01 X0.2227  Y1.1238  
G01 X0.2208  Y1.1257  
G01 X0.2195  Y1.1280  
G01 X0.2188  Y1.1307  
G01 X0.2188  Y1.1308  
G01 X0.2142  Y1.1353  
G01 X0.1645  Y1.1353  
G01 X0.1563  Y1.1271  
G01 X0.1540  Y1.1258  
G01 X0.1538  Y1.1257  
G01 X0.1513  Y1.1250  
G01 X0.1487  Y1.1250  
G01 X0.1460  Y1.1257  
G01 X0.1437  Y1.1271  
G01 X0.1418  Y1.1290  
G01 X0.1355  Y1.1353  
G01 X0.1342  Y1.1353  
G01 X0.1315  Y1.1360  
G01 X0.1292  Y1.1374  
G01 X0.1273  Y1.1393  
G01 X0.1259  Y1.1416  
G01 X0.1252  Y1.1442  
G01 X0.1252  Y1.1469  
G01 X0.1259  Y1.1495  
G01 X0.1273  Y1.1519  
G01 X0.4067  Y1.4313  
G01 X0.4086  Y1.4332  
G01 X0.4110  Y1.4346  
G01 X0.4136  Y1.4352  
G01 X0.4684  Y1.4352  
G01 X0.4710  Y1.4346  
G01 X0.4733  Y1.4332  
G01 X0.4752  Y1.4313  
G01 X0.4766  Y1.4290  
G01 X0.4773  Y1.4263  
G01 X0.4773  Y1.4232  
G01 X0.4820  Y1.4185  
G01 X0.4840  Y1.4179  
G01 X0.4863  Y1.4166  
G01 X0.4882  Y1.4147  
G01 X0.4896  Y1.4123  
G01 X0.4902  Y1.4097  
G01 X0.4902  Y1.0723  
G01 X0.4923  Y1.0672  
G01 X0.4967  Y1.0629  
G01 X0.6454  Y0.9142  
G01 X0.6473  Y0.9123  
G01 X0.6486  Y0.9100  
G01 X0.6493  Y0.9073  
G01 X0.6493  Y0.9047  
G01 X0.6486  Y0.9020  
G01 X0.6473  Y0.8997  
G01 X0.6454  Y0.8978  
G01 X0.6430  Y0.8964  
G01 X0.6404  Y0.8957  
G01 X0.6278  Y0.8957  
G01 X0.6232  Y0.8912  
G01 X0.6232  Y0.8588  
G01 X0.6238  Y0.8582  
G01 X0.6257  Y0.8563  
G01 X0.6271  Y0.8540  
G01 X0.6276  Y0.8520  
G01 X0.6278  Y0.8513  
G01 X0.6278  Y0.8487  
G01 X0.6271  Y0.8460  
G01 X0.6257  Y0.8437  
G01 X0.6232  Y0.8412  
G01 X0.6232  Y0.8088  
G01 X0.6237  Y0.8083  
G01 X0.6251  Y0.8060  
G01 X0.6258  Y0.8033  
G01 X0.6258  Y0.8007  
G01 X0.6254  Y0.7992  
G01 X0.6251  Y0.7980  
G01 X0.6250  Y0.7978  
G01 X0.6237  Y0.7957  
G01 X0.6218  Y0.7938  
G00 Z0.3000  
G00 X0.6288  Y0.8111  
G01 Z-0.0070 F5     
G01 X0.6288  Y0.8389  F7     
G01 X0.6301  Y0.8402  
G01 X0.7119  Y0.8402  
G01 X0.7132  Y0.8389  
G01 X0.7132  Y0.8302  
G01 X0.7426  Y0.8302  
G01 X0.7598  Y0.8474  
G01 X0.7598  Y1.0557  
G01 X0.7259  Y1.0557  
G01 X0.7259  Y1.0341  
G01 X0.7246  Y1.0328  
G01 X0.6754  Y1.0328  
G01 X0.6741  Y1.0341  
G01 X0.6741  Y1.0832  
G01 X0.6754  Y1.0845  
G01 X0.7246  Y1.0845  
G01 X0.7259  Y1.0832  
G01 X0.7259  Y1.0722  
G01 X0.8526  Y1.0722  
G01 X0.8808  Y1.1004  
G01 X0.8808  Y1.1202  
G01 X0.8668  Y1.1202  
G01 X0.8655  Y1.1215  
G01 X0.8655  Y1.1785  
G01 X0.8668  Y1.1798  
G01 X0.9120  Y1.1798  
G01 X0.9133  Y1.1785  
G01 X0.9133  Y1.1215  
G01 X0.9120  Y1.1202  
G01 X0.8972  Y1.1202  
G01 X0.8972  Y1.0954  
G01 X0.8960  Y1.0923  
G01 X0.8937  Y1.0900  
G01 X0.8607  Y1.0570  
G01 X0.8576  Y1.0557  
G01 X0.7762  Y1.0557  
G01 X0.7762  Y0.8424  
G01 X0.7750  Y0.8393  
G01 X0.7727  Y0.8370  
G01 X0.7507  Y0.8150  
G01 X0.7476  Y0.8137  
G01 X0.7132  Y0.8137  
G01 X0.7132  Y0.8111  
G01 X0.7119  Y0.8097  
G01 X0.6301  Y0.8097  
G01 X0.6288  Y0.8111  
G00 Z0.3000  
G00 X0.7343  Y0.7988  
G01 Z-0.0070 F5     
G01 X0.7394  Y0.8017  F7     
G01 X0.7451  Y0.8032  
G01 X0.7509  Y0.8032  
G01 X0.7566  Y0.8017  
G01 X0.7569  Y0.8016  
G01 X0.7873  Y0.8320  
G01 X0.7904  Y0.8332  
G01 X0.8182  Y0.8332  
G01 X0.8182  Y0.8600  
G01 X0.8195  Y0.8613  
G01 X0.8805  Y0.8613  
G01 X0.8818  Y0.8600  
G01 X0.8818  Y0.8069  
G01 X0.8805  Y0.8056  
G01 X0.8195  Y0.8056  
G01 X0.8182  Y0.8069  
G01 X0.8182  Y0.8167  
G01 X0.7954  Y0.8167  
G01 X0.7686  Y0.7899  
G01 X0.7687  Y0.7896  
G01 X0.7702  Y0.7839  
G01 X0.7702  Y0.7781  
G01 X0.7687  Y0.7724  
G01 X0.7658  Y0.7673  
G01 X0.7617  Y0.7632  
G01 X0.7566  Y0.7603  
G01 X0.7509  Y0.7588  
G01 X0.7451  Y0.7588  
G01 X0.7394  Y0.7603  
G01 X0.7343  Y0.7632  
G01 X0.7302  Y0.7673  
G01 X0.7273  Y0.7724  
G01 X0.7258  Y0.7781  
G01 X0.7258  Y0.7839  
G01 X0.7273  Y0.7896  
G01 X0.7302  Y0.7947  
G01 X0.7343  Y0.7988  
G00 Z0.3000  
G00 X0.7374  Y0.8357  
G01 Z-0.0070 F5     
G01 X0.7271  Y0.8357  F7     
G01 X0.7264  Y0.8359  
G01 X0.7245  Y0.8364  
G01 X0.7222  Y0.8378  
G01 X0.7163  Y0.8437  
G01 X0.7149  Y0.8460  
G01 X0.7142  Y0.8487  
G01 X0.7142  Y0.8513  
G01 X0.7144  Y0.8521  
G01 X0.7149  Y0.8540  
G01 X0.7163  Y0.8563  
G01 X0.7182  Y0.8582  
G01 X0.7187  Y0.8588  
G01 X0.7187  Y0.8912  
G01 X0.7142  Y0.8957  
G01 X0.6917  Y0.8957  
G01 X0.6890  Y0.8964  
G01 X0.6867  Y0.8978  
G01 X0.6848  Y0.8997  
G01 X0.6834  Y0.9020  
G01 X0.6827  Y0.9047  
G01 X0.6827  Y0.9127  
G01 X0.6807  Y0.9178  
G01 X0.5217  Y1.0767  
G01 X0.5198  Y1.0786  
G01 X0.5184  Y1.0810  
G01 X0.5177  Y1.0836  
G01 X0.5177  Y1.4097  
G01 X0.5184  Y1.4123  
G01 X0.5198  Y1.4147  
G01 X0.5217  Y1.4166  
G01 X0.5240  Y1.4179  
G01 X0.5267  Y1.4186  
G01 X0.5355  Y1.4186  
G01 X0.5418  Y1.4249  
G01 X0.5437  Y1.4268  
G01 X0.5460  Y1.4282  
G01 X0.5487  Y1.4289  
G01 X0.5513  Y1.4289  
G01 X0.5540  Y1.4282  
G01 X0.5563  Y1.4268  
G01 X0.5645  Y1.4186  
G01 X0.6182  Y1.4186  
G01 X0.6227  Y1.4232  
G01 X0.6227  Y1.4263  
G01 X0.6234  Y1.4290  
G01 X0.6248  Y1.4313  
G01 X0.6267  Y1.4332  
G01 X0.6290  Y1.4346  
G01 X0.6316  Y1.4352  
G01 X0.6934  Y1.4352  
G01 X0.6960  Y1.4346  
G01 X0.6984  Y1.4332  
G01 X0.7943  Y1.3373  
G01 X0.7962  Y1.3354  
G01 X0.7976  Y1.3330  
G01 X0.7982  Y1.3304  
G01 X0.7982  Y1.1942  
G01 X0.7976  Y1.1916  
G01 X0.7962  Y1.1893  
G01 X0.7943  Y1.1874  
G01 X0.7920  Y1.1860  
G01 X0.7893  Y1.1853  
G01 X0.7858  Y1.1853  
G01 X0.7812  Y1.1808  
G01 X0.7812  Y1.1192  
G01 X0.7858  Y1.1147  
G01 X0.8355  Y1.1147  
G01 X0.8418  Y1.1210  
G01 X0.8437  Y1.1229  
G01 X0.8460  Y1.1243  
G01 X0.8487  Y1.1250  
G01 X0.8513  Y1.1250  
G01 X0.8540  Y1.1243  
G01 X0.8563  Y1.1229  
G01 X0.8647  Y1.1145  
G01 X0.8665  Y1.1140  
G01 X0.8688  Y1.1126  
G01 X0.8698  Y1.1116  
G01 X0.8707  Y1.1107  
G01 X0.8721  Y1.1084  
G01 X0.8725  Y1.1068  
G01 X0.8727  Y1.1058  
G01 X0.8727  Y1.1031  
G01 X0.8721  Y1.1005  
G01 X0.8707  Y1.0981  
G01 X0.8688  Y1.0962  
G01 X0.8524  Y1.0798  
G01 X0.8500  Y1.0784  
G01 X0.8474  Y1.0778  
G01 X0.7403  Y1.0777  
G01 X0.7377  Y1.0784  
G01 X0.7353  Y1.0798  
G01 X0.7334  Y1.0817  
G01 X0.7321  Y1.0840  
G01 X0.7318  Y1.0851  
G01 X0.7251  Y1.0918  
G01 X0.7232  Y1.0937  
G01 X0.7218  Y1.0960  
G01 X0.7211  Y1.0987  
G01 X0.7211  Y1.1013  
G01 X0.7218  Y1.1040  
G01 X0.7232  Y1.1063  
G01 X0.7314  Y1.1145  
G01 X0.7314  Y1.1682  
G01 X0.7268  Y1.1727  
G01 X0.7247  Y1.1727  
G01 X0.7220  Y1.1734  
G01 X0.7197  Y1.1748  
G01 X0.7178  Y1.1767  
G01 X0.7164  Y1.1790  
G01 X0.7157  Y1.1816  
G01 X0.7157  Y1.2223  
G01 X0.7164  Y1.2249  
G01 X0.7178  Y1.2273  
G01 X0.7197  Y1.2292  
G01 X0.7220  Y1.2305  
G01 X0.7247  Y1.2312  
G01 X0.7308  Y1.2312  
G01 X0.7353  Y1.2358  
G01 X0.7353  Y1.2855  
G01 X0.7308  Y1.2900  
G01 X0.7298  Y1.2903  
G01 X0.7281  Y1.2907  
G01 X0.7268  Y1.2915  
G01 X0.7258  Y1.2921  
G01 X0.7238  Y1.2940  
G01 X0.7225  Y1.2963  
G01 X0.7219  Y1.2985  
G01 X0.7218  Y1.2989  
G01 X0.7218  Y1.3003  
G01 X0.7218  Y1.3016  
G01 X0.7220  Y1.3025  
G01 X0.7225  Y1.3042  
G01 X0.7233  Y1.3056  
G01 X0.7238  Y1.3066  
G01 X0.7258  Y1.3085  
G01 X0.7281  Y1.3098  
G01 X0.7304  Y1.3104  
G01 X0.7306  Y1.3105  
G01 X0.7323  Y1.3115  
G01 X0.7338  Y1.3130  
G01 X0.7348  Y1.3147  
G01 X0.7353  Y1.3167  
G01 X0.7353  Y1.3263  
G01 X0.7298  Y1.3263  
G01 X0.7298  Y1.3168  
G01 X0.7285  Y1.3155  
G01 X0.6715  Y1.3155  
G01 X0.6702  Y1.3168  
G01 X0.6702  Y1.3263  
G01 X0.6647  Y1.3263  
G01 X0.6647  Y1.3167  
G01 X0.6652  Y1.3147  
G01 X0.6662  Y1.3130  
G01 X0.6677  Y1.3115  
G01 X0.6694  Y1.3105  
G01 X0.6697  Y1.3104  
G01 X0.6719  Y1.3098  
G01 X0.6742  Y1.3085  
G01 X0.6762  Y1.3066  
G01 X0.6768  Y1.3055  
G01 X0.6775  Y1.3042  
G01 X0.6780  Y1.3025  
G01 X0.6782  Y1.3016  
G01 X0.6782  Y1.3003  
G01 X0.6782  Y1.2989  
G01 X0.6781  Y1.2985  
G01 X0.6775  Y1.2963  
G01 X0.6762  Y1.2940  
G01 X0.6743  Y1.2921  
G01 X0.6732  Y1.2915  
G01 X0.6719  Y1.2907  
G01 X0.6702  Y1.2903  
G01 X0.6693  Y1.2900  
G01 X0.6647  Y1.2855  
G01 X0.6647  Y1.2358  
G01 X0.6692  Y1.2312  
G01 X0.6793  Y1.2312  
G01 X0.6820  Y1.2305  
G01 X0.6843  Y1.2292  
G01 X0.6862  Y1.2273  
G01 X0.6876  Y1.2249  
G01 X0.6882  Y1.2223  
G01 X0.6882  Y1.1816  
G01 X0.6876  Y1.1790  
G01 X0.6862  Y1.1767  
G01 X0.6843  Y1.1748  
G01 X0.6820  Y1.1734  
G01 X0.6793  Y1.1727  
G01 X0.6732  Y1.1727  
G01 X0.6686  Y1.1682  
G01 X0.6686  Y1.1145  
G01 X0.6768  Y1.1063  
G01 X0.6782  Y1.1040  
G01 X0.6782  Y1.1038  
G01 X0.6789  Y1.1013  
G01 X0.6789  Y1.0987  
G01 X0.6782  Y1.0960  
G01 X0.6768  Y1.0937  
G01 X0.6749  Y1.0918  
G01 X0.6686  Y1.0855  
G01 X0.6686  Y1.0318  
G01 X0.6732  Y1.0273  
G01 X0.7268  Y1.0273  
G01 X0.7314  Y1.0318  
G01 X0.7314  Y1.0413  
G01 X0.7321  Y1.0440  
G01 X0.7334  Y1.0463  
G01 X0.7353  Y1.0482  
G01 X0.7377  Y1.0496  
G01 X0.7403  Y1.0502  
G01 X0.7453  Y1.0502  
G01 X0.7480  Y1.0496  
G01 X0.7503  Y1.0482  
G01 X0.7522  Y1.0463  
G01 X0.7536  Y1.0440  
G01 X0.7542  Y1.0413  
G01 X0.7542  Y0.8526  
G01 X0.7536  Y0.8500  
G01 X0.7522  Y0.8476  
G01 X0.7443  Y0.8397  
G01 X0.7424  Y0.8378  
G01 X0.7400  Y0.8364  
G01 X0.7374  Y0.8357  
G00 Z0.3000  
G00 X0.4699  Y0.8598  
G01 Z-0.0070 F5     
G01 X0.3881  Y0.8598  F7     
G01 X0.3867  Y0.8611  
G01 X0.3867  Y0.8889  
G01 X0.3881  Y0.8902  
G01 X0.4276  Y0.8902  
G01 X0.4318  Y0.8944  
G01 X0.4318  Y0.9032  
G01 X0.4314  Y0.9033  
G01 X0.4263  Y0.9062  
G01 X0.4222  Y0.9103  
G01 X0.4193  Y0.9154  
G01 X0.4178  Y0.9211  
G01 X0.4178  Y0.9269  
G01 X0.4193  Y0.9326  
G01 X0.4222  Y0.9377  
G01 X0.4263  Y0.9418  
G01 X0.4314  Y0.9447  
G01 X0.4371  Y0.9462  
G01 X0.4429  Y0.9462  
G01 X0.4486  Y0.9447  
G01 X0.4537  Y0.9418  
G01 X0.4578  Y0.9377  
G01 X0.4607  Y0.9326  
G01 X0.4622  Y0.9269  
G01 X0.4622  Y0.9211  
G01 X0.4607  Y0.9154  
G01 X0.4578  Y0.9103  
G01 X0.4537  Y0.9062  
G01 X0.4486  Y0.9033  
G01 X0.4482  Y0.9032  
G01 X0.4482  Y0.8902  
G01 X0.4699  Y0.8902  
G01 X0.4712  Y0.8889  
G01 X0.4712  Y0.8611  
G01 X0.4699  Y0.8598  
G00 Z0.3000  
G00 X0.4699  Y0.7902  
G01 Z-0.0070 F5     
G01 X0.4712  Y0.7889  F7     
G01 X0.4712  Y0.7611  
G01 X0.4699  Y0.7598  
G01 X0.3881  Y0.7598  
G01 X0.3867  Y0.7611  
G01 X0.3867  Y0.7698  
G01 X0.3484  Y0.7698  
G01 X0.3453  Y0.7710  
G01 X0.3013  Y0.8150  
G01 X0.2990  Y0.8173  
G01 X0.2978  Y0.8204  
G01 X0.2978  Y1.0702  
G01 X0.2880  Y1.0702  
G01 X0.2867  Y1.0715  
G01 X0.2867  Y1.0998  
G01 X0.2133  Y1.0998  
G01 X0.2133  Y1.0715  
G01 X0.2120  Y1.0702  
G01 X0.1668  Y1.0702  
G01 X0.1655  Y1.0715  
G01 X0.1655  Y1.1285  
G01 X0.1668  Y1.1298  
G01 X0.2120  Y1.1298  
G01 X0.2133  Y1.1285  
G01 X0.2133  Y1.1162  
G01 X0.2867  Y1.1162  
G01 X0.2867  Y1.1285  
G01 X0.2880  Y1.1298  
G01 X0.3332  Y1.1298  
G01 X0.3345  Y1.1285  
G01 X0.3345  Y1.0715  
G01 X0.3332  Y1.0702  
G01 X0.3142  Y1.0702  
G01 X0.3142  Y0.8254  
G01 X0.3534  Y0.7862  
G01 X0.3867  Y0.7862  
G01 X0.3867  Y0.7889  
G01 X0.3881  Y0.7902  
G01 X0.4699  Y0.7902  
G00 Z0.3000  
G00 X0.6741  Y1.1168  
G01 Z-0.0070 F5     
G01 X0.6741  Y1.1659  F7     
G01 X0.6754  Y1.1672  
G01 X0.6937  Y1.1672  
G01 X0.6937  Y1.2367  
G01 X0.6715  Y1.2367  
G01 X0.6702  Y1.2380  
G01 X0.6702  Y1.2832  
G01 X0.6715  Y1.2845  
G01 X0.7285  Y1.2845  
G01 X0.7298  Y1.2832  
G01 X0.7298  Y1.2380  
G01 X0.7285  Y1.2367  
G01 X0.7102  Y1.2367  
G01 X0.7102  Y1.1672  
G01 X0.7246  Y1.1672  
G01 X0.7259  Y1.1659  
G01 X0.7259  Y1.1168  
G01 X0.7246  Y1.1155  
G01 X0.6754  Y1.1155  
G01 X0.6741  Y1.1168  
G00 Z0.3000  
G00 X0.7867  Y1.1215  
G01 Z-0.0070 F5     
G01 X0.7867  Y1.1785  F7     
G01 X0.7880  Y1.1798  
G01 X0.8037  Y1.1798  
G01 X0.8037  Y1.3356  
G01 X0.6986  Y1.4407  
G01 X0.6172  Y1.4407  
G01 X0.6172  Y1.4254  
G01 X0.6159  Y1.4241  
G01 X0.5668  Y1.4241  
G01 X0.5655  Y1.4254  
G01 X0.5655  Y1.4746  
G01 X0.5668  Y1.4759  
G01 X0.6159  Y1.4759  
G01 X0.6172  Y1.4746  
G01 X0.6172  Y1.4572  
G01 X0.7036  Y1.4572  
G01 X0.7067  Y1.4560  
G01 X0.8167  Y1.3460  
G01 X0.8190  Y1.3437  
G01 X0.8202  Y1.3406  
G01 X0.8202  Y1.1798  
G01 X0.8332  Y1.1798  
G01 X0.8345  Y1.1785  
G01 X0.8345  Y1.1215  
G01 X0.8332  Y1.1202  
G01 X0.7880  Y1.1202  
G01 X0.7867  Y1.1215  
G00 Z0.3000  
G00 X0.7353  Y1.3524  
G01 Z-0.0070 F5     
G01 X0.7353  Y1.3620  F7     
G01 X0.7348  Y1.3640  
G01 X0.7338  Y1.3658  
G01 X0.7323  Y1.3672  
G01 X0.7306  Y1.3682  
G01 X0.7286  Y1.3688  
G01 X0.7131  Y1.3688  
G01 X0.7131  Y1.3633  
G01 X0.7285  Y1.3633  
G01 X0.7298  Y1.3620  
G01 X0.7298  Y1.3524  
G01 X0.7353  Y1.3524  
G00 Z0.3000  
G00 X0.6869  Y1.3633  
G01 Z-0.0070 F5     
G01 X0.6869  Y1.3688  F7     
G01 X0.6714  Y1.3688  
G01 X0.6694  Y1.3682  
G01 X0.6677  Y1.3672  
G01 X0.6662  Y1.3658  
G01 X0.6652  Y1.3640  
G01 X0.6647  Y1.3620  
G01 X0.6647  Y1.3524  
G01 X0.6702  Y1.3524  
G01 X0.6702  Y1.3620  
G01 X0.6715  Y1.3633  
G01 X0.6869  Y1.3633  
G00 Z0.3000  
G00 X0.4343  Y1.3153  
G01 Z-0.0070 F5     
G01 X0.4325  Y1.3163  F7     
G01 X0.4305  Y1.3168  
G01 X0.4150  Y1.3168  
G01 X0.4150  Y1.3113  
G01 X0.4305  Y1.3113  
G01 X0.4318  Y1.3100  
G01 X0.4318  Y1.2985  
G01 X0.4373  Y1.2985  
G01 X0.4373  Y1.3101  
G01 X0.4367  Y1.3120  
G01 X0.4357  Y1.3138  
G01 X0.4343  Y1.3153  
G00 Z0.3000  
G00 X0.3850  Y1.3168  
G01 Z-0.0070 F5     
G01 X0.3695  Y1.3168  F7     
G01 X0.3675  Y1.3163  
G01 X0.3657  Y1.3153  
G01 X0.3643  Y1.3138  
G01 X0.3633  Y1.3120  
G01 X0.3627  Y1.3101  
G01 X0.3627  Y1.2985  
G01 X0.3682  Y1.2985  
G01 X0.3682  Y1.3100  
G01 X0.3695  Y1.3113  
G01 X0.3850  Y1.3113  
G01 X0.3850  Y1.3168  
G00 Z0.3000  
G00 X0.0358  Y0.1371  
G01 Z-0.0070 F5     
G01 X0.0358  Y0.1372  F7     
G01 X0.0338  Y0.1406  
G01 X0.0327  Y0.1445  
G01 X0.0327  Y1.5370  
G01 X0.0327  Y1.5410  
G01 X0.0338  Y1.5449  
G01 X0.0358  Y1.5484  
G01 X0.0386  Y1.5512  
G01 X0.0421  Y1.5532  
G01 X0.0460  Y1.5543  
G01 X1.0532  Y1.5543  
G01 X1.0571  Y1.5532  
G01 X1.0606  Y1.5512  
G01 X1.0634  Y1.5484  
G01 X1.0654  Y1.5449  
G01 X1.0665  Y1.5410  
G01 X1.0665  Y0.0460  
G01 X1.0654  Y0.0421  
G01 X1.0634  Y0.0386  
G01 X1.0606  Y0.0358  
G01 X1.0571  Y0.0338  
G01 X1.0532  Y0.0327  
G01 X0.1445  Y0.0327  
G01 X0.1406  Y0.0338  
G01 X0.1371  Y0.0358  
G01 X0.1343  Y0.0386  
G01 X0.1323  Y0.0421  
G01 X0.1313  Y0.0460  
G01 X0.1313  Y0.0500  
G01 X0.1323  Y0.0539  
G01 X0.1343  Y0.0574  
G01 X0.1345  Y0.0576  
G01 X0.1371  Y0.0602  
G01 X0.1461  Y0.0692  
G01 X0.1544  Y0.0892  
G01 X0.1544  Y0.1108  
G01 X0.1461  Y0.1308  
G01 X0.1308  Y0.1461  
G01 X0.1108  Y0.1544  
G01 X0.0892  Y0.1544  
G01 X0.0692  Y0.1461  
G01 X0.0602  Y0.1371  
G01 X0.0574  Y0.1343  
G01 X0.0539  Y0.1323  
G01 X0.0500  Y0.1313  
G01 X0.0460  Y0.1313  
G01 X0.0421  Y0.1323  
G01 X0.0420  Y0.1324  
G01 X0.0386  Y0.1343  
G01 X0.0358  Y0.1371  
G00 Z0.3000  
G00 X0.2640  Y0.4202  
G01 Z-0.0070 F5     
G01 X0.2791  Y0.4202  F7     
G01 X0.2777  Y0.4216  
G01 X0.2757  Y0.4251  
G01 X0.2747  Y0.4290  
G01 X0.2747  Y0.4309  
G01 X0.2640  Y0.4202  
G00 Z0.3000  
G00 X0.3665  Y0.7362  
G01 Z-0.0070 F5     
G01 X0.3817  Y0.7362  F7     
G01 X0.3817  Y0.7394  
G01 X0.3829  Y0.7421  
G01 X0.3849  Y0.7441  
G01 X0.3876  Y0.7452  
G01 X0.4679  Y0.7452  
G01 X0.4678  Y0.7460  
G01 X0.4672  Y0.7480  
G01 X0.4672  Y0.7520  
G01 X0.4675  Y0.7531  
G01 X0.4679  Y0.7548  
G01 X0.3876  Y0.7548  
G01 X0.3849  Y0.7559  
G01 X0.3829  Y0.7579  
G01 X0.3817  Y0.7606  
G01 X0.3817  Y0.7648  
G01 X0.3483  Y0.7648  
G01 X0.3449  Y0.7657  
G01 X0.3419  Y0.7674  
G01 X0.2979  Y0.8114  
G01 X0.2954  Y0.8139  
G01 X0.2937  Y0.8169  
G01 X0.2928  Y0.8203  
G01 X0.2928  Y1.0652  
G01 X0.2875  Y1.0652  
G01 X0.2849  Y1.0663  
G01 X0.2828  Y1.0683  
G01 X0.2817  Y1.0710  
G01 X0.2817  Y1.0947  
G01 X0.2183  Y1.0947  
G01 X0.2183  Y1.0710  
G01 X0.2172  Y1.0683  
G01 X0.2151  Y1.0663  
G01 X0.2125  Y1.0652  
G01 X0.1663  Y1.0652  
G01 X0.1636  Y1.0663  
G01 X0.1616  Y1.0683  
G01 X0.1605  Y1.0710  
G01 X0.1605  Y1.1242  
G01 X0.1594  Y1.1231  
G01 X0.1559  Y1.1211  
G01 X0.1520  Y1.1200  
G01 X0.1480  Y1.1200  
G01 X0.1441  Y1.1211  
G01 X0.1440  Y1.1211  
G01 X0.1406  Y1.1231  
G01 X0.1395  Y1.1242  
G01 X0.1395  Y1.0710  
G01 X0.1384  Y1.0683  
G01 X0.1364  Y1.0663  
G01 X0.1337  Y1.0652  
G01 X0.1212  Y1.0652  
G01 X0.1212  Y0.9815  
G01 X0.3665  Y0.7362  
G00 Z0.3000  
G00 X0.3555  Y0.7912  
G01 Z-0.0070 F5     
G01 X0.3825  Y0.7912  F7     
G01 X0.3829  Y0.7921  
G01 X0.3849  Y0.7941  
G01 X0.3876  Y0.7952  
G01 X0.4694  Y0.7952  
G01 X0.4692  Y0.7960  
G01 X0.4692  Y0.8000  
G01 X0.4699  Y0.8025  
G01 X0.4702  Y0.8039  
G01 X0.4708  Y0.8049  
G01 X0.4704  Y0.8047  
G01 X0.3876  Y0.8047  
G01 X0.3849  Y0.8059  
G01 X0.3829  Y0.8079  
G01 X0.3817  Y0.8106  
G01 X0.3817  Y0.8394  
G01 X0.3829  Y0.8421  
G01 X0.3849  Y0.8441  
G01 X0.3876  Y0.8452  
G01 X0.4704  Y0.8452  
G01 X0.4731  Y0.8441  
G01 X0.4751  Y0.8421  
G01 X0.4762  Y0.8394  
G01 X0.4762  Y0.8352  
G01 X0.5018  Y0.8352  
G01 X0.5018  Y0.9045  
G01 X0.3834  Y1.0229  
G01 X0.3817  Y1.0259  
G01 X0.3807  Y1.0293  
G01 X0.3807  Y1.0652  
G01 X0.3663  Y1.0652  
G01 X0.3636  Y1.0663  
G01 X0.3616  Y1.0683  
G01 X0.3605  Y1.0710  
G01 X0.3605  Y1.1242  
G01 X0.3594  Y1.1231  
G01 X0.3559  Y1.1211  
G01 X0.3520  Y1.1200  
G01 X0.3480  Y1.1200  
G01 X0.3441  Y1.1211  
G01 X0.3440  Y1.1211  
G01 X0.3406  Y1.1231  
G01 X0.3395  Y1.1242  
G01 X0.3395  Y1.0710  
G01 X0.3384  Y1.0683  
G01 X0.3364  Y1.0663  
G01 X0.3337  Y1.0652  
G01 X0.3192  Y1.0652  
G01 X0.3192  Y0.8275  
G01 X0.3555  Y0.7912  
G00 Z0.3000  
G00 X0.3829  Y0.8579  
G01 Z-0.0070 F5     
G01 X0.3817  Y0.8606  F7     
G01 X0.3817  Y0.8894  
G01 X0.3829  Y0.8921  
G01 X0.3849  Y0.8941  
G01 X0.3876  Y0.8952  
G01 X0.4255  Y0.8952  
G01 X0.4268  Y0.8965  
G01 X0.4268  Y0.9001  
G01 X0.4226  Y0.9028  
G01 X0.4188  Y0.9066  
G01 X0.4159  Y0.9111  
G01 X0.4138  Y0.9161  
G01 X0.4128  Y0.9213  
G01 X0.4128  Y0.9267  
G01 X0.4138  Y0.9319  
G01 X0.4159  Y0.9369  
G01 X0.4188  Y0.9414  
G01 X0.4226  Y0.9452  
G01 X0.4271  Y0.9481  
G01 X0.4321  Y0.9502  
G01 X0.4373  Y0.9512  
G01 X0.4427  Y0.9512  
G01 X0.4479  Y0.9502  
G01 X0.4529  Y0.9481  
G01 X0.4574  Y0.9452  
G01 X0.4612  Y0.9414  
G01 X0.4641  Y0.9369  
G01 X0.4662  Y0.9319  
G01 X0.4672  Y0.9267  
G01 X0.4672  Y0.9213  
G01 X0.4662  Y0.9161  
G01 X0.4641  Y0.9111  
G01 X0.4612  Y0.9066  
G01 X0.4574  Y0.9028  
G01 X0.4532  Y0.9001  
G01 X0.4532  Y0.8952  
G01 X0.4704  Y0.8952  
G01 X0.4731  Y0.8941  
G01 X0.4751  Y0.8921  
G01 X0.4762  Y0.8894  
G01 X0.4762  Y0.8606  
G01 X0.4751  Y0.8579  
G01 X0.4731  Y0.8559  
G01 X0.4704  Y0.8548  
G01 X0.3876  Y0.8548  
G01 X0.3849  Y0.8559  
G01 X0.3829  Y0.8579  
G00 Z0.3000  
G00 X0.6321  Y0.8548  
G01 Z-0.0070 F5     
G01 X0.6325  Y0.8530  F7     
G01 X0.6328  Y0.8520  
G01 X0.6328  Y0.8480  
G01 X0.6322  Y0.8459  
G01 X0.6321  Y0.8452  
G01 X0.7099  Y0.8452  
G01 X0.7098  Y0.8460  
G01 X0.7092  Y0.8480  
G01 X0.7092  Y0.8520  
G01 X0.7095  Y0.8531  
G01 X0.7099  Y0.8548  
G01 X0.6321  Y0.8548  
G00 Z0.3000  
G00 X0.6306  Y0.8047  
G01 Z-0.0070 F5     
G01 X0.6308  Y0.8040  F7     
G01 X0.6308  Y0.8000  
G01 X0.6301  Y0.7975  
G01 X0.6298  Y0.7961  
G01 X0.6292  Y0.7951  
G01 X0.6296  Y0.7952  
G01 X0.7124  Y0.7952  
G01 X0.7151  Y0.7941  
G01 X0.7171  Y0.7921  
G01 X0.7182  Y0.7894  
G01 X0.7182  Y0.7606  
G01 X0.7171  Y0.7579  
G01 X0.7151  Y0.7559  
G01 X0.7124  Y0.7548  
G01 X0.6321  Y0.7548  
G01 X0.6325  Y0.7530  
G01 X0.6328  Y0.7520  
G01 X0.6328  Y0.7480  
G01 X0.6322  Y0.7459  
G01 X0.6321  Y0.7452  
G01 X0.7124  Y0.7452  
G01 X0.7151  Y0.7441  
G01 X0.7171  Y0.7421  
G01 X0.7182  Y0.7394  
G01 X0.7182  Y0.7392  
G01 X0.7425  Y0.7392  
G01 X0.7596  Y0.7563  
G01 X0.7559  Y0.7548  
G01 X0.7507  Y0.7538  
G01 X0.7453  Y0.7538  
G01 X0.7401  Y0.7548  
G01 X0.7351  Y0.7569  
G01 X0.7306  Y0.7598  
G01 X0.7268  Y0.7636  
G01 X0.7239  Y0.7681  
G01 X0.7218  Y0.7731  
G01 X0.7208  Y0.7783  
G01 X0.7208  Y0.7837  
G01 X0.7218  Y0.7889  
G01 X0.7239  Y0.7939  
G01 X0.7268  Y0.7984  
G01 X0.7306  Y0.8022  
G01 X0.7351  Y0.8051  
G01 X0.7401  Y0.8072  
G01 X0.7453  Y0.8082  
G01 X0.7507  Y0.8082  
G01 X0.7555  Y0.8073  
G01 X0.7839  Y0.8356  
G01 X0.7843  Y0.8358  
G01 X0.7826  Y0.8368  
G01 X0.7804  Y0.8390  
G01 X0.7803  Y0.8389  
G01 X0.7786  Y0.8359  
G01 X0.7761  Y0.8334  
G01 X0.7541  Y0.8114  
G01 X0.7511  Y0.8097  
G01 X0.7477  Y0.8087  
G01 X0.7175  Y0.8087  
G01 X0.7171  Y0.8079  
G01 X0.7151  Y0.8059  
G01 X0.7124  Y0.8047  
G01 X0.6306  Y0.8047  
G00 Z0.3000  
G00 X0.6499  Y0.8952  
G01 Z-0.0070 F5     
G01 X0.6558  Y0.8952  F7     
G01 X0.6558  Y0.9045  
G01 X0.6543  Y0.9060  
G01 X0.6543  Y0.9040  
G01 X0.6533  Y0.9001  
G01 X0.6513  Y0.8966  
G01 X0.6499  Y0.8952  
G00 Z0.3000  
G00 X0.6797  Y1.0895  
G01 Z-0.0070 F5     
G01 X0.7203  Y1.0895  F7     
G01 X0.7192  Y1.0906  
G01 X0.7172  Y1.0941  
G01 X0.7161  Y1.0980  
G01 X0.7161  Y1.1020  
G01 X0.7172  Y1.1059  
G01 X0.7192  Y1.1094  
G01 X0.7194  Y1.1096  
G01 X0.7203  Y1.1105  
G01 X0.6797  Y1.1105  
G01 X0.6808  Y1.1094  
G01 X0.6828  Y1.1059  
G01 X0.6839  Y1.1020  
G01 X0.6839  Y1.0980  
G01 X0.6828  Y1.0941  
G01 X0.6828  Y1.0940  
G01 X0.6808  Y1.0906  
G01 X0.6797  Y1.0895  
G00 Z0.3000  
G00 X0.8395  Y1.1258  
G01 Z-0.0070 F5     
G01 X0.8406  Y1.1269  F7     
G01 X0.8441  Y1.1289  
G01 X0.8480  Y1.1300  
G01 X0.8520  Y1.1300  
G01 X0.8559  Y1.1289  
G01 X0.8594  Y1.1269  
G01 X0.8596  Y1.1267  
G01 X0.8605  Y1.1258  
G01 X0.8605  Y1.1742  
G01 X0.8594  Y1.1731  
G01 X0.8559  Y1.1711  
G01 X0.8520  Y1.1700  
G01 X0.8480  Y1.1700  
G01 X0.8441  Y1.1711  
G01 X0.8440  Y1.1711  
G01 X0.8406  Y1.1731  
G01 X0.8395  Y1.1742  
G01 X0.8395  Y1.1258  
G00 Z0.3000  
G00 X0.8733  Y1.1152  
G01 Z-0.0070 F5     
G01 X0.8747  Y1.1138  F7     
G01 X0.8758  Y1.1120  
G01 X0.8758  Y1.1152  
G01 X0.8733  Y1.1152  
G00 Z0.3000  
G00 X0.8810  Y0.8006  
G01 Z-0.0070 F5     
G01 X0.8190  Y0.8006  F7     
G01 X0.8164  Y0.8017  
G01 X0.8143  Y0.8038  
G01 X0.8132  Y0.8064  
G01 X0.8132  Y0.8117  
G01 X0.7975  Y0.8117  
G01 X0.7743  Y0.7885  
G01 X0.7752  Y0.7837  
G01 X0.7752  Y0.7783  
G01 X0.7742  Y0.7731  
G01 X0.7727  Y0.7694  
G01 X0.7729  Y0.7696  
G01 X0.7759  Y0.7713  
G01 X0.7793  Y0.7722  
G01 X0.8132  Y0.7722  
G01 X0.8132  Y0.7936  
G01 X0.8143  Y0.7962  
G01 X0.8164  Y0.7983  
G01 X0.8190  Y0.7994  
G01 X0.8810  Y0.7994  
G01 X0.8819  Y0.7990  
G01 X0.8819  Y0.8000  
G01 X0.8819  Y0.8010  
G01 X0.8810  Y0.8006  
G00 Z0.3000  
G00 X0.7212  Y1.2895  
G01 Z-0.0070 F5     
G01 X0.7198  Y1.2909  F7     
G01 X0.7189  Y1.2926  
G01 X0.7178  Y1.2944  
G01 X0.7172  Y1.2966  
G01 X0.7168  Y1.2983  
G01 X0.7168  Y1.3003  
G01 X0.7168  Y1.3023  
G01 X0.7174  Y1.3045  
G01 X0.7178  Y1.3062  
G01 X0.7194  Y1.3088  
G01 X0.7198  Y1.3096  
G01 X0.7207  Y1.3105  
G01 X0.6793  Y1.3105  
G01 X0.6802  Y1.3096  
G01 X0.6807  Y1.3088  
G01 X0.6822  Y1.3062  
G01 X0.6826  Y1.3045  
G01 X0.6832  Y1.3023  
G01 X0.6832  Y1.3003  
G01 X0.6832  Y1.2983  
G01 X0.6827  Y1.2966  
G01 X0.6822  Y1.2944  
G01 X0.6811  Y1.2926  
G01 X0.6802  Y1.2909  
G01 X0.6788  Y1.2895  
G01 X0.7212  Y1.2895  
G00 Z0.3000  
G00 X0.5605  Y1.4297  
G01 Z-0.0070 F5     
G01 X0.5605  Y1.4703  F7     
G01 X0.5594  Y1.4692  
G01 X0.5559  Y1.4672  
G01 X0.5520  Y1.4661  
G01 X0.5480  Y1.4661  
G01 X0.5441  Y1.4672  
G01 X0.5440  Y1.4672  
G01 X0.5406  Y1.4692  
G01 X0.5395  Y1.4703  
G01 X0.5395  Y1.4297  
G01 X0.5406  Y1.4308  
G01 X0.5441  Y1.4328  
G01 X0.5480  Y1.4339  
G01 X0.5520  Y1.4339  
G01 X0.5559  Y1.4328  
G01 X0.5594  Y1.4308  
G01 X0.5596  Y1.4306  
G01 X0.5605  Y1.4297  
G00 Z0.3000  
G00 X0.4310  Y1.2506  
G01 Z-0.0070 F5     
G01 X0.4310  Y1.2506  F7     
G01 X0.3690  Y1.2506  
G01 X0.3690  Y1.2494  
G01 X0.4310  Y1.2494  
G01 X0.4310  Y1.2506  
G00 Z0.3000  
G00 X0.1212  Y1.1398  
G01 Z-0.0070 F5     
G01 X0.1212  Y1.1348  F7     
G01 X0.1247  Y1.1348  
G01 X0.1233  Y1.1362  
G01 X0.1213  Y1.1397  
G01 X0.1212  Y1.1398  
G00 Z0.3000  
G00 X0.0318  Y0.1341  
G01 Z-0.0070 F5     
G01 X0.0306  Y0.1361  F7     
G01 X0.0291  Y0.1387  
G01 X0.0277  Y0.1438  
G01 X0.0277  Y1.5363  
G01 X0.0277  Y1.5417  
G01 X0.0291  Y1.5468  
G01 X0.0318  Y1.5514  
G01 X0.0356  Y1.5552  
G01 X0.0402  Y1.5579  
G01 X0.0453  Y1.5593  
G01 X1.0539  Y1.5593  
G01 X1.0590  Y1.5579  
G01 X1.0636  Y1.5552  
G01 X1.0674  Y1.5514  
G01 X1.0701  Y1.5468  
G01 X1.0715  Y1.5417  
G01 X1.0715  Y0.0453  
G01 X1.0701  Y0.0402  
G01 X1.0674  Y0.0356  
G01 X1.0636  Y0.0318  
G01 X1.0590  Y0.0291  
G01 X1.0539  Y0.0277  
G01 X0.1438  Y0.0277  
G01 X0.1387  Y0.0291  
G01 X0.1360  Y0.0307  
G01 X0.1341  Y0.0318  
G01 X0.1303  Y0.0356  
G01 X0.1276  Y0.0402  
G01 X0.1266  Y0.0440  
G01 X0.1263  Y0.0453  
G01 X0.1263  Y0.0507  
G01 X0.1276  Y0.0558  
G01 X0.1292  Y0.0585  
G01 X0.1303  Y0.0604  
G01 X0.1306  Y0.0607  
G01 X0.1341  Y0.0642  
G01 X0.1419  Y0.0720  
G01 X0.1494  Y0.0902  
G01 X0.1494  Y0.1098  
G01 X0.1419  Y0.1280  
G01 X0.1280  Y0.1419  
G01 X0.1098  Y0.1494  
G01 X0.0902  Y0.1494  
G01 X0.0720  Y0.1419  
G01 X0.0642  Y0.1341  
G01 X0.0604  Y0.1303  
G01 X0.0584  Y0.1291  
G01 X0.0558  Y0.1276  
G01 X0.0507  Y0.1263  
G01 X0.0453  Y0.1263  
G01 X0.0439  Y0.1266  
G01 X0.0402  Y0.1276  
G01 X0.0357  Y0.1302  
G01 X0.0356  Y0.1303  
G01 X0.0318  Y0.1341  
G00 Z0.3000  
G00 X0.3501  Y0.7598  
G01 Z-0.0070 F5     
G01 X0.3686  Y0.7412  F7     
G01 X0.3772  Y0.7412  
G01 X0.3776  Y0.7427  
G01 X0.3792  Y0.7455  
G01 X0.3815  Y0.7478  
G01 X0.3843  Y0.7494  
G01 X0.3865  Y0.7500  
G01 X0.3843  Y0.7506  
G01 X0.3815  Y0.7522  
G01 X0.3792  Y0.7545  
G01 X0.3776  Y0.7573  
G01 X0.3769  Y0.7598  
G01 X0.3501  Y0.7598  
G00 Z0.3000  
G00 X0.3576  Y0.7962  
G01 Z-0.0070 F5     
G01 X0.3799  Y0.7962  F7     
G01 X0.3815  Y0.7978  
G01 X0.3843  Y0.7994  
G01 X0.3865  Y0.8000  
G01 X0.3843  Y0.8006  
G01 X0.3815  Y0.8022  
G01 X0.3792  Y0.8045  
G01 X0.3776  Y0.8073  
G01 X0.3767  Y0.8104  
G01 X0.3767  Y0.8396  
G01 X0.3776  Y0.8427  
G01 X0.3792  Y0.8455  
G01 X0.3815  Y0.8478  
G01 X0.3843  Y0.8494  
G01 X0.3865  Y0.8500  
G01 X0.3843  Y0.8506  
G01 X0.3815  Y0.8522  
G01 X0.3792  Y0.8545  
G01 X0.3776  Y0.8573  
G01 X0.3767  Y0.8604  
G01 X0.3767  Y0.8896  
G01 X0.3776  Y0.8927  
G01 X0.3792  Y0.8955  
G01 X0.3815  Y0.8978  
G01 X0.3843  Y0.8994  
G01 X0.3874  Y0.9002  
G01 X0.4181  Y0.9002  
G01 X0.4149  Y0.9034  
G01 X0.4114  Y0.9087  
G01 X0.4090  Y0.9146  
G01 X0.4078  Y0.9208  
G01 X0.4078  Y0.9272  
G01 X0.4090  Y0.9334  
G01 X0.4114  Y0.9393  
G01 X0.4149  Y0.9446  
G01 X0.4194  Y0.9491  
G01 X0.4247  Y0.9526  
G01 X0.4306  Y0.9550  
G01 X0.4368  Y0.9562  
G01 X0.4429  Y0.9562  
G01 X0.3794  Y1.0198  
G01 X0.3770  Y1.0240  
G01 X0.3757  Y1.0286  
G01 X0.3757  Y1.0602  
G01 X0.3661  Y1.0602  
G01 X0.3630  Y1.0610  
G01 X0.3602  Y1.0626  
G01 X0.3579  Y1.0649  
G01 X0.3563  Y1.0677  
G01 X0.3555  Y1.0708  
G01 X0.3555  Y1.1158  
G01 X0.3527  Y1.1150  
G01 X0.3473  Y1.1150  
G01 X0.3459  Y1.1154  
G01 X0.3445  Y1.1158  
G01 X0.3445  Y1.0708  
G01 X0.3437  Y1.0677  
G01 X0.3421  Y1.0649  
G01 X0.3398  Y1.0626  
G01 X0.3370  Y1.0610  
G01 X0.3339  Y1.0602  
G01 X0.3242  Y1.0602  
G01 X0.3242  Y0.8296  
G01 X0.3576  Y0.7962  
G00 Z0.3000  
G00 X0.2878  Y0.8221  
G01 Z-0.0070 F5     
G01 X0.2878  Y1.0602  F7     
G01 X0.2874  Y1.0602  
G01 X0.2842  Y1.0610  
G01 X0.2815  Y1.0626  
G01 X0.2792  Y1.0649  
G01 X0.2776  Y1.0677  
G01 X0.2767  Y1.0708  
G01 X0.2767  Y1.0897  
G01 X0.2233  Y1.0897  
G01 X0.2233  Y1.0708  
G01 X0.2224  Y1.0677  
G01 X0.2208  Y1.0649  
G01 X0.2185  Y1.0626  
G01 X0.2158  Y1.0610  
G01 X0.2126  Y1.0602  
G01 X0.1661  Y1.0602  
G01 X0.1630  Y1.0610  
G01 X0.1602  Y1.0626  
G01 X0.1579  Y1.0649  
G01 X0.1563  Y1.0677  
G01 X0.1555  Y1.0708  
G01 X0.1555  Y1.1158  
G01 X0.1527  Y1.1150  
G01 X0.1473  Y1.1150  
G01 X0.1459  Y1.1154  
G01 X0.1445  Y1.1158  
G01 X0.1445  Y1.0708  
G01 X0.1437  Y1.0677  
G01 X0.1421  Y1.0649  
G01 X0.1398  Y1.0626  
G01 X0.1370  Y1.0610  
G01 X0.1339  Y1.0602  
G01 X0.1262  Y1.0602  
G01 X0.1262  Y0.9836  
G01 X0.2878  Y0.8221  
G00 Z0.3000  
G00 X0.4811  Y0.8402  
G01 Z-0.0070 F5     
G01 X0.4968  Y0.8402  F7     
G01 X0.4968  Y0.9024  
G01 X0.4722  Y0.9269  
G01 X0.4722  Y0.9208  
G01 X0.4710  Y0.9146  
G01 X0.4686  Y0.9087  
G01 X0.4651  Y0.9034  
G01 X0.4619  Y0.9002  
G01 X0.4706  Y0.9002  
G01 X0.4737  Y0.8994  
G01 X0.4765  Y0.8978  
G01 X0.4788  Y0.8955  
G01 X0.4804  Y0.8927  
G01 X0.4812  Y0.8896  
G01 X0.4812  Y0.8604  
G01 X0.4804  Y0.8573  
G01 X0.4788  Y0.8545  
G01 X0.4765  Y0.8522  
G01 X0.4737  Y0.8506  
G01 X0.4715  Y0.8500  
G01 X0.4737  Y0.8494  
G01 X0.4765  Y0.8478  
G01 X0.4788  Y0.8455  
G01 X0.4804  Y0.8427  
G01 X0.4811  Y0.8402  
G00 Z0.3000  
G00 X0.7135  Y0.8000  
G01 Z-0.0070 F5     
G01 X0.7157  Y0.7994  F7     
G01 X0.7185  Y0.7978  
G01 X0.7197  Y0.7967  
G01 X0.7229  Y0.8016  
G01 X0.7251  Y0.8037  
G01 X0.7201  Y0.8037  
G01 X0.7185  Y0.8022  
G01 X0.7157  Y0.8006  
G01 X0.7135  Y0.8000  
G00 Z0.3000  
G00 X0.7232  Y0.7602  
G01 Z-0.0070 F5     
G01 X0.7224  Y0.7573  F7     
G01 X0.7208  Y0.7545  
G01 X0.7185  Y0.7522  
G01 X0.7157  Y0.7506  
G01 X0.7135  Y0.7500  
G01 X0.7157  Y0.7494  
G01 X0.7185  Y0.7478  
G01 X0.7208  Y0.7455  
G01 X0.7215  Y0.7442  
G01 X0.7404  Y0.7442  
G01 X0.7449  Y0.7488  
G01 X0.7448  Y0.7488  
G01 X0.7386  Y0.7500  
G01 X0.7327  Y0.7524  
G01 X0.7274  Y0.7559  
G01 X0.7232  Y0.7602  
G00 Z0.3000  
G00 X0.7801  Y0.7772  
G01 Z-0.0070 F5     
G01 X0.8082  Y0.7772  F7     
G01 X0.8082  Y0.7937  
G01 X0.8091  Y0.7969  
G01 X0.8107  Y0.7996  
G01 X0.8110  Y0.8000  
G01 X0.8107  Y0.8004  
G01 X0.8091  Y0.8031  
G01 X0.8082  Y0.8063  
G01 X0.8082  Y0.8067  
G01 X0.7996  Y0.8067  
G01 X0.7797  Y0.7869  
G01 X0.7802  Y0.7842  
G01 X0.7802  Y0.7778  
G01 X0.7801  Y0.7772  
G00 Z0.3000  
G00 X0.7119  Y1.0945  
G01 Z-0.0070 F5     
G01 X0.7115  Y1.0960  F7     
G01 X0.7111  Y1.0973  
G01 X0.7111  Y1.1027  
G01 X0.7119  Y1.1055  
G01 X0.6881  Y1.1055  
G01 X0.6889  Y1.1027  
G01 X0.6889  Y1.0973  
G01 X0.6885  Y1.0959  
G01 X0.6881  Y1.0945  
G01 X0.7119  Y1.0945  
G00 Z0.3000  
G00 X0.8445  Y1.1342  
G01 Z-0.0070 F5     
G01 X0.8460  Y1.1346  F7     
G01 X0.8473  Y1.1350  
G01 X0.8527  Y1.1350  
G01 X0.8555  Y1.1342  
G01 X0.8555  Y1.1658  
G01 X0.8527  Y1.1650  
G01 X0.8473  Y1.1650  
G01 X0.8459  Y1.1654  
G01 X0.8445  Y1.1658  
G01 X0.8445  Y1.1342  
G00 Z0.3000  
G00 X0.7126  Y1.2945  
G01 Z-0.0070 F5     
G01 X0.7126  Y1.2948  F7     
G01 X0.7118  Y1.2976  
G01 X0.7118  Y1.3003  
G01 X0.7118  Y1.3029  
G01 X0.7125  Y1.3055  
G01 X0.6875  Y1.3055  
G01 X0.6882  Y1.3030  
G01 X0.6882  Y1.3003  
G01 X0.6882  Y1.2976  
G01 X0.6874  Y1.2947  
G01 X0.6874  Y1.2945  
G01 X0.7126  Y1.2945  
G00 Z0.3000  
G00 X0.5555  Y1.4381  
G01 Z-0.0070 F5     
G01 X0.5555  Y1.4619  F7     
G01 X0.5527  Y1.4611  
G01 X0.5473  Y1.4611  
G01 X0.5459  Y1.4615  
G01 X0.5445  Y1.4619  
G01 X0.5445  Y1.4381  
G01 X0.5460  Y1.4385  
G01 X0.5473  Y1.4389  
G01 X0.5527  Y1.4389  
G01 X0.5555  Y1.4381  
G00 Z0.3000  
G00 X0.0284  Y0.1304  
G01 Z-0.0070 F5     
G01 X0.0256  Y0.1345  F7     
G01 X0.0237  Y0.1391  
G01 X0.0227  Y0.1440  
G01 X0.0227  Y1.5365  
G01 X0.0227  Y1.5415  
G01 X0.0237  Y1.5464  
G01 X0.0256  Y1.5510  
G01 X0.0284  Y1.5551  
G01 X0.0319  Y1.5586  
G01 X0.0360  Y1.5614  
G01 X0.0406  Y1.5633  
G01 X0.0455  Y1.5643  
G01 X1.0537  Y1.5643  
G01 X1.0586  Y1.5633  
G01 X1.0632  Y1.5614  
G01 X1.0673  Y1.5586  
G01 X1.0708  Y1.5551  
G01 X1.0736  Y1.5510  
G01 X1.0755  Y1.5464  
G01 X1.0765  Y1.5415  
G01 X1.0765  Y0.0455  
G01 X1.0755  Y0.0406  
G01 X1.0736  Y0.0360  
G01 X1.0708  Y0.0319  
G01 X1.0673  Y0.0284  
G01 X1.0632  Y0.0256  
G01 X1.0586  Y0.0237  
G01 X1.0537  Y0.0227  
G01 X0.1440  Y0.0227  
G01 X0.1391  Y0.0237  
G01 X0.1345  Y0.0256  
G01 X0.1304  Y0.0284  
G01 X0.1269  Y0.0319  
G01 X0.1241  Y0.0360  
G01 X0.1230  Y0.0388  
G01 X0.1222  Y0.0406  
G01 X0.1213  Y0.0455  
G01 X0.1213  Y0.0505  
G01 X0.1222  Y0.0554  
G01 X0.1241  Y0.0600  
G01 X0.1269  Y0.0641  
G01 X0.1376  Y0.0748  
G01 X0.1444  Y0.0912  
G01 X0.1444  Y0.1088  
G01 X0.1376  Y0.1252  
G01 X0.1252  Y0.1376  
G01 X0.1088  Y0.1444  
G01 X0.0912  Y0.1444  
G01 X0.0748  Y0.1376  
G01 X0.0641  Y0.1269  
G01 X0.0600  Y0.1241  
G01 X0.0554  Y0.1222  
G01 X0.0505  Y0.1213  
G01 X0.0455  Y0.1213  
G01 X0.0406  Y0.1222  
G01 X0.0387  Y0.1230  
G01 X0.0360  Y0.1241  
G01 X0.0319  Y0.1269  
G01 X0.0284  Y0.1304  
G00 Z0.3000  
G00 X0.3621  Y0.7548  
G01 Z-0.0070 F5     
G01 X0.3706  Y0.7462  F7     
G01 X0.3738  Y0.7462  
G01 X0.3752  Y0.7486  
G01 X0.3766  Y0.7500  
G01 X0.3752  Y0.7514  
G01 X0.3733  Y0.7548  
G01 X0.3621  Y0.7548  
G00 Z0.3000  
G00 X0.3596  Y0.8012  
G01 Z-0.0070 F5     
G01 X0.3754  Y0.8012  F7     
G01 X0.3752  Y0.8014  
G01 X0.3729  Y0.8053  
G01 X0.3718  Y0.8097  
G01 X0.3718  Y0.8403  
G01 X0.3729  Y0.8447  
G01 X0.3752  Y0.8486  
G01 X0.3766  Y0.8500  
G01 X0.3752  Y0.8514  
G01 X0.3729  Y0.8553  
G01 X0.3718  Y0.8597  
G01 X0.3718  Y0.8903  
G01 X0.3729  Y0.8947  
G01 X0.3752  Y0.8986  
G01 X0.3784  Y0.9018  
G01 X0.3823  Y0.9041  
G01 X0.3867  Y0.9052  
G01 X0.4077  Y0.9052  
G01 X0.4070  Y0.9064  
G01 X0.4042  Y0.9131  
G01 X0.4027  Y0.9203  
G01 X0.4027  Y0.9277  
G01 X0.4042  Y0.9349  
G01 X0.4070  Y0.9416  
G01 X0.4111  Y0.9477  
G01 X0.4163  Y0.9529  
G01 X0.4224  Y0.9570  
G01 X0.4291  Y0.9598  
G01 X0.4318  Y0.9603  
G01 X0.3759  Y1.0162  
G01 X0.3734  Y1.0200  
G01 X0.3716  Y1.0242  
G01 X0.3708  Y1.0287  
G01 X0.3708  Y1.0552  
G01 X0.3654  Y1.0552  
G01 X0.3611  Y1.0564  
G01 X0.3571  Y1.0586  
G01 X0.3539  Y1.0618  
G01 X0.3516  Y1.0658  
G01 X0.3505  Y1.0702  
G01 X0.3505  Y1.1100  
G01 X0.3495  Y1.1100  
G01 X0.3495  Y1.0702  
G01 X0.3484  Y1.0658  
G01 X0.3461  Y1.0618  
G01 X0.3429  Y1.0586  
G01 X0.3389  Y1.0564  
G01 X0.3346  Y1.0552  
G01 X0.3292  Y1.0552  
G01 X0.3292  Y0.8316  
G01 X0.3596  Y0.8012  
G00 Z0.3000  
G00 X0.2828  Y0.8341  
G01 Z-0.0070 F5     
G01 X0.2828  Y1.0563  F7     
G01 X0.2823  Y1.0564  
G01 X0.2784  Y1.0586  
G01 X0.2752  Y1.0618  
G01 X0.2729  Y1.0658  
G01 X0.2717  Y1.0702  
G01 X0.2717  Y1.0848  
G01 X0.2283  Y1.0848  
G01 X0.2283  Y1.0702  
G01 X0.2271  Y1.0658  
G01 X0.2248  Y1.0618  
G01 X0.2216  Y1.0586  
G01 X0.2177  Y1.0564  
G01 X0.2133  Y1.0552  
G01 X0.1654  Y1.0552  
G01 X0.1611  Y1.0564  
G01 X0.1571  Y1.0586  
G01 X0.1539  Y1.0618  
G01 X0.1516  Y1.0658  
G01 X0.1505  Y1.0702  
G01 X0.1505  Y1.1100  
G01 X0.1495  Y1.1100  
G01 X0.1495  Y1.0702  
G01 X0.1484  Y1.0658  
G01 X0.1461  Y1.0618  
G01 X0.1429  Y1.0586  
G01 X0.1389  Y1.0564  
G01 X0.1346  Y1.0552  
G01 X0.1312  Y1.0552  
G01 X0.1312  Y0.9856  
G01 X0.2828  Y0.8341  
G00 Z0.3000  
G00 X0.4847  Y0.8452  
G01 Z-0.0070 F5     
G01 X0.4918  Y0.8452  F7     
G01 X0.4918  Y0.9004  
G01 X0.4763  Y0.9158  
G01 X0.4758  Y0.9131  
G01 X0.4730  Y0.9064  
G01 X0.4721  Y0.9050  
G01 X0.4757  Y0.9041  
G01 X0.4796  Y0.9018  
G01 X0.4828  Y0.8986  
G01 X0.4851  Y0.8947  
G01 X0.4862  Y0.8903  
G01 X0.4862  Y0.8597  
G01 X0.4851  Y0.8553  
G01 X0.4828  Y0.8514  
G01 X0.4814  Y0.8500  
G01 X0.4828  Y0.8486  
G01 X0.4847  Y0.8452  
G00 Z0.3000  
G00 X0.7249  Y0.7516  
G01 Z-0.0070 F5     
G01 X0.7248  Y0.7514  F7     
G01 X0.7234  Y0.7500  
G01 X0.7241  Y0.7492  
G01 X0.7285  Y0.7492  
G01 X0.7249  Y0.7516  
G00 Z0.3000  
G00 X0.7852  Y0.7822  
G01 Z-0.0070 F5     
G01 X0.8032  Y0.7822  F7     
G01 X0.8032  Y0.7944  
G01 X0.8044  Y0.7988  
G01 X0.8051  Y0.8000  
G01 X0.8044  Y0.8012  
G01 X0.8043  Y0.8017  
G01 X0.8016  Y0.8017  
G01 X0.7851  Y0.7853  
G01 X0.7852  Y0.7847  
G01 X0.7852  Y0.7822  
G00 Z0.3000  
G00 X0.7061  Y1.0995  
G01 Z-0.0070 F5     
G01 X0.7061  Y1.1005  F7     
G01 X0.6939  Y1.1005  
G01 X0.6939  Y1.0995  
G01 X0.7061  Y1.0995  
G00 Z0.3000  
G00 X0.8495  Y1.1400  
G01 Z-0.0070 F5     
G01 X0.8505  Y1.1400  F7     
G01 X0.8505  Y1.1600  
G01 X0.8495  Y1.1600  
G01 X0.8495  Y1.1400  
G00 Z0.3000  
G00 X0.7068  Y1.2995  
G01 Z-0.0070 F5     
G01 X0.7067  Y1.3005  F7     
G01 X0.6933  Y1.3005  
G01 X0.6932  Y1.2995  
G01 X0.7068  Y1.2995  
G00 Z0.3000  
G00 X0.5505  Y1.4439  
G01 Z-0.0070 F5     
G01 X0.5505  Y1.4561  F7     
G01 X0.5495  Y1.4561  
G01 X0.5495  Y1.4439  
G01 X0.5505  Y1.4439  
G00 Z0.3000  
G00 X0.0245  Y0.1272  
G01 Z-0.0070 F5     
G01 X0.0223  Y0.1305  F7     
G01 X0.0212  Y0.1322  
G01 X0.0198  Y0.1355  
G01 X0.0189  Y0.1377  
G01 X0.0177  Y0.1435  
G01 X0.0177  Y1.5360  
G01 X0.0177  Y1.5420  
G01 X0.0189  Y1.5478  
G01 X0.0212  Y1.5533  
G01 X0.0245  Y1.5583  
G01 X0.0287  Y1.5625  
G01 X0.0337  Y1.5658  
G01 X0.0392  Y1.5681  
G01 X0.0450  Y1.5693  
G01 X1.0542  Y1.5693  
G01 X1.0600  Y1.5681  
G01 X1.0655  Y1.5658  
G01 X1.0705  Y1.5625  
G01 X1.0747  Y1.5583  
G01 X1.0780  Y1.5533  
G01 X1.0803  Y1.5478  
G01 X1.0815  Y1.5420  
G01 X1.0815  Y0.0450  
G01 X1.0803  Y0.0392  
G01 X1.0780  Y0.0337  
G01 X1.0747  Y0.0287  
G01 X1.0705  Y0.0245  
G01 X1.0655  Y0.0212  
G01 X1.0600  Y0.0189  
G01 X1.0542  Y0.0177  
G01 X0.1435  Y0.0177  
G01 X0.1377  Y0.0189  
G01 X0.1353  Y0.0199  
G01 X0.1322  Y0.0212  
G01 X0.1306  Y0.0222  
G01 X0.1272  Y0.0245  
G01 X0.1230  Y0.0287  
G01 X0.1197  Y0.0337  
G01 X0.1174  Y0.0392  
G01 X0.1165  Y0.0439  
G01 X0.1163  Y0.0450  
G01 X0.1163  Y0.0510  
G01 X0.1174  Y0.0568  
G01 X0.1184  Y0.0592  
G01 X0.1197  Y0.0623  
G01 X0.1208  Y0.0639  
G01 X0.1230  Y0.0673  
G01 X0.1334  Y0.0777  
G01 X0.1394  Y0.0922  
G01 X0.1394  Y0.1078  
G01 X0.1334  Y0.1223  
G01 X0.1223  Y0.1334  
G01 X0.1078  Y0.1394  
G01 X0.0922  Y0.1394  
G01 X0.0777  Y0.1334  
G01 X0.0673  Y0.1230  
G01 X0.0640  Y0.1208  
G01 X0.0623  Y0.1197  
G01 X0.0590  Y0.1183  
G01 X0.0568  Y0.1174  
G01 X0.0510  Y0.1163  
G01 X0.0450  Y0.1163  
G01 X0.0438  Y0.1165  
G01 X0.0392  Y0.1174  
G01 X0.0337  Y0.1197  
G01 X0.0287  Y0.1230  
G01 X0.0245  Y0.1272  
G00 Z0.3000  
G00 X0.2777  Y0.8462  
G01 Z-0.0070 F5     
G01 X0.2777  Y1.0532  F7     
G01 X0.2753  Y1.0546  
G01 X0.2712  Y1.0588  
G01 X0.2682  Y1.0639  
G01 X0.2667  Y1.0695  
G01 X0.2667  Y1.0797  
G01 X0.2333  Y1.0797  
G01 X0.2333  Y1.0695  
G01 X0.2318  Y1.0639  
G01 X0.2288  Y1.0588  
G01 X0.2247  Y1.0546  
G01 X0.2196  Y1.0517  
G01 X0.2140  Y1.0502  
G01 X0.1648  Y1.0502  
G01 X0.1591  Y1.0517  
G01 X0.1541  Y1.0546  
G01 X0.1500  Y1.0587  
G01 X0.1459  Y1.0546  
G01 X0.1409  Y1.0517  
G01 X0.1362  Y1.0505  
G01 X0.1362  Y0.9877  
G01 X0.2777  Y0.8462  
G00 Z0.3000  
G00 X0.3342  Y0.8337  
G01 Z-0.0070 F5     
G01 X0.3617  Y0.8062  F7     
G01 X0.3675  Y0.8062  
G01 X0.3668  Y0.8091  
G01 X0.3668  Y0.8409  
G01 X0.3683  Y0.8466  
G01 X0.3702  Y0.8500  
G01 X0.3683  Y0.8534  
G01 X0.3668  Y0.8591  
G01 X0.3668  Y0.8909  
G01 X0.3683  Y0.8966  
G01 X0.3712  Y0.9017  
G01 X0.3753  Y0.9058  
G01 X0.3804  Y0.9087  
G01 X0.3861  Y0.9102  
G01 X0.4000  Y0.9102  
G01 X0.3988  Y0.9141  
G01 X0.3977  Y0.9207  
G01 X0.3977  Y0.9273  
G01 X0.3988  Y0.9339  
G01 X0.4008  Y0.9402  
G01 X0.4039  Y0.9461  
G01 X0.4078  Y0.9515  
G01 X0.4125  Y0.9562  
G01 X0.4179  Y0.9601  
G01 X0.4225  Y0.9625  
G01 X0.3721  Y1.0130  
G01 X0.3690  Y1.0176  
G01 X0.3668  Y1.0228  
G01 X0.3658  Y1.0282  
G01 X0.3658  Y1.0502  
G01 X0.3648  Y1.0502  
G01 X0.3591  Y1.0517  
G01 X0.3541  Y1.0546  
G01 X0.3500  Y1.0587  
G01 X0.3459  Y1.0546  
G01 X0.3409  Y1.0517  
G01 X0.3352  Y1.0502  
G01 X0.3342  Y1.0502  
G01 X0.3342  Y0.8337  
G00 Z0.3000  
G00 X0.7982  Y0.7913  
G01 Z-0.0070 F5     
G01 X0.7942  Y0.7872  F7     
G01 X0.7982  Y0.7872  
G01 X0.7982  Y0.7913  
G00 Z0.3000  
G82 X0.1000  Y0.1000  Z-0.0110 F20    R0.3000  P1.000000
G82 X0.2000  Y0.5000  
G82 X0.2000  Y1.3500  
G82 X0.6000  Y1.2500  
G82 X0.5500  Y1.1000  
G82 X0.8500  Y1.4500  
G82 X0.5500  Y0.6500  
G82 X0.4000  Y1.3500  
G82 X0.7480  Y0.7810  
G82 X0.4400  Y0.9240  
G00 Z0.5000  
M05
M02
