(.../EagleCAD.Playground/PCB-GCODE/pcb-gcode.ulp)
(Copyright 2005 - 2012 by John Johnson)
(See readme.txt for licensing terms.)
(This file generated from the board:)
(.../TUTORIALS/BlinkyBoard (New)/v1.brd)
(Current profile is .../EagleCAD.Playground/PCB-GCODE/profiles/mach.pp  )
(This file generated 5/18/2015 10:06:03 PM)
(Settings from pcb-machine.h)
(spindle on time = 3.0000)
(spindle speed = 20000.0000)
(tool change at 0.0000  0.0000  3.0000  )
(feed rate xy = F0     )
(feed rate z  = F20    )
(Z Axis Settings)
(  High     Up        Down     Drill)
(0.5000  	0.3000  	-0.0070 	-0.0630 )
(Settings from pcb-defaults.h)
(isolate min = 0.0010)
(isolate max = 0.0200)
(isolate step = 0.0050)
(Generated top outlines, top drill, )
(Unit of measure: inch)
( Tool|       Size       |  Min Sub |  Max Sub |   Count )
( T01 | 0.600mm 0.0236in | 0.0000in | 0.0000in |       0 )
( T02 | 0.610mm 0.0240in | 0.0000in | 0.0000in |       0 )
( T03 | 1.100mm 0.0433in | 0.0000in | 0.0000in |       0 )
(Inch Mode)
G20
(Absolute Coordinates)
G90
S20000
G00 Z0.5000  
G00 X0.0000  Y0.0000  
M03
G04 P3.000000
M05
G00 Z3.0000  
M06 T01  ; 0.0236  
G01 Z0.0000  F20    
M06 
G00 Z0.3000  
M03
G04 P3.000000
G82 X0.2000  Y0.5000  Z-0.0630 F20    R0.3000  P1.000000
G82 X0.5500  Y0.6500  
G82 X0.5500  Y1.1000  
G82 X0.6000  Y1.2500  
G82 X0.4000  Y1.3500  
G82 X0.2000  Y1.3500  
G82 X0.8500  Y1.4500  
M05
G00 Z3.0000  
G00 X0.0000  Y0.0000  
M06 T02  ; 0.0240  
G01 Z0.0000  F20    
M06 
G00 Z0.3000  
M03
G04 P3.000000
G82 X0.4400  Y0.9240  Z-0.0630 F20    R0.3000  P1.000000
G82 X0.7480  Y0.7810  
M05
G00 Z3.0000  
G00 X0.0000  Y0.0000  
M06 T03  ; 0.0433  
G01 Z0.0000  F20    
M06 
G00 Z0.3000  
M03
G04 P3.000000
G82 X0.1000  Y0.1000  Z-0.0630 F20    R0.3000  P1.000000
T01 
G00 Z0.5000  
M05
M02
