(.../EagleCAD.Playground/PCB-GCODE/pcb-gcode.ulp)
(Copyright 2005 - 2012 by John Johnson)
(See readme.txt for licensing terms.)
(This file generated from the board:)
(.../IDers Test/SMM Test Jig/CPLD_probe.brd)
(Current profile is .../EagleCAD.Playground/PCB-GCODE/profiles/mach.pp  )
(This file generated 5/25/2015 8:53:20 PM)
(Settings from pcb-machine.h)
(spindle on time = 3.0000)
(  Tool Size)
(0.0025  )
(spindle speed = 30000.0000)
(tool change at 0.0000  0.0000  1.0000  )
(feed rate xy = F7     )
(feed rate z  = F5     )
(Z Axis Settings)
(  High     Up        Down     Drill)
(0.5000  	0.3000  	-0.0070 	-0.0630 )
(Settings from pcb-defaults.h)
(isolate min = 0.0010)
(isolate max = 0.0200)
(isolate step = 0.0050)
(Generated top outlines, top drill, )
(Unit of measure: inch)
(Inch Mode)
G20
(Absolute Coordinates)
G90
S30000
G00 Z0.5000  
G00 X0.0000  Y0.0000  
M03
G04 P3.000000
G00 Z0.3000  
G00 X0.0418  Y0.0437  
G01 Z-0.0070 F5     
G01 X0.0404  Y0.0460  F7     
G01 X0.0398  Y0.0487  
G01 X0.0398  Y0.0513  
G01 X0.0397  Y1.3377  
G01 X0.0397  Y1.3404  
G01 X0.0404  Y1.3430  
G01 X0.0418  Y1.3453  
G01 X0.0437  Y1.3472  
G01 X0.0460  Y1.3486  
G01 X0.0487  Y1.3493  
G01 X0.6513  Y1.3493  
G01 X0.6540  Y1.3486  
G01 X0.6563  Y1.3472  
G01 X0.6582  Y1.3453  
G01 X0.6596  Y1.3430  
G01 X0.6602  Y1.3404  
G01 X0.6602  Y0.0513  
G01 X0.6602  Y0.0487  
G01 X0.6596  Y0.0460  
G01 X0.6582  Y0.0437  
G01 X0.6563  Y0.0418  
G01 X0.6540  Y0.0404  
G01 X0.6513  Y0.0398  
G01 X0.0487  Y0.0398  
G01 X0.0460  Y0.0404  
G01 X0.0437  Y0.0418  
G01 X0.0418  Y0.0437  
G00 Z0.3000  
G00 X0.2224  Y0.2587  
G01 Z-0.0070 F5     
G01 X0.2403  Y0.2512  F7     
G01 X0.2597  Y0.2512  
G01 X0.2776  Y0.2587  
G01 X0.2918  Y0.2729  
G01 X0.2937  Y0.2748  
G01 X0.2960  Y0.2761  
G01 X0.2987  Y0.2768  
G01 X0.3013  Y0.2768  
G01 X0.3040  Y0.2761  
G01 X0.3063  Y0.2748  
G01 X0.3082  Y0.2729  
G01 X0.3298  Y0.2512  
G01 X0.3733  Y0.2512  
G01 X0.3760  Y0.2506  
G01 X0.3783  Y0.2492  
G01 X0.3802  Y0.2473  
G01 X0.3816  Y0.2450  
G01 X0.3822  Y0.2423  
G01 X0.3822  Y0.1965  
G01 X0.3850  Y0.1899  
G01 X0.3899  Y0.1850  
G01 X0.3965  Y0.1822  
G01 X0.4313  Y0.1822  
G01 X0.4339  Y0.1816  
G01 X0.4362  Y0.1802  
G01 X0.4365  Y0.1799  
G01 X0.4453  Y0.1762  
G01 X0.4547  Y0.1762  
G01 X0.4635  Y0.1799  
G01 X0.6201  Y0.3365  
G01 X0.6237  Y0.3453  
G01 X0.6237  Y0.9047  
G01 X0.6201  Y0.9135  
G01 X0.6135  Y0.9201  
G01 X0.6047  Y0.9237  
G01 X0.6042  Y0.9237  
G01 X0.6016  Y0.9244  
G01 X0.5993  Y0.9258  
G01 X0.5979  Y0.9272  
G01 X0.5974  Y0.9277  
G01 X0.5101  Y1.0150  
G01 X0.5035  Y1.0177  
G01 X0.4662  Y1.0177  
G01 X0.4636  Y1.0184  
G01 X0.4613  Y1.0198  
G01 X0.4594  Y1.0217  
G01 X0.4580  Y1.0240  
G01 X0.4573  Y1.0267  
G01 X0.4573  Y1.0293  
G01 X0.4580  Y1.0320  
G01 X0.4594  Y1.0343  
G01 X0.4600  Y1.0349  
G01 X0.4613  Y1.0362  
G01 X0.4987  Y1.0736  
G01 X0.4993  Y1.0742  
G01 X0.5016  Y1.0756  
G01 X0.5042  Y1.0762  
G01 X0.5047  Y1.0762  
G01 X0.5135  Y1.0799  
G01 X0.5201  Y1.0865  
G01 X0.5237  Y1.0953  
G01 X0.5237  Y1.1547  
G01 X0.5201  Y1.1635  
G01 X0.4225  Y1.2611  
G01 X0.4135  Y1.2701  
G01 X0.4047  Y1.2737  
G01 X0.1453  Y1.2737  
G01 X0.1365  Y1.2701  
G01 X0.0889  Y1.2225  
G01 X0.0799  Y1.2135  
G01 X0.0762  Y1.2047  
G01 X0.0762  Y0.4453  
G01 X0.0799  Y0.4365  
G01 X0.0865  Y0.4299  
G01 X0.0953  Y0.4262  
G01 X0.0958  Y0.4262  
G01 X0.0984  Y0.4256  
G01 X0.1007  Y0.4242  
G01 X0.2000  Y0.3249  
G01 X0.2006  Y0.3245  
G01 X0.2010  Y0.3239  
G01 X0.2014  Y0.3235  
G01 X0.2018  Y0.3229  
G01 X0.2022  Y0.3223  
G01 X0.2025  Y0.3217  
G01 X0.2028  Y0.3211  
G01 X0.2030  Y0.3205  
G01 X0.2032  Y0.3198  
G01 X0.2033  Y0.3192  
G01 X0.2035  Y0.3185  
G01 X0.2035  Y0.3178  
G01 X0.2036  Y0.3172  
G01 X0.2035  Y0.3165  
G01 X0.2035  Y0.3158  
G01 X0.2033  Y0.3152  
G01 X0.2032  Y0.3145  
G01 X0.2030  Y0.3139  
G01 X0.2028  Y0.3132  
G01 X0.2025  Y0.3126  
G01 X0.2012  Y0.3097  
G01 X0.2012  Y0.2903  
G01 X0.2087  Y0.2724  
G01 X0.2224  Y0.2587  
G00 Z0.3000  
G00 X0.2250  Y0.2695  
G01 Z-0.0070 F5     
G01 X0.2195  Y0.2750  F7     
G01 X0.2152  Y0.2814  
G01 X0.2123  Y0.2886  
G01 X0.2107  Y0.2961  
G01 X0.2107  Y0.3039  
G01 X0.2123  Y0.3114  
G01 X0.2152  Y0.3186  
G01 X0.2170  Y0.3213  
G01 X0.1024  Y0.4359  
G01 X0.1019  Y0.4358  
G01 X0.0981  Y0.4358  
G01 X0.0945  Y0.4367  
G01 X0.0913  Y0.4386  
G01 X0.0886  Y0.4413  
G01 X0.0867  Y0.4445  
G01 X0.0858  Y0.4481  
G01 X0.0858  Y1.2019  
G01 X0.0867  Y1.2055  
G01 X0.0886  Y1.2087  
G01 X0.0913  Y1.2114  
G01 X0.1413  Y1.2614  
G01 X0.1445  Y1.2633  
G01 X0.1481  Y1.2642  
G01 X0.4019  Y1.2642  
G01 X0.4055  Y1.2633  
G01 X0.4087  Y1.2614  
G01 X0.4114  Y1.2587  
G01 X0.5114  Y1.1587  
G01 X0.5133  Y1.1555  
G01 X0.5142  Y1.1519  
G01 X0.5142  Y1.0981  
G01 X0.5133  Y1.0945  
G01 X0.5114  Y1.0913  
G01 X0.5087  Y1.0886  
G01 X0.5055  Y1.0867  
G01 X0.5019  Y1.0857  
G01 X0.4981  Y1.0857  
G01 X0.4976  Y1.0859  
G01 X0.4547  Y1.0430  
G01 X0.4516  Y1.0417  
G01 X0.3484  Y1.0417  
G01 X0.3453  Y1.0430  
G01 X0.3430  Y1.0453  
G01 X0.3213  Y1.0670  
G01 X0.3186  Y1.0652  
G01 X0.3114  Y1.0623  
G01 X0.3039  Y1.0608  
G01 X0.2961  Y1.0608  
G01 X0.2886  Y1.0623  
G01 X0.2814  Y1.0652  
G01 X0.2750  Y1.0695  
G01 X0.2695  Y1.0750  
G01 X0.2652  Y1.0814  
G01 X0.2623  Y1.0886  
G01 X0.2607  Y1.0961  
G01 X0.2607  Y1.1039  
G01 X0.2623  Y1.1114  
G01 X0.2652  Y1.1186  
G01 X0.2695  Y1.1250  
G01 X0.2750  Y1.1305  
G01 X0.2814  Y1.1348  
G01 X0.2886  Y1.1377  
G01 X0.2961  Y1.1392  
G01 X0.3039  Y1.1392  
G01 X0.3114  Y1.1377  
G01 X0.3186  Y1.1348  
G01 X0.3250  Y1.1305  
G01 X0.3305  Y1.1250  
G01 X0.3348  Y1.1186  
G01 X0.3377  Y1.1114  
G01 X0.3392  Y1.1039  
G01 X0.3392  Y1.0961  
G01 X0.3377  Y1.0886  
G01 X0.3348  Y1.0814  
G01 X0.3330  Y1.0787  
G01 X0.3534  Y1.0582  
G01 X0.4466  Y1.0582  
G01 X0.4859  Y1.0976  
G01 X0.4858  Y1.0981  
G01 X0.4858  Y1.1441  
G01 X0.3941  Y1.2357  
G01 X0.1559  Y1.2357  
G01 X0.1142  Y1.1941  
G01 X0.1142  Y0.4481  
G01 X0.1141  Y0.4476  
G01 X0.2287  Y0.3330  
G01 X0.2314  Y0.3348  
G01 X0.2386  Y0.3377  
G01 X0.2461  Y0.3392  
G01 X0.2539  Y0.3392  
G01 X0.2614  Y0.3377  
G01 X0.2686  Y0.3348  
G01 X0.2750  Y0.3305  
G01 X0.2805  Y0.3250  
G01 X0.2848  Y0.3186  
G01 X0.2877  Y0.3114  
G01 X0.2892  Y0.3039  
G01 X0.2892  Y0.2961  
G01 X0.2877  Y0.2886  
G01 X0.2848  Y0.2814  
G01 X0.2805  Y0.2750  
G01 X0.2750  Y0.2695  
G01 X0.2686  Y0.2652  
G01 X0.2614  Y0.2623  
G01 X0.2539  Y0.2607  
G01 X0.2461  Y0.2607  
G01 X0.2386  Y0.2623  
G01 X0.2314  Y0.2652  
G01 X0.2250  Y0.2695  
G00 Z0.3000  
G00 X0.2337  Y0.3608  
G01 Z-0.0070 F5     
G01 X0.2107  Y0.3837  F7     
G01 X0.2107  Y0.4163  
G01 X0.2164  Y0.4219  
G01 X0.1524  Y0.4859  
G01 X0.1519  Y0.4858  
G01 X0.1481  Y0.4858  
G01 X0.1445  Y0.4867  
G01 X0.1413  Y0.4886  
G01 X0.1386  Y0.4913  
G01 X0.1367  Y0.4945  
G01 X0.1358  Y0.4981  
G01 X0.1358  Y1.1519  
G01 X0.1367  Y1.1555  
G01 X0.1386  Y1.1587  
G01 X0.1886  Y1.2087  
G01 X0.1913  Y1.2114  
G01 X0.1945  Y1.2133  
G01 X0.1981  Y1.2142  
G01 X0.3519  Y1.2142  
G01 X0.3555  Y1.2133  
G01 X0.3587  Y1.2114  
G01 X0.4114  Y1.1587  
G01 X0.4133  Y1.1555  
G01 X0.4142  Y1.1519  
G01 X0.4142  Y1.1481  
G01 X0.4133  Y1.1445  
G01 X0.4114  Y1.1413  
G01 X0.4094  Y1.1392  
G01 X0.4163  Y1.1392  
G01 X0.4392  Y1.1163  
G01 X0.4392  Y1.0837  
G01 X0.4163  Y1.0608  
G01 X0.3837  Y1.0608  
G01 X0.3608  Y1.0837  
G01 X0.3608  Y1.1163  
G01 X0.3837  Y1.1392  
G01 X0.3906  Y1.1392  
G01 X0.3441  Y1.1858  
G01 X0.2059  Y1.1858  
G01 X0.1642  Y1.1441  
G01 X0.1642  Y0.4981  
G01 X0.1641  Y0.4976  
G01 X0.2281  Y0.4336  
G01 X0.2337  Y0.4392  
G01 X0.2663  Y0.4392  
G01 X0.2892  Y0.4163  
G01 X0.2892  Y0.3837  
G01 X0.2663  Y0.3608  
G01 X0.2337  Y0.3608  
G00 Z0.3000  
G00 X0.1973  Y0.3904  
G01 Z-0.0070 F5     
G01 X0.1950  Y0.3890  F7     
G01 X0.1923  Y0.3883  
G01 X0.1897  Y0.3883  
G01 X0.1870  Y0.3890  
G01 X0.1847  Y0.3904  
G01 X0.1838  Y0.3913  
G01 X0.1828  Y0.3923  
G01 X0.1267  Y0.4484  
G01 X0.1258  Y0.4493  
G01 X0.1244  Y0.4516  
G01 X0.1238  Y0.4542  
G01 X0.1237  Y0.4692  
G01 X0.1237  Y0.4698  
G01 X0.1237  Y0.4705  
G01 X0.1237  Y0.4712  
G01 X0.1239  Y0.4718  
G01 X0.1240  Y0.4725  
G01 X0.1243  Y0.4731  
G01 X0.1244  Y0.4738  
G01 X0.1248  Y0.4744  
G01 X0.1250  Y0.4750  
G01 X0.1255  Y0.4755  
G01 X0.1258  Y0.4761  
G01 X0.1263  Y0.4766  
G01 X0.1267  Y0.4771  
G01 X0.1272  Y0.4775  
G01 X0.1277  Y0.4780  
G01 X0.1283  Y0.4784  
G01 X0.1288  Y0.4788  
G01 X0.1295  Y0.4790  
G01 X0.1300  Y0.4794  
G01 X0.1307  Y0.4796  
G01 X0.1313  Y0.4798  
G01 X0.1320  Y0.4799  
G01 X0.1327  Y0.4801  
G01 X0.1333  Y0.4801  
G01 X0.1340  Y0.4802  
G01 X0.1347  Y0.4801  
G01 X0.1353  Y0.4801  
G01 X0.1360  Y0.4799  
G01 X0.1367  Y0.4798  
G01 X0.1373  Y0.4796  
G01 X0.1380  Y0.4794  
G01 X0.1385  Y0.4790  
G01 X0.1453  Y0.4762  
G01 X0.1458  Y0.4762  
G01 X0.1484  Y0.4756  
G01 X0.1507  Y0.4742  
G01 X0.1973  Y0.4276  
G01 X0.1992  Y0.4257  
G01 X0.2006  Y0.4234  
G01 X0.2012  Y0.4208  
G01 X0.2012  Y0.3972  
G01 X0.2006  Y0.3946  
G01 X0.1992  Y0.3923  
G01 X0.1973  Y0.3904  
G00 Z0.3000  
G00 X0.2224  Y0.4527  
G01 Z-0.0070 F5     
G01 X0.1777  Y0.4974  F7     
G01 X0.1758  Y0.4993  
G01 X0.1744  Y0.5016  
G01 X0.1737  Y0.5042  
G01 X0.1737  Y0.5192  
G01 X0.1737  Y0.5198  
G01 X0.1737  Y0.5205  
G01 X0.1737  Y0.5212  
G01 X0.1739  Y0.5218  
G01 X0.1740  Y0.5225  
G01 X0.1743  Y0.5231  
G01 X0.1744  Y0.5238  
G01 X0.1748  Y0.5244  
G01 X0.1750  Y0.5250  
G01 X0.1755  Y0.5255  
G01 X0.1758  Y0.5261  
G01 X0.1763  Y0.5266  
G01 X0.1767  Y0.5271  
G01 X0.1772  Y0.5275  
G01 X0.1777  Y0.5280  
G01 X0.1783  Y0.5284  
G01 X0.1788  Y0.5288  
G01 X0.1795  Y0.5290  
G01 X0.1800  Y0.5294  
G01 X0.1807  Y0.5296  
G01 X0.1813  Y0.5298  
G01 X0.1820  Y0.5299  
G01 X0.1827  Y0.5301  
G01 X0.1833  Y0.5301  
G01 X0.1840  Y0.5302  
G01 X0.1847  Y0.5301  
G01 X0.1853  Y0.5301  
G01 X0.1860  Y0.5299  
G01 X0.1867  Y0.5298  
G01 X0.1873  Y0.5296  
G01 X0.1880  Y0.5294  
G01 X0.1885  Y0.5290  
G01 X0.1953  Y0.5262  
G01 X0.1958  Y0.5262  
G01 X0.1984  Y0.5256  
G01 X0.2007  Y0.5242  
G01 X0.2577  Y0.4672  
G01 X0.2596  Y0.4653  
G01 X0.2610  Y0.4630  
G01 X0.2617  Y0.4603  
G01 X0.2617  Y0.4577  
G01 X0.2610  Y0.4550  
G01 X0.2596  Y0.4527  
G01 X0.2577  Y0.4508  
G01 X0.2554  Y0.4494  
G01 X0.2528  Y0.4487  
G01 X0.2292  Y0.4487  
G01 X0.2266  Y0.4494  
G01 X0.2243  Y0.4508  
G01 X0.2224  Y0.4527  
G00 Z0.3000  
G00 X0.2918  Y0.4466  
G01 Z-0.0070 F5     
G01 X0.2024  Y0.5359  F7     
G01 X0.2019  Y0.5357  
G01 X0.1981  Y0.5357  
G01 X0.1945  Y0.5367  
G01 X0.1913  Y0.5386  
G01 X0.1886  Y0.5413  
G01 X0.1867  Y0.5445  
G01 X0.1857  Y0.5481  
G01 X0.1857  Y0.9519  
G01 X0.1867  Y0.9555  
G01 X0.1886  Y0.9587  
G01 X0.1913  Y0.9614  
G01 X0.1945  Y0.9633  
G01 X0.1981  Y0.9642  
G01 X0.2019  Y0.9642  
G01 X0.2024  Y0.9641  
G01 X0.2430  Y1.0047  
G01 X0.2453  Y1.0070  
G01 X0.2484  Y1.0082  
G01 X0.2607  Y1.0082  
G01 X0.2607  Y1.0163  
G01 X0.2837  Y1.0392  
G01 X0.3163  Y1.0392  
G01 X0.3392  Y1.0163  
G01 X0.3392  Y0.9837  
G01 X0.3163  Y0.9607  
G01 X0.2837  Y0.9607  
G01 X0.2607  Y0.9837  
G01 X0.2607  Y0.9918  
G01 X0.2534  Y0.9918  
G01 X0.2141  Y0.9524  
G01 X0.2142  Y0.9519  
G01 X0.2142  Y0.5481  
G01 X0.2141  Y0.5476  
G01 X0.3070  Y0.4547  
G01 X0.3082  Y0.4516  
G01 X0.3082  Y0.3534  
G01 X0.3281  Y0.3336  
G01 X0.3337  Y0.3392  
G01 X0.3663  Y0.3392  
G01 X0.3892  Y0.3163  
G01 X0.3892  Y0.2837  
G01 X0.3663  Y0.2607  
G01 X0.3337  Y0.2607  
G01 X0.3108  Y0.2837  
G01 X0.3108  Y0.3163  
G01 X0.3164  Y0.3219  
G01 X0.2953  Y0.3430  
G01 X0.2930  Y0.3453  
G01 X0.2918  Y0.3484  
G01 X0.2918  Y0.4466  
G00 Z0.3000  
G00 X0.3193  Y0.4517  
G01 Z-0.0070 F5     
G01 X0.3189  Y0.4522  F7     
G01 X0.3184  Y0.4527  
G01 X0.3180  Y0.4533  
G01 X0.3176  Y0.4538  
G01 X0.3174  Y0.4545  
G01 X0.3170  Y0.4550  
G01 X0.3169  Y0.4557  
G01 X0.3150  Y0.4601  
G01 X0.2277  Y0.5474  
G01 X0.2258  Y0.5493  
G01 X0.2244  Y0.5516  
G01 X0.2237  Y0.5542  
G01 X0.2237  Y0.9458  
G01 X0.2244  Y0.9484  
G01 X0.2258  Y0.9507  
G01 X0.2449  Y0.9698  
G01 X0.2468  Y0.9717  
G01 X0.2491  Y0.9730  
G01 X0.2517  Y0.9737  
G01 X0.2544  Y0.9737  
G01 X0.2570  Y0.9730  
G01 X0.2594  Y0.9717  
G01 X0.2729  Y0.9582  
G01 X0.2748  Y0.9563  
G01 X0.2761  Y0.9540  
G01 X0.2768  Y0.9513  
G01 X0.2768  Y0.9487  
G01 X0.2761  Y0.9460  
G01 X0.2748  Y0.9437  
G01 X0.2512  Y0.9202  
G01 X0.2512  Y0.8798  
G01 X0.2798  Y0.8512  
G01 X0.3202  Y0.8512  
G01 X0.3418  Y0.8729  
G01 X0.3437  Y0.8748  
G01 X0.3460  Y0.8761  
G01 X0.3487  Y0.8768  
G01 X0.3513  Y0.8768  
G01 X0.3540  Y0.8761  
G01 X0.3563  Y0.8748  
G01 X0.3582  Y0.8729  
G01 X0.3798  Y0.8512  
G01 X0.4208  Y0.8512  
G01 X0.4234  Y0.8506  
G01 X0.4257  Y0.8492  
G01 X0.4723  Y0.8026  
G01 X0.4742  Y0.8007  
G01 X0.4756  Y0.7984  
G01 X0.4762  Y0.7958  
G01 X0.4762  Y0.4603  
G01 X0.4762  Y0.4577  
G01 X0.4756  Y0.4550  
G01 X0.4742  Y0.4527  
G01 X0.4723  Y0.4508  
G01 X0.4700  Y0.4494  
G01 X0.4673  Y0.4487  
G01 X0.4298  Y0.4487  
G01 X0.4082  Y0.4271  
G01 X0.4063  Y0.4252  
G01 X0.4040  Y0.4239  
G01 X0.4013  Y0.4232  
G01 X0.3987  Y0.4232  
G01 X0.3960  Y0.4239  
G01 X0.3937  Y0.4252  
G01 X0.3702  Y0.4487  
G01 X0.3273  Y0.4487  
G01 X0.3266  Y0.4487  
G01 X0.3259  Y0.4487  
G01 X0.3252  Y0.4487  
G01 X0.3246  Y0.4489  
G01 X0.3239  Y0.4490  
G01 X0.3233  Y0.4493  
G01 X0.3226  Y0.4494  
G01 X0.3220  Y0.4498  
G01 X0.3214  Y0.4500  
G01 X0.3209  Y0.4505  
G01 X0.3203  Y0.4508  
G01 X0.3198  Y0.4513  
G01 X0.3193  Y0.4517  
G00 Z0.3000  
G00 X0.3337  Y0.4392  
G01 Z-0.0070 F5     
G01 X0.3663  Y0.4392  F7     
G01 X0.3892  Y0.4163  
G01 X0.3892  Y0.3837  
G01 X0.3836  Y0.3781  
G01 X0.4070  Y0.3547  
G01 X0.4082  Y0.3516  
G01 X0.4082  Y0.2082  
G01 X0.4383  Y0.2082  
G01 X0.4386  Y0.2087  
G01 X0.5857  Y0.3559  
G01 X0.5857  Y0.9019  
G01 X0.5859  Y0.9024  
G01 X0.4966  Y0.9918  
G01 X0.4392  Y0.9918  
G01 X0.4392  Y0.9837  
G01 X0.4163  Y0.9607  
G01 X0.3837  Y0.9607  
G01 X0.3608  Y0.9837  
G01 X0.3608  Y1.0163  
G01 X0.3837  Y1.0392  
G01 X0.4163  Y1.0392  
G01 X0.4392  Y1.0163  
G01 X0.4392  Y1.0082  
G01 X0.5016  Y1.0082  
G01 X0.5047  Y1.0070  
G01 X0.5976  Y0.9141  
G01 X0.5981  Y0.9142  
G01 X0.6019  Y0.9142  
G01 X0.6055  Y0.9133  
G01 X0.6087  Y0.9114  
G01 X0.6114  Y0.9087  
G01 X0.6133  Y0.9055  
G01 X0.6142  Y0.9019  
G01 X0.6142  Y0.3481  
G01 X0.6133  Y0.3445  
G01 X0.6114  Y0.3413  
G01 X0.4587  Y0.1886  
G01 X0.4555  Y0.1867  
G01 X0.4519  Y0.1857  
G01 X0.4481  Y0.1857  
G01 X0.4445  Y0.1867  
G01 X0.4413  Y0.1886  
G01 X0.4386  Y0.1913  
G01 X0.4383  Y0.1918  
G01 X0.3984  Y0.1918  
G01 X0.3953  Y0.1930  
G01 X0.3930  Y0.1953  
G01 X0.3917  Y0.1984  
G01 X0.3917  Y0.3466  
G01 X0.3719  Y0.3664  
G01 X0.3663  Y0.3608  
G01 X0.3337  Y0.3608  
G01 X0.3108  Y0.3837  
G01 X0.3108  Y0.4163  
G01 X0.3337  Y0.4392  
G00 Z0.3000  
G00 X0.4337  Y0.4392  
G01 Z-0.0070 F5     
G01 X0.4663  Y0.4392  F7     
G01 X0.4719  Y0.4336  
G01 X0.4859  Y0.4476  
G01 X0.4858  Y0.4481  
G01 X0.4858  Y0.8019  
G01 X0.4859  Y0.8024  
G01 X0.4219  Y0.8664  
G01 X0.4163  Y0.8608  
G01 X0.3837  Y0.8608  
G01 X0.3608  Y0.8837  
G01 X0.3608  Y0.9163  
G01 X0.3837  Y0.9392  
G01 X0.4163  Y0.9392  
G01 X0.4392  Y0.9163  
G01 X0.4392  Y0.8837  
G01 X0.4336  Y0.8781  
G01 X0.4976  Y0.8141  
G01 X0.4981  Y0.8142  
G01 X0.5019  Y0.8142  
G01 X0.5055  Y0.8133  
G01 X0.5087  Y0.8114  
G01 X0.5114  Y0.8087  
G01 X0.5133  Y0.8055  
G01 X0.5142  Y0.8019  
G01 X0.5142  Y0.4481  
G01 X0.5133  Y0.4445  
G01 X0.5114  Y0.4413  
G01 X0.5087  Y0.4386  
G01 X0.5055  Y0.4367  
G01 X0.5019  Y0.4358  
G01 X0.4981  Y0.4358  
G01 X0.4976  Y0.4359  
G01 X0.4836  Y0.4219  
G01 X0.4892  Y0.4163  
G01 X0.4892  Y0.3837  
G01 X0.4663  Y0.3608  
G01 X0.4337  Y0.3608  
G01 X0.4108  Y0.3837  
G01 X0.4108  Y0.4163  
G01 X0.4337  Y0.4392  
G00 Z0.3000  
G00 X0.5017  Y0.4242  
G01 Z-0.0070 F5     
G01 X0.5022  Y0.4246  F7     
G01 X0.5027  Y0.4251  
G01 X0.5033  Y0.4255  
G01 X0.5038  Y0.4259  
G01 X0.5045  Y0.4261  
G01 X0.5050  Y0.4265  
G01 X0.5057  Y0.4267  
G01 X0.5115  Y0.4290  
G01 X0.5120  Y0.4294  
G01 X0.5127  Y0.4296  
G01 X0.5133  Y0.4298  
G01 X0.5140  Y0.4299  
G01 X0.5147  Y0.4301  
G01 X0.5153  Y0.4301  
G01 X0.5160  Y0.4302  
G01 X0.5167  Y0.4301  
G01 X0.5173  Y0.4301  
G01 X0.5180  Y0.4299  
G01 X0.5187  Y0.4298  
G01 X0.5193  Y0.4296  
G01 X0.5200  Y0.4294  
G01 X0.5205  Y0.4290  
G01 X0.5212  Y0.4288  
G01 X0.5217  Y0.4284  
G01 X0.5223  Y0.4280  
G01 X0.5228  Y0.4275  
G01 X0.5233  Y0.4271  
G01 X0.5237  Y0.4266  
G01 X0.5242  Y0.4261  
G01 X0.5245  Y0.4255  
G01 X0.5250  Y0.4250  
G01 X0.5252  Y0.4244  
G01 X0.5256  Y0.4238  
G01 X0.5257  Y0.4231  
G01 X0.5260  Y0.4225  
G01 X0.5261  Y0.4218  
G01 X0.5262  Y0.4212  
G01 X0.5262  Y0.4205  
G01 X0.5263  Y0.4198  
G01 X0.5262  Y0.4192  
G01 X0.5262  Y0.4042  
G01 X0.5256  Y0.4016  
G01 X0.5242  Y0.3993  
G01 X0.5153  Y0.3904  
G01 X0.5130  Y0.3890  
G01 X0.5103  Y0.3883  
G01 X0.5077  Y0.3883  
G01 X0.5050  Y0.3890  
G01 X0.5027  Y0.3904  
G01 X0.5008  Y0.3923  
G01 X0.4994  Y0.3946  
G01 X0.4987  Y0.3972  
G01 X0.4987  Y0.4163  
G01 X0.4987  Y0.4169  
G01 X0.4987  Y0.4176  
G01 X0.4987  Y0.4183  
G01 X0.4989  Y0.4189  
G01 X0.4990  Y0.4196  
G01 X0.4993  Y0.4202  
G01 X0.4994  Y0.4209  
G01 X0.4998  Y0.4215  
G01 X0.5000  Y0.4221  
G01 X0.5005  Y0.4226  
G01 X0.5008  Y0.4232  
G01 X0.5013  Y0.4237  
G01 X0.5017  Y0.4242  
G00 Z0.3000  
G00 X0.5357  Y0.3981  
G01 Z-0.0070 F5     
G01 X0.5357  Y0.9019  F7     
G01 X0.5359  Y0.9024  
G01 X0.4966  Y0.9417  
G01 X0.3534  Y0.9417  
G01 X0.3336  Y0.9219  
G01 X0.3392  Y0.9163  
G01 X0.3392  Y0.8837  
G01 X0.3163  Y0.8608  
G01 X0.2837  Y0.8608  
G01 X0.2607  Y0.8837  
G01 X0.2607  Y0.9163  
G01 X0.2837  Y0.9392  
G01 X0.3163  Y0.9392  
G01 X0.3219  Y0.9336  
G01 X0.3453  Y0.9570  
G01 X0.3484  Y0.9582  
G01 X0.5016  Y0.9582  
G01 X0.5047  Y0.9570  
G01 X0.5070  Y0.9547  
G01 X0.5476  Y0.9141  
G01 X0.5481  Y0.9142  
G01 X0.5519  Y0.9142  
G01 X0.5555  Y0.9133  
G01 X0.5587  Y0.9114  
G01 X0.5614  Y0.9087  
G01 X0.5633  Y0.9055  
G01 X0.5642  Y0.9019  
G01 X0.5642  Y0.3981  
G01 X0.5633  Y0.3945  
G01 X0.5614  Y0.3913  
G01 X0.5587  Y0.3886  
G01 X0.5555  Y0.3867  
G01 X0.5519  Y0.3857  
G01 X0.5481  Y0.3857  
G01 X0.5476  Y0.3859  
G01 X0.4836  Y0.3219  
G01 X0.4892  Y0.3163  
G01 X0.4892  Y0.2837  
G01 X0.4663  Y0.2607  
G01 X0.4337  Y0.2607  
G01 X0.4108  Y0.2837  
G01 X0.4108  Y0.3163  
G01 X0.4337  Y0.3392  
G01 X0.4663  Y0.3392  
G01 X0.4719  Y0.3336  
G01 X0.5359  Y0.3976  
G01 X0.5357  Y0.3981  
G00 Z0.3000  
G00 X0.5493  Y0.3742  
G01 Z-0.0070 F5     
G01 X0.5516  Y0.3756  F7     
G01 X0.5542  Y0.3762  
G01 X0.5547  Y0.3762  
G01 X0.5615  Y0.3790  
G01 X0.5620  Y0.3794  
G01 X0.5627  Y0.3796  
G01 X0.5633  Y0.3798  
G01 X0.5640  Y0.3799  
G01 X0.5647  Y0.3801  
G01 X0.5653  Y0.3801  
G01 X0.5660  Y0.3802  
G01 X0.5667  Y0.3801  
G01 X0.5673  Y0.3801  
G01 X0.5680  Y0.3799  
G01 X0.5687  Y0.3798  
G01 X0.5693  Y0.3796  
G01 X0.5700  Y0.3794  
G01 X0.5705  Y0.3790  
G01 X0.5712  Y0.3788  
G01 X0.5717  Y0.3784  
G01 X0.5723  Y0.3780  
G01 X0.5728  Y0.3775  
G01 X0.5733  Y0.3771  
G01 X0.5737  Y0.3766  
G01 X0.5742  Y0.3761  
G01 X0.5745  Y0.3755  
G01 X0.5750  Y0.3750  
G01 X0.5752  Y0.3744  
G01 X0.5756  Y0.3738  
G01 X0.5757  Y0.3731  
G01 X0.5760  Y0.3725  
G01 X0.5761  Y0.3718  
G01 X0.5762  Y0.3712  
G01 X0.5762  Y0.3705  
G01 X0.5763  Y0.3698  
G01 X0.5762  Y0.3692  
G01 X0.5762  Y0.3627  
G01 X0.5756  Y0.3601  
G01 X0.5742  Y0.3578  
G01 X0.5172  Y0.3008  
G01 X0.5153  Y0.2989  
G01 X0.5130  Y0.2975  
G01 X0.5103  Y0.2968  
G01 X0.5077  Y0.2968  
G01 X0.5050  Y0.2975  
G01 X0.5027  Y0.2989  
G01 X0.5008  Y0.3008  
G01 X0.4994  Y0.3031  
G01 X0.4987  Y0.3057  
G01 X0.4987  Y0.3208  
G01 X0.4994  Y0.3234  
G01 X0.5008  Y0.3257  
G01 X0.5027  Y0.3276  
G01 X0.5474  Y0.3723  
G01 X0.5493  Y0.3742  
G00 Z0.3000  
G00 X0.4511  Y0.2473  
G01 Z-0.0070 F5     
G01 X0.4525  Y0.2450  F7     
G01 X0.4532  Y0.2423  
G01 X0.4532  Y0.2397  
G01 X0.4525  Y0.2370  
G01 X0.4511  Y0.2347  
G01 X0.4362  Y0.2198  
G01 X0.4339  Y0.2184  
G01 X0.4313  Y0.2178  
G01 X0.4267  Y0.2177  
G01 X0.4240  Y0.2184  
G01 X0.4217  Y0.2198  
G01 X0.4198  Y0.2217  
G01 X0.4184  Y0.2240  
G01 X0.4177  Y0.2267  
G01 X0.4177  Y0.2423  
G01 X0.4184  Y0.2450  
G01 X0.4198  Y0.2473  
G01 X0.4217  Y0.2492  
G01 X0.4240  Y0.2506  
G01 X0.4267  Y0.2512  
G01 X0.4443  Y0.2512  
G01 X0.4469  Y0.2506  
G01 X0.4492  Y0.2492  
G01 X0.4511  Y0.2473  
G00 Z0.3000  
G00 X0.3836  Y0.5996  
G01 Z-0.0070 F5     
G01 X0.4004  Y0.6164  F7     
G01 X0.4094  Y0.6382  
G01 X0.4094  Y0.6618  
G01 X0.4004  Y0.6836  
G01 X0.3836  Y0.7004  
G01 X0.3618  Y0.7094  
G01 X0.3382  Y0.7094  
G01 X0.3164  Y0.7004  
G01 X0.2996  Y0.6836  
G01 X0.2906  Y0.6618  
G01 X0.2906  Y0.6382  
G01 X0.2996  Y0.6164  
G01 X0.3164  Y0.5996  
G01 X0.3382  Y0.5906  
G01 X0.3618  Y0.5906  
G01 X0.3836  Y0.5996  
G00 Z0.3000  
G00 X0.4508  Y0.8743  
G01 Z-0.0070 F5     
G01 X0.4494  Y0.8766  F7     
G01 X0.4487  Y0.8792  
G01 X0.4487  Y0.9233  
G01 X0.4494  Y0.9260  
G01 X0.4508  Y0.9283  
G01 X0.4527  Y0.9302  
G01 X0.4550  Y0.9316  
G01 X0.4577  Y0.9322  
G01 X0.4871  Y0.9322  
G01 X0.4898  Y0.9322  
G01 X0.4924  Y0.9316  
G01 X0.4947  Y0.9302  
G01 X0.5223  Y0.9026  
G01 X0.5242  Y0.9007  
G01 X0.5256  Y0.8984  
G01 X0.5262  Y0.8958  
G01 X0.5262  Y0.8308  
G01 X0.5263  Y0.8302  
G01 X0.5262  Y0.8295  
G01 X0.5262  Y0.8288  
G01 X0.5261  Y0.8282  
G01 X0.5260  Y0.8275  
G01 X0.5257  Y0.8269  
G01 X0.5256  Y0.8262  
G01 X0.5252  Y0.8256  
G01 X0.5250  Y0.8250  
G01 X0.5245  Y0.8245  
G01 X0.5242  Y0.8239  
G01 X0.5237  Y0.8234  
G01 X0.5233  Y0.8229  
G01 X0.5228  Y0.8225  
G01 X0.5223  Y0.8220  
G01 X0.5217  Y0.8216  
G01 X0.5212  Y0.8212  
G01 X0.5205  Y0.8210  
G01 X0.5200  Y0.8206  
G01 X0.5193  Y0.8204  
G01 X0.5187  Y0.8202  
G01 X0.5180  Y0.8201  
G01 X0.5173  Y0.8199  
G01 X0.5167  Y0.8199  
G01 X0.5160  Y0.8198  
G01 X0.5153  Y0.8199  
G01 X0.5147  Y0.8199  
G01 X0.5140  Y0.8201  
G01 X0.5133  Y0.8202  
G01 X0.5127  Y0.8204  
G01 X0.5120  Y0.8206  
G01 X0.5115  Y0.8210  
G01 X0.5047  Y0.8237  
G01 X0.5042  Y0.8237  
G01 X0.5016  Y0.8244  
G01 X0.4993  Y0.8258  
G01 X0.4974  Y0.8277  
G01 X0.4527  Y0.8724  
G01 X0.4508  Y0.8743  
G00 Z0.3000  
G00 X0.4508  Y1.0923  
G01 Z-0.0070 F5     
G01 X0.4494  Y1.0946  F7     
G01 X0.4487  Y1.0972  
G01 X0.4487  Y1.1202  
G01 X0.4277  Y1.1412  
G01 X0.4258  Y1.1431  
G01 X0.4244  Y1.1455  
G01 X0.4237  Y1.1481  
G01 X0.4237  Y1.1547  
G01 X0.4201  Y1.1635  
G01 X0.3758  Y1.2078  
G01 X0.3739  Y1.2097  
G01 X0.3725  Y1.2120  
G01 X0.3718  Y1.2147  
G01 X0.3718  Y1.2173  
G01 X0.3725  Y1.2200  
G01 X0.3739  Y1.2223  
G01 X0.3758  Y1.2242  
G01 X0.3781  Y1.2256  
G01 X0.3807  Y1.2262  
G01 X0.3873  Y1.2262  
G01 X0.3899  Y1.2256  
G01 X0.3922  Y1.2242  
G01 X0.4742  Y1.1422  
G01 X0.4756  Y1.1399  
G01 X0.4762  Y1.1373  
G01 X0.4762  Y1.1042  
G01 X0.4761  Y1.1036  
G01 X0.4756  Y1.1016  
G01 X0.4742  Y1.0993  
G01 X0.4653  Y1.0904  
G01 X0.4630  Y1.0890  
G01 X0.4603  Y1.0883  
G01 X0.4577  Y1.0883  
G01 X0.4569  Y1.0885  
G01 X0.4550  Y1.0890  
G01 X0.4527  Y1.0904  
G01 X0.4508  Y1.0923  
G00 Z0.3000  
G00 X0.3563  Y1.1252  
G01 Z-0.0070 F5     
G01 X0.3540  Y1.1239  F7     
G01 X0.3513  Y1.1232  
G01 X0.3487  Y1.1232  
G01 X0.3460  Y1.1239  
G01 X0.3437  Y1.1252  
G01 X0.3276  Y1.1413  
G01 X0.3097  Y1.1487  
G01 X0.2903  Y1.1487  
G01 X0.2724  Y1.1413  
G01 X0.2587  Y1.1276  
G01 X0.2512  Y1.1097  
G01 X0.2512  Y1.0903  
G01 X0.2587  Y1.0724  
G01 X0.2729  Y1.0582  
G01 X0.2748  Y1.0563  
G01 X0.2761  Y1.0540  
G01 X0.2768  Y1.0513  
G01 X0.2768  Y1.0487  
G01 X0.2761  Y1.0460  
G01 X0.2748  Y1.0437  
G01 X0.2729  Y1.0418  
G01 X0.2528  Y1.0217  
G01 X0.2509  Y1.0198  
G01 X0.2497  Y1.0192  
G01 X0.2496  Y1.0190  
G01 X0.2494  Y1.0190  
G01 X0.2485  Y1.0184  
G01 X0.2475  Y1.0182  
G01 X0.2399  Y1.0150  
G01 X0.2345  Y1.0096  
G01 X0.2026  Y0.9777  
G01 X0.2007  Y0.9758  
G01 X0.1984  Y0.9744  
G01 X0.1958  Y0.9737  
G01 X0.1953  Y0.9737  
G01 X0.1885  Y0.9710  
G01 X0.1880  Y0.9706  
G01 X0.1873  Y0.9704  
G01 X0.1867  Y0.9702  
G01 X0.1860  Y0.9701  
G01 X0.1853  Y0.9699  
G01 X0.1847  Y0.9699  
G01 X0.1840  Y0.9698  
G01 X0.1833  Y0.9699  
G01 X0.1827  Y0.9699  
G01 X0.1820  Y0.9701  
G01 X0.1813  Y0.9702  
G01 X0.1807  Y0.9704  
G01 X0.1800  Y0.9706  
G01 X0.1795  Y0.9710  
G01 X0.1788  Y0.9712  
G01 X0.1783  Y0.9716  
G01 X0.1777  Y0.9720  
G01 X0.1772  Y0.9725  
G01 X0.1767  Y0.9729  
G01 X0.1763  Y0.9734  
G01 X0.1758  Y0.9739  
G01 X0.1755  Y0.9745  
G01 X0.1750  Y0.9750  
G01 X0.1748  Y0.9756  
G01 X0.1744  Y0.9762  
G01 X0.1743  Y0.9769  
G01 X0.1740  Y0.9775  
G01 X0.1739  Y0.9782  
G01 X0.1737  Y0.9788  
G01 X0.1737  Y0.9795  
G01 X0.1737  Y0.9802  
G01 X0.1737  Y0.9808  
G01 X0.1737  Y1.1373  
G01 X0.1744  Y1.1399  
G01 X0.1758  Y1.1422  
G01 X0.2059  Y1.1723  
G01 X0.2078  Y1.1742  
G01 X0.2101  Y1.1756  
G01 X0.2127  Y1.1762  
G01 X0.3373  Y1.1762  
G01 X0.3399  Y1.1756  
G01 X0.3422  Y1.1742  
G01 X0.3655  Y1.1509  
G01 X0.3674  Y1.1490  
G01 X0.3688  Y1.1466  
G01 X0.3695  Y1.1440  
G01 X0.3695  Y1.1413  
G01 X0.3688  Y1.1387  
G01 X0.3674  Y1.1364  
G01 X0.3582  Y1.1271  
G01 X0.3563  Y1.1252  
G00 Z0.3000  
G00 X0.1403  Y1.1739  
G01 Z-0.0070 F5     
G01 X0.1380  Y1.1725  F7     
G01 X0.1353  Y1.1718  
G01 X0.1327  Y1.1718  
G01 X0.1300  Y1.1725  
G01 X0.1277  Y1.1739  
G01 X0.1258  Y1.1758  
G01 X0.1244  Y1.1781  
G01 X0.1237  Y1.1807  
G01 X0.1237  Y1.1846  
G01 X0.1237  Y1.1873  
G01 X0.1244  Y1.1899  
G01 X0.1258  Y1.1922  
G01 X0.1578  Y1.2242  
G01 X0.1601  Y1.2256  
G01 X0.1627  Y1.2262  
G01 X0.1693  Y1.2262  
G01 X0.1719  Y1.2256  
G01 X0.1742  Y1.2242  
G01 X0.1761  Y1.2223  
G01 X0.1775  Y1.2200  
G01 X0.1782  Y1.2173  
G01 X0.1782  Y1.2147  
G01 X0.1775  Y1.2120  
G01 X0.1761  Y1.2097  
G01 X0.1422  Y1.1758  
G01 X0.1403  Y1.1739  
G00 Z0.3000  
G00 X0.0378  Y0.0406  
G01 Z-0.0070 F5     
G01 X0.0358  Y0.0441  F7     
G01 X0.0348  Y0.0480  
G01 X0.0348  Y0.0520  
G01 X0.0347  Y1.3370  
G01 X0.0347  Y1.3410  
G01 X0.0358  Y1.3449  
G01 X0.0378  Y1.3484  
G01 X0.0406  Y1.3512  
G01 X0.0441  Y1.3532  
G01 X0.0480  Y1.3543  
G01 X0.6520  Y1.3543  
G01 X0.6559  Y1.3532  
G01 X0.6594  Y1.3512  
G01 X0.6622  Y1.3484  
G01 X0.6642  Y1.3449  
G01 X0.6652  Y1.3410  
G01 X0.6652  Y0.0520  
G01 X0.6652  Y0.0480  
G01 X0.6642  Y0.0441  
G01 X0.6622  Y0.0406  
G01 X0.6594  Y0.0378  
G01 X0.6559  Y0.0358  
G01 X0.6520  Y0.0348  
G01 X0.0480  Y0.0348  
G01 X0.0441  Y0.0358  
G01 X0.0406  Y0.0378  
G01 X0.0378  Y0.0406  
G00 Z0.3000  
G00 X0.2252  Y0.2629  
G01 Z-0.0070 F5     
G01 X0.2265  Y0.2624  F7     
G01 X0.2238  Y0.2644  
G01 X0.2252  Y0.2629  
G00 Z0.3000  
G00 X0.2400  Y0.2568  
G01 Z-0.0070 F5     
G01 X0.2413  Y0.2562  F7     
G01 X0.2434  Y0.2562  
G01 X0.2400  Y0.2568  
G00 Z0.3000  
G00 X0.2566  Y0.2562  
G01 Z-0.0070 F5     
G01 X0.2587  Y0.2562  F7     
G01 X0.2600  Y0.2568  
G01 X0.2566  Y0.2562  
G00 Z0.3000  
G00 X0.2735  Y0.2624  
G01 Z-0.0070 F5     
G01 X0.2748  Y0.2629  F7     
G01 X0.2762  Y0.2644  
G01 X0.2735  Y0.2624  
G00 Z0.3000  
G00 X0.2856  Y0.2738  
G01 Z-0.0070 F5     
G01 X0.2878  Y0.2759  F7     
G01 X0.2906  Y0.2788  
G01 X0.2922  Y0.2796  
G01 X0.2941  Y0.2808  
G01 X0.2980  Y0.2818  
G01 X0.3020  Y0.2818  
G01 X0.3059  Y0.2808  
G01 X0.3077  Y0.2797  
G01 X0.3058  Y0.2817  
G01 X0.3058  Y0.3183  
G01 X0.3093  Y0.3219  
G01 X0.2919  Y0.3394  
G01 X0.2894  Y0.3419  
G01 X0.2877  Y0.3449  
G01 X0.2868  Y0.3483  
G01 X0.2868  Y0.3742  
G01 X0.2683  Y0.3558  
G01 X0.2317  Y0.3558  
G01 X0.2057  Y0.3817  
G01 X0.2057  Y0.3947  
G01 X0.2052  Y0.3927  
G01 X0.2032  Y0.3892  
G01 X0.2004  Y0.3864  
G01 X0.1969  Y0.3844  
G01 X0.1930  Y0.3833  
G01 X0.1890  Y0.3833  
G01 X0.1851  Y0.3844  
G01 X0.1833  Y0.3854  
G01 X0.2295  Y0.3392  
G01 X0.2330  Y0.3410  
G01 X0.2396  Y0.3432  
G01 X0.2465  Y0.3442  
G01 X0.2535  Y0.3442  
G01 X0.2604  Y0.3432  
G01 X0.2670  Y0.3410  
G01 X0.2732  Y0.3378  
G01 X0.2788  Y0.3338  
G01 X0.2838  Y0.3288  
G01 X0.2878  Y0.3232  
G01 X0.2910  Y0.3170  
G01 X0.2932  Y0.3104  
G01 X0.2942  Y0.3035  
G01 X0.2942  Y0.2965  
G01 X0.2932  Y0.2896  
G01 X0.2910  Y0.2830  
G01 X0.2878  Y0.2768  
G01 X0.2856  Y0.2738  
G00 Z0.3000  
G00 X0.2144  Y0.2738  
G01 Z-0.0070 F5     
G01 X0.2124  Y0.2765  F7     
G01 X0.2129  Y0.2752  
G01 X0.2144  Y0.2738  
G00 Z0.3000  
G00 X0.2068  Y0.2900  
G01 Z-0.0070 F5     
G01 X0.2062  Y0.2934  F7     
G01 X0.2062  Y0.2913  
G01 X0.2068  Y0.2900  
G00 Z0.3000  
G00 X0.2062  Y0.3066  
G01 Z-0.0070 F5     
G01 X0.2068  Y0.3100  F7     
G01 X0.2062  Y0.3087  
G01 X0.2062  Y0.3066  
G00 Z0.3000  
G00 X0.2085  Y0.3155  
G01 Z-0.0070 F5     
G01 X0.2090  Y0.3170  F7     
G01 X0.2108  Y0.3205  
G01 X0.2067  Y0.3246  
G01 X0.2070  Y0.3239  
G01 X0.2075  Y0.3230  
G01 X0.2077  Y0.3221  
G01 X0.2081  Y0.3211  
G01 X0.2082  Y0.3201  
G01 X0.2085  Y0.3192  
G01 X0.2085  Y0.3182  
G01 X0.2086  Y0.3172  
G01 X0.2085  Y0.3162  
G01 X0.2085  Y0.3155  
G00 Z0.3000  
G00 X0.2062  Y0.4188  
G01 Z-0.0070 F5     
G01 X0.2093  Y0.4219  F7     
G01 X0.2042  Y0.4271  
G01 X0.2052  Y0.4253  
G01 X0.2062  Y0.4214  
G01 X0.2062  Y0.4188  
G00 Z0.3000  
G00 X0.2281  Y0.4407  
G01 Z-0.0070 F5     
G01 X0.2312  Y0.4437  F7     
G01 X0.2286  Y0.4437  
G01 X0.2247  Y0.4448  
G01 X0.2229  Y0.4458  
G01 X0.2281  Y0.4407  
G00 Z0.3000  
G00 X0.2553  Y0.4442  
G01 Z-0.0070 F5     
G01 X0.2683  Y0.4442  F7     
G01 X0.2868  Y0.4258  
G01 X0.2868  Y0.4445  
G01 X0.2646  Y0.4667  
G01 X0.2656  Y0.4649  
G01 X0.2657  Y0.4647  
G01 X0.2667  Y0.4610  
G01 X0.2667  Y0.4570  
G01 X0.2656  Y0.4531  
G01 X0.2636  Y0.4496  
G01 X0.2608  Y0.4468  
G01 X0.2573  Y0.4448  
G01 X0.2571  Y0.4447  
G01 X0.2553  Y0.4442  
G00 Z0.3000  
G00 X0.3157  Y0.4481  
G01 Z-0.0070 F5     
G01 X0.3151  Y0.4489  F7     
G01 X0.3144  Y0.4496  
G01 X0.3139  Y0.4505  
G01 X0.3133  Y0.4513  
G01 X0.3132  Y0.4258  
G01 X0.3312  Y0.4437  
G01 X0.3276  Y0.4437  
G01 X0.3266  Y0.4436  
G01 X0.3256  Y0.4437  
G01 X0.3246  Y0.4437  
G01 X0.3236  Y0.4440  
G01 X0.3226  Y0.4441  
G01 X0.3217  Y0.4445  
G01 X0.3207  Y0.4448  
G01 X0.3198  Y0.4453  
G01 X0.3189  Y0.4457  
G01 X0.3181  Y0.4463  
G01 X0.3172  Y0.4468  
G01 X0.3165  Y0.4475  
G01 X0.3157  Y0.4481  
G00 Z0.3000  
G00 X0.3132  Y0.3742  
G01 Z-0.0070 F5     
G01 X0.3132  Y0.3555  F7     
G01 X0.3281  Y0.3407  
G01 X0.3317  Y0.3442  
G01 X0.3683  Y0.3442  
G01 X0.3867  Y0.3258  
G01 X0.3867  Y0.3445  
G01 X0.3719  Y0.3593  
G01 X0.3683  Y0.3558  
G01 X0.3317  Y0.3558  
G01 X0.3132  Y0.3742  
G00 Z0.3000  
G00 X0.3907  Y0.3781  
G01 Z-0.0070 F5     
G01 X0.4106  Y0.3581  F7     
G01 X0.4123  Y0.3551  
G01 X0.4132  Y0.3517  
G01 X0.4132  Y0.3258  
G01 X0.4317  Y0.3442  
G01 X0.4683  Y0.3442  
G01 X0.4719  Y0.3407  
G01 X0.5167  Y0.3854  
G01 X0.5149  Y0.3844  
G01 X0.5110  Y0.3833  
G01 X0.5070  Y0.3833  
G01 X0.5031  Y0.3844  
G01 X0.4996  Y0.3864  
G01 X0.4968  Y0.3892  
G01 X0.4948  Y0.3927  
G01 X0.4942  Y0.3947  
G01 X0.4942  Y0.3817  
G01 X0.4683  Y0.3558  
G01 X0.4317  Y0.3558  
G01 X0.4057  Y0.3817  
G01 X0.4057  Y0.4183  
G01 X0.4077  Y0.4203  
G01 X0.4059  Y0.4192  
G01 X0.4020  Y0.4182  
G01 X0.3980  Y0.4182  
G01 X0.3941  Y0.4192  
G01 X0.3923  Y0.4203  
G01 X0.3942  Y0.4183  
G01 X0.3942  Y0.3817  
G01 X0.3907  Y0.3781  
G00 Z0.3000  
G00 X0.3867  Y0.2742  
G01 Z-0.0070 F5     
G01 X0.3688  Y0.2562  F7     
G01 X0.3740  Y0.2562  
G01 X0.3779  Y0.2552  
G01 X0.3814  Y0.2532  
G01 X0.3842  Y0.2504  
G01 X0.3862  Y0.2469  
G01 X0.3867  Y0.2449  
G01 X0.3867  Y0.2742  
G00 Z0.3000  
G00 X0.4132  Y0.2742  
G01 Z-0.0070 F5     
G01 X0.4132  Y0.2449  F7     
G01 X0.4138  Y0.2469  
G01 X0.4158  Y0.2504  
G01 X0.4186  Y0.2532  
G01 X0.4221  Y0.2552  
G01 X0.4260  Y0.2562  
G01 X0.4312  Y0.2562  
G01 X0.4132  Y0.2742  
G00 Z0.3000  
G00 X0.4132  Y0.2241  
G01 Z-0.0070 F5     
G01 X0.4132  Y0.2132  F7     
G01 X0.4241  Y0.2132  
G01 X0.4221  Y0.2138  
G01 X0.4186  Y0.2158  
G01 X0.4158  Y0.2186  
G01 X0.4138  Y0.2221  
G01 X0.4132  Y0.2241  
G00 Z0.3000  
G00 X0.4338  Y0.2132  
G01 Z-0.0070 F5     
G01 X0.4360  Y0.2132  F7     
G01 X0.4376  Y0.2148  
G01 X0.4359  Y0.2138  
G01 X0.4358  Y0.2138  
G01 X0.4338  Y0.2132  
G00 Z0.3000  
G00 X0.4338  Y0.1867  
G01 Z-0.0070 F5     
G01 X0.4358  Y0.1862  F7     
G01 X0.4376  Y0.1852  
G01 X0.4360  Y0.1867  
G01 X0.4338  Y0.1867  
G00 Z0.3000  
G00 X0.4561  Y0.2333  
G01 Z-0.0070 F5     
G01 X0.5167  Y0.2939  F7     
G01 X0.5149  Y0.2929  
G01 X0.5147  Y0.2928  
G01 X0.5110  Y0.2918  
G01 X0.5070  Y0.2918  
G01 X0.5031  Y0.2929  
G01 X0.4996  Y0.2949  
G01 X0.4968  Y0.2977  
G01 X0.4948  Y0.3012  
G01 X0.4947  Y0.3014  
G01 X0.4942  Y0.3032  
G01 X0.4942  Y0.2817  
G01 X0.4683  Y0.2557  
G01 X0.4468  Y0.2557  
G01 X0.4488  Y0.2552  
G01 X0.4523  Y0.2532  
G01 X0.4551  Y0.2504  
G01 X0.4571  Y0.2469  
G01 X0.4582  Y0.2430  
G01 X0.4582  Y0.2390  
G01 X0.4571  Y0.2351  
G01 X0.4561  Y0.2333  
G00 Z0.3000  
G00 X0.4907  Y0.3219  
G01 Z-0.0070 F5     
G01 X0.4937  Y0.3188  F7     
G01 X0.4937  Y0.3214  
G01 X0.4948  Y0.3253  
G01 X0.4958  Y0.3271  
G01 X0.4907  Y0.3219  
G00 Z0.3000  
G00 X0.4907  Y0.4219  
G01 Z-0.0070 F5     
G01 X0.4937  Y0.4188  F7     
G01 X0.4937  Y0.4189  
G01 X0.4940  Y0.4199  
G01 X0.4941  Y0.4209  
G01 X0.4945  Y0.4218  
G01 X0.4948  Y0.4228  
G01 X0.4953  Y0.4237  
G01 X0.4957  Y0.4246  
G01 X0.4963  Y0.4254  
G01 X0.4968  Y0.4263  
G01 X0.4975  Y0.4270  
G01 X0.4981  Y0.4278  
G01 X0.4989  Y0.4284  
G01 X0.4996  Y0.4291  
G01 X0.5005  Y0.4296  
G01 X0.5013  Y0.4302  
G01 X0.5022  Y0.4306  
G01 X0.5024  Y0.4308  
G01 X0.4995  Y0.4308  
G01 X0.4907  Y0.4219  
G00 Z0.3000  
G00 X0.5118  Y0.4346  
G01 Z-0.0070 F5     
G01 X0.5120  Y0.4347  F7     
G01 X0.5130  Y0.4348  
G01 X0.5140  Y0.4351  
G01 X0.5150  Y0.4351  
G01 X0.5160  Y0.4352  
G01 X0.5170  Y0.4351  
G01 X0.5180  Y0.4351  
G01 X0.5190  Y0.4348  
G01 X0.5200  Y0.4347  
G01 X0.5209  Y0.4343  
G01 X0.5219  Y0.4340  
G01 X0.5228  Y0.4335  
G01 X0.5237  Y0.4331  
G01 X0.5245  Y0.4325  
G01 X0.5254  Y0.4320  
G01 X0.5261  Y0.4313  
G01 X0.5269  Y0.4307  
G01 X0.5275  Y0.4299  
G01 X0.5282  Y0.4292  
G01 X0.5287  Y0.4283  
G01 X0.5293  Y0.4275  
G01 X0.5297  Y0.4266  
G01 X0.5302  Y0.4257  
G01 X0.5305  Y0.4247  
G01 X0.5308  Y0.4241  
G01 X0.5308  Y0.8259  
G01 X0.5305  Y0.8253  
G01 X0.5302  Y0.8243  
G01 X0.5297  Y0.8234  
G01 X0.5293  Y0.8225  
G01 X0.5287  Y0.8217  
G01 X0.5282  Y0.8208  
G01 X0.5275  Y0.8201  
G01 X0.5269  Y0.8193  
G01 X0.5261  Y0.8187  
G01 X0.5254  Y0.8180  
G01 X0.5245  Y0.8175  
G01 X0.5237  Y0.8169  
G01 X0.5228  Y0.8165  
G01 X0.5219  Y0.8160  
G01 X0.5209  Y0.8157  
G01 X0.5200  Y0.8153  
G01 X0.5190  Y0.8152  
G01 X0.5180  Y0.8149  
G01 X0.5170  Y0.8149  
G01 X0.5160  Y0.8148  
G01 X0.5150  Y0.8149  
G01 X0.5140  Y0.8149  
G01 X0.5130  Y0.8152  
G01 X0.5120  Y0.8153  
G01 X0.5118  Y0.8154  
G01 X0.5154  Y0.8118  
G01 X0.5179  Y0.8074  
G01 X0.5192  Y0.8025  
G01 X0.5192  Y0.4475  
G01 X0.5179  Y0.4426  
G01 X0.5154  Y0.4382  
G01 X0.5118  Y0.4346  
G00 Z0.3000  
G00 X0.4719  Y0.4407  
G01 Z-0.0070 F5     
G01 X0.4808  Y0.4495  F7     
G01 X0.4808  Y0.4551  
G01 X0.4802  Y0.4531  
G01 X0.4782  Y0.4496  
G01 X0.4754  Y0.4468  
G01 X0.4719  Y0.4448  
G01 X0.4687  Y0.4439  
G01 X0.4719  Y0.4407  
G00 Z0.3000  
G00 X0.5308  Y0.4017  
G01 Z-0.0070 F5     
G01 X0.5302  Y0.3997  F7     
G01 X0.5292  Y0.3979  
G01 X0.5308  Y0.3995  
G01 X0.5308  Y0.4017  
G00 Z0.3000  
G00 X0.5479  Y0.3792  
G01 Z-0.0070 F5     
G01 X0.5497  Y0.3802  F7     
G01 X0.5517  Y0.3807  
G01 X0.5495  Y0.3807  
G01 X0.5479  Y0.3792  
G00 Z0.3000  
G00 X0.5618  Y0.3846  
G01 Z-0.0070 F5     
G01 X0.5620  Y0.3847  F7     
G01 X0.5630  Y0.3848  
G01 X0.5640  Y0.3851  
G01 X0.5650  Y0.3851  
G01 X0.5660  Y0.3852  
G01 X0.5670  Y0.3851  
G01 X0.5680  Y0.3851  
G01 X0.5690  Y0.3848  
G01 X0.5700  Y0.3847  
G01 X0.5709  Y0.3843  
G01 X0.5719  Y0.3840  
G01 X0.5728  Y0.3835  
G01 X0.5737  Y0.3831  
G01 X0.5745  Y0.3825  
G01 X0.5754  Y0.3820  
G01 X0.5761  Y0.3813  
G01 X0.5769  Y0.3807  
G01 X0.5775  Y0.3799  
G01 X0.5782  Y0.3792  
G01 X0.5787  Y0.3783  
G01 X0.5793  Y0.3775  
G01 X0.5797  Y0.3766  
G01 X0.5802  Y0.3757  
G01 X0.5805  Y0.3747  
G01 X0.5807  Y0.3741  
G01 X0.5807  Y0.9005  
G01 X0.4945  Y0.9868  
G01 X0.4442  Y0.9868  
G01 X0.4442  Y0.9817  
G01 X0.4258  Y0.9632  
G01 X0.5017  Y0.9632  
G01 X0.5051  Y0.9623  
G01 X0.5081  Y0.9606  
G01 X0.5106  Y0.9581  
G01 X0.5495  Y0.9192  
G01 X0.5525  Y0.9192  
G01 X0.5574  Y0.9179  
G01 X0.5618  Y0.9154  
G01 X0.5654  Y0.9118  
G01 X0.5679  Y0.9074  
G01 X0.5692  Y0.9025  
G01 X0.5692  Y0.3975  
G01 X0.5679  Y0.3926  
G01 X0.5654  Y0.3882  
G01 X0.5618  Y0.3846  
G00 Z0.3000  
G00 X0.5807  Y0.3602  
G01 Z-0.0070 F5     
G01 X0.5802  Y0.3582  F7     
G01 X0.5792  Y0.3564  
G01 X0.5807  Y0.3580  
G01 X0.5807  Y0.3602  
G00 Z0.3000  
G00 X0.3808  Y0.6039  
G01 Z-0.0070 F5     
G01 X0.3961  Y0.6192  F7     
G01 X0.4044  Y0.6392  
G01 X0.4044  Y0.6608  
G01 X0.3961  Y0.6808  
G01 X0.3808  Y0.6961  
G01 X0.3608  Y0.7044  
G01 X0.3392  Y0.7044  
G01 X0.3192  Y0.6961  
G01 X0.3039  Y0.6808  
G01 X0.2956  Y0.6608  
G01 X0.2956  Y0.6392  
G01 X0.3039  Y0.6192  
G01 X0.3192  Y0.6039  
G01 X0.3392  Y0.5956  
G01 X0.3608  Y0.5956  
G01 X0.3808  Y0.6039  
G00 Z0.3000  
G00 X0.2192  Y0.5517  
G01 Z-0.0070 F5     
G01 X0.2192  Y0.5495  F7     
G01 X0.2208  Y0.5479  
G01 X0.2198  Y0.5497  
G01 X0.2192  Y0.5517  
G00 Z0.3000  
G00 X0.2021  Y0.5292  
G01 Z-0.0070 F5     
G01 X0.2005  Y0.5308  F7     
G01 X0.1983  Y0.5308  
G01 X0.2003  Y0.5302  
G01 X0.2021  Y0.5292  
G00 Z0.3000  
G00 X0.1882  Y0.5346  
G01 Z-0.0070 F5     
G01 X0.1846  Y0.5382  F7     
G01 X0.1821  Y0.5426  
G01 X0.1807  Y0.5475  
G01 X0.1807  Y0.9525  
G01 X0.1821  Y0.9574  
G01 X0.1846  Y0.9618  
G01 X0.1882  Y0.9654  
G01 X0.1880  Y0.9653  
G01 X0.1870  Y0.9652  
G01 X0.1860  Y0.9649  
G01 X0.1850  Y0.9649  
G01 X0.1840  Y0.9648  
G01 X0.1830  Y0.9649  
G01 X0.1820  Y0.9649  
G01 X0.1810  Y0.9652  
G01 X0.1800  Y0.9653  
G01 X0.1791  Y0.9657  
G01 X0.1781  Y0.9660  
G01 X0.1772  Y0.9665  
G01 X0.1763  Y0.9669  
G01 X0.1755  Y0.9675  
G01 X0.1746  Y0.9680  
G01 X0.1739  Y0.9687  
G01 X0.1731  Y0.9693  
G01 X0.1725  Y0.9701  
G01 X0.1718  Y0.9708  
G01 X0.1713  Y0.9717  
G01 X0.1707  Y0.9725  
G01 X0.1703  Y0.9734  
G01 X0.1698  Y0.9743  
G01 X0.1695  Y0.9753  
G01 X0.1692  Y0.9759  
G01 X0.1692  Y0.5241  
G01 X0.1695  Y0.5247  
G01 X0.1698  Y0.5257  
G01 X0.1703  Y0.5266  
G01 X0.1707  Y0.5275  
G01 X0.1713  Y0.5283  
G01 X0.1718  Y0.5292  
G01 X0.1725  Y0.5299  
G01 X0.1731  Y0.5307  
G01 X0.1739  Y0.5313  
G01 X0.1746  Y0.5320  
G01 X0.1755  Y0.5325  
G01 X0.1763  Y0.5331  
G01 X0.1772  Y0.5335  
G01 X0.1781  Y0.5340  
G01 X0.1791  Y0.5343  
G01 X0.1800  Y0.5347  
G01 X0.1810  Y0.5348  
G01 X0.1820  Y0.5351  
G01 X0.1830  Y0.5351  
G01 X0.1840  Y0.5352  
G01 X0.1850  Y0.5351  
G01 X0.1860  Y0.5351  
G01 X0.1870  Y0.5348  
G01 X0.1880  Y0.5347  
G01 X0.1882  Y0.5346  
G00 Z0.3000  
G00 X0.1692  Y0.5017  
G01 Z-0.0070 F5     
G01 X0.1692  Y0.4995  F7     
G01 X0.1708  Y0.4979  
G01 X0.1698  Y0.4997  
G01 X0.1692  Y0.5017  
G00 Z0.3000  
G00 X0.1521  Y0.4792  
G01 Z-0.0070 F5     
G01 X0.1505  Y0.4808  F7     
G01 X0.1483  Y0.4808  
G01 X0.1503  Y0.4802  
G01 X0.1521  Y0.4792  
G00 Z0.3000  
G00 X0.1382  Y0.4846  
G01 Z-0.0070 F5     
G01 X0.1346  Y0.4882  F7     
G01 X0.1321  Y0.4926  
G01 X0.1308  Y0.4975  
G01 X0.1308  Y1.1525  
G01 X0.1321  Y1.1574  
G01 X0.1346  Y1.1618  
G01 X0.1417  Y1.1689  
G01 X0.1399  Y1.1679  
G01 X0.1360  Y1.1668  
G01 X0.1320  Y1.1668  
G01 X0.1281  Y1.1679  
G01 X0.1246  Y1.1699  
G01 X0.1218  Y1.1727  
G01 X0.1198  Y1.1762  
G01 X0.1192  Y1.1782  
G01 X0.1192  Y0.4741  
G01 X0.1195  Y0.4747  
G01 X0.1198  Y0.4757  
G01 X0.1203  Y0.4766  
G01 X0.1207  Y0.4775  
G01 X0.1213  Y0.4783  
G01 X0.1218  Y0.4792  
G01 X0.1225  Y0.4799  
G01 X0.1231  Y0.4807  
G01 X0.1239  Y0.4813  
G01 X0.1246  Y0.4820  
G01 X0.1255  Y0.4825  
G01 X0.1263  Y0.4831  
G01 X0.1272  Y0.4835  
G01 X0.1281  Y0.4840  
G01 X0.1291  Y0.4843  
G01 X0.1300  Y0.4847  
G01 X0.1310  Y0.4848  
G01 X0.1320  Y0.4851  
G01 X0.1330  Y0.4851  
G01 X0.1340  Y0.4852  
G01 X0.1350  Y0.4851  
G01 X0.1360  Y0.4851  
G01 X0.1370  Y0.4848  
G01 X0.1380  Y0.4847  
G01 X0.1382  Y0.4846  
G00 Z0.3000  
G00 X0.1192  Y0.4517  
G01 Z-0.0070 F5     
G01 X0.1192  Y0.4495  F7     
G01 X0.1208  Y0.4479  
G01 X0.1198  Y0.4497  
G01 X0.1192  Y0.4517  
G00 Z0.3000  
G00 X0.1021  Y0.4292  
G01 Z-0.0070 F5     
G01 X0.1005  Y0.4308  F7     
G01 X0.0983  Y0.4308  
G01 X0.1003  Y0.4302  
G01 X0.1021  Y0.4292  
G00 Z0.3000  
G00 X0.2192  Y0.9483  
G01 Z-0.0070 F5     
G01 X0.2198  Y0.9503  F7     
G01 X0.2208  Y0.9521  
G01 X0.2192  Y0.9505  
G01 X0.2192  Y0.9483  
G00 Z0.3000  
G00 X0.2005  Y0.9692  
G01 Z-0.0070 F5     
G01 X0.2021  Y0.9708  F7     
G01 X0.2003  Y0.9698  
G01 X0.1983  Y0.9692  
G01 X0.2005  Y0.9692  
G00 Z0.3000  
G00 X0.2454  Y0.9767  
G01 Z-0.0070 F5     
G01 X0.2472  Y0.9777  F7     
G01 X0.2511  Y0.9787  
G01 X0.2551  Y0.9787  
G01 X0.2590  Y0.9777  
G01 X0.2608  Y0.9767  
G01 X0.2557  Y0.9817  
G01 X0.2557  Y0.9868  
G01 X0.2555  Y0.9868  
G01 X0.2454  Y0.9767  
G00 Z0.3000  
G00 X0.2487  Y1.0132  
G01 Z-0.0070 F5     
G01 X0.2557  Y1.0132  F7     
G01 X0.2557  Y1.0176  
G01 X0.2555  Y1.0174  
G01 X0.2553  Y1.0171  
G01 X0.2551  Y1.0169  
G01 X0.2539  Y1.0158  
G01 X0.2525  Y1.0150  
G01 X0.2521  Y1.0147  
G01 X0.2517  Y1.0145  
G01 X0.2504  Y1.0138  
G01 X0.2491  Y1.0134  
G01 X0.2487  Y1.0132  
G00 Z0.3000  
G00 X0.2797  Y1.0423  
G01 Z-0.0070 F5     
G01 X0.2817  Y1.0442  F7     
G01 X0.3183  Y1.0442  
G01 X0.3442  Y1.0183  
G01 X0.3442  Y0.9817  
G01 X0.3183  Y0.9557  
G01 X0.2817  Y0.9557  
G01 X0.2797  Y0.9577  
G01 X0.2808  Y0.9559  
G01 X0.2818  Y0.9520  
G01 X0.2818  Y0.9480  
G01 X0.2808  Y0.9441  
G01 X0.2797  Y0.9423  
G01 X0.2817  Y0.9442  
G01 X0.3183  Y0.9442  
G01 X0.3219  Y0.9407  
G01 X0.3419  Y0.9606  
G01 X0.3449  Y0.9623  
G01 X0.3483  Y0.9632  
G01 X0.3742  Y0.9632  
G01 X0.3558  Y0.9817  
G01 X0.3558  Y1.0183  
G01 X0.3742  Y1.0368  
G01 X0.3483  Y1.0368  
G01 X0.3449  Y1.0377  
G01 X0.3419  Y1.0394  
G01 X0.3394  Y1.0419  
G01 X0.3205  Y1.0608  
G01 X0.3170  Y1.0590  
G01 X0.3104  Y1.0568  
G01 X0.3035  Y1.0557  
G01 X0.2965  Y1.0557  
G01 X0.2896  Y1.0568  
G01 X0.2830  Y1.0590  
G01 X0.2768  Y1.0622  
G01 X0.2738  Y1.0644  
G01 X0.2759  Y1.0622  
G01 X0.2788  Y1.0594  
G01 X0.2808  Y1.0559  
G01 X0.2818  Y1.0520  
G01 X0.2818  Y1.0480  
G01 X0.2808  Y1.0441  
G01 X0.2807  Y1.0440  
G01 X0.2797  Y1.0423  
G00 Z0.3000  
G00 X0.2644  Y1.0738  
G01 Z-0.0070 F5     
G01 X0.2624  Y1.0765  F7     
G01 X0.2629  Y1.0752  
G01 X0.2644  Y1.0738  
G00 Z0.3000  
G00 X0.2568  Y1.0900  
G01 Z-0.0070 F5     
G01 X0.2562  Y1.0934  F7     
G01 X0.2562  Y1.0913  
G01 X0.2568  Y1.0900  
G00 Z0.3000  
G00 X0.2562  Y1.1066  
G01 Z-0.0070 F5     
G01 X0.2568  Y1.1100  F7     
G01 X0.2562  Y1.1087  
G01 X0.2562  Y1.1066  
G00 Z0.3000  
G00 X0.2624  Y1.1235  
G01 Z-0.0070 F5     
G01 X0.2644  Y1.1262  F7     
G01 X0.2629  Y1.1248  
G01 X0.2624  Y1.1235  
G00 Z0.3000  
G00 X0.2738  Y1.1356  
G01 Z-0.0070 F5     
G01 X0.2765  Y1.1376  F7     
G01 X0.2752  Y1.1371  
G01 X0.2738  Y1.1356  
G00 Z0.3000  
G00 X0.2900  Y1.1432  
G01 Z-0.0070 F5     
G01 X0.2934  Y1.1437  F7     
G01 X0.2913  Y1.1437  
G01 X0.2900  Y1.1432  
G00 Z0.3000  
G00 X0.3066  Y1.1437  
G01 Z-0.0070 F5     
G01 X0.3100  Y1.1432  F7     
G01 X0.3087  Y1.1437  
G01 X0.3066  Y1.1437  
G00 Z0.3000  
G00 X0.3235  Y1.1376  
G01 Z-0.0070 F5     
G01 X0.3262  Y1.1356  F7     
G01 X0.3248  Y1.1371  
G01 X0.3235  Y1.1376  
G00 Z0.3000  
G00 X0.3356  Y1.1262  
G01 Z-0.0070 F5     
G01 X0.3378  Y1.1232  F7     
G01 X0.3410  Y1.1170  
G01 X0.3432  Y1.1104  
G01 X0.3442  Y1.1035  
G01 X0.3442  Y1.0965  
G01 X0.3432  Y1.0896  
G01 X0.3410  Y1.0830  
G01 X0.3392  Y1.0795  
G01 X0.3555  Y1.0632  
G01 X0.3742  Y1.0632  
G01 X0.3558  Y1.0817  
G01 X0.3558  Y1.1183  
G01 X0.3577  Y1.1203  
G01 X0.3559  Y1.1192  
G01 X0.3520  Y1.1182  
G01 X0.3480  Y1.1182  
G01 X0.3441  Y1.1192  
G01 X0.3406  Y1.1212  
G01 X0.3403  Y1.1215  
G01 X0.3378  Y1.1241  
G01 X0.3356  Y1.1262  
G00 Z0.3000  
G00 X0.3724  Y1.1350  
G01 Z-0.0070 F5     
G01 X0.3801  Y1.1427  F7     
G01 X0.3724  Y1.1504  
G01 X0.3734  Y1.1486  
G01 X0.3745  Y1.1447  
G01 X0.3745  Y1.1407  
G01 X0.3734  Y1.1368  
G01 X0.3724  Y1.1350  
G00 Z0.3000  
G00 X0.4184  Y1.1442  
G01 Z-0.0070 F5     
G01 X0.4208  Y1.1417  F7     
G01 X0.4198  Y1.1436  
G01 X0.4190  Y1.1465  
G01 X0.4184  Y1.1442  
G00 Z0.3000  
G00 X0.4792  Y1.1436  
G01 Z-0.0070 F5     
G01 X0.4802  Y1.1418  F7     
G01 X0.4808  Y1.1398  
G01 X0.4808  Y1.1420  
G01 X0.4792  Y1.1436  
G00 Z0.3000  
G00 X0.4808  Y1.1017  
G01 Z-0.0070 F5     
G01 X0.4802  Y1.0997  F7     
G01 X0.4792  Y1.0979  
G01 X0.4808  Y1.0995  
G01 X0.4808  Y1.1017  
G00 Z0.3000  
G00 X0.4667  Y1.0854  
G01 Z-0.0070 F5     
G01 X0.4649  Y1.0844  F7     
G01 X0.4610  Y1.0833  
G01 X0.4570  Y1.0833  
G01 X0.4531  Y1.0844  
G01 X0.4511  Y1.0856  
G01 X0.4496  Y1.0864  
G01 X0.4468  Y1.0892  
G01 X0.4448  Y1.0927  
G01 X0.4442  Y1.0947  
G01 X0.4442  Y1.0817  
G01 X0.4258  Y1.0632  
G01 X0.4445  Y1.0632  
G01 X0.4667  Y1.0854  
G00 Z0.3000  
G00 X0.4995  Y1.0808  
G01 Z-0.0070 F5     
G01 X0.4979  Y1.0792  F7     
G01 X0.4997  Y1.0802  
G01 X0.5017  Y1.0808  
G01 X0.4995  Y1.0808  
G00 Z0.3000  
G00 X0.4565  Y1.0384  
G01 Z-0.0070 F5     
G01 X0.4551  Y1.0377  F7     
G01 X0.4517  Y1.0368  
G01 X0.4258  Y1.0368  
G01 X0.4442  Y1.0183  
G01 X0.4442  Y1.0132  
G01 X0.4637  Y1.0132  
G01 X0.4617  Y1.0138  
G01 X0.4582  Y1.0158  
G01 X0.4554  Y1.0186  
G01 X0.4534  Y1.0221  
G01 X0.4523  Y1.0260  
G01 X0.4523  Y1.0300  
G01 X0.4534  Y1.0339  
G01 X0.4554  Y1.0374  
G01 X0.4565  Y1.0384  
G00 Z0.3000  
G00 X0.4551  Y0.9367  
G01 Z-0.0070 F5     
G01 X0.4258  Y0.9367  F7     
G01 X0.4437  Y0.9188  
G01 X0.4437  Y0.9240  
G01 X0.4448  Y0.9279  
G01 X0.4468  Y0.9314  
G01 X0.4496  Y0.9342  
G01 X0.4531  Y0.9362  
G01 X0.4551  Y0.9367  
G00 Z0.3000  
G00 X0.4923  Y0.9367  
G01 Z-0.0070 F5     
G01 X0.4943  Y0.9362  F7     
G01 X0.4961  Y0.9352  
G01 X0.4945  Y0.9367  
G01 X0.4923  Y0.9367  
G00 Z0.3000  
G00 X0.5292  Y0.9021  
G01 Z-0.0070 F5     
G01 X0.5302  Y0.9003  F7     
G01 X0.5308  Y0.8983  
G01 X0.5308  Y0.9005  
G01 X0.5292  Y0.9021  
G00 Z0.3000  
G00 X0.5995  Y0.9192  
G01 Z-0.0070 F5     
G01 X0.6017  Y0.9192  F7     
G01 X0.5997  Y0.9198  
G01 X0.5979  Y0.9208  
G01 X0.5995  Y0.9192  
G00 Z0.3000  
G00 X0.4437  Y0.8812  
G01 Z-0.0070 F5     
G01 X0.4407  Y0.8781  F7     
G01 X0.4458  Y0.8729  
G01 X0.4448  Y0.8747  
G01 X0.4437  Y0.8786  
G01 X0.4437  Y0.8812  
G00 Z0.3000  
G00 X0.4219  Y0.8593  
G01 Z-0.0070 F5     
G01 X0.4188  Y0.8562  F7     
G01 X0.4214  Y0.8562  
G01 X0.4253  Y0.8552  
G01 X0.4271  Y0.8542  
G01 X0.4219  Y0.8593  
G00 Z0.3000  
G00 X0.3577  Y0.8797  
G01 Z-0.0070 F5     
G01 X0.3558  Y0.8817  F7     
G01 X0.3558  Y0.9183  
G01 X0.3742  Y0.9367  
G01 X0.3555  Y0.9367  
G01 X0.3407  Y0.9219  
G01 X0.3442  Y0.9183  
G01 X0.3442  Y0.8817  
G01 X0.3423  Y0.8797  
G01 X0.3441  Y0.8808  
G01 X0.3480  Y0.8818  
G01 X0.3520  Y0.8818  
G01 X0.3559  Y0.8808  
G01 X0.3560  Y0.8807  
G01 X0.3577  Y0.8797  
G00 Z0.3000  
G00 X0.4792  Y0.8021  
G01 Z-0.0070 F5     
G01 X0.4802  Y0.8003  F7     
G01 X0.4808  Y0.7983  
G01 X0.4808  Y0.8005  
G01 X0.4792  Y0.8021  
G00 Z0.3000  
G00 X0.4979  Y0.8208  
G01 Z-0.0070 F5     
G01 X0.4995  Y0.8192  F7     
G01 X0.5017  Y0.8192  
G01 X0.4997  Y0.8198  
G01 X0.4979  Y0.8208  
G00 Z0.3000  
G00 X0.3436  Y1.1792  
G01 Z-0.0070 F5     
G01 X0.3420  Y1.1807  F7     
G01 X0.3398  Y1.1807  
G01 X0.3418  Y1.1802  
G01 X0.3436  Y1.1792  
G00 Z0.3000  
G00 X0.3525  Y1.2192  
G01 Z-0.0070 F5     
G01 X0.3574  Y1.2179  F7     
G01 X0.3618  Y1.2154  
G01 X0.3689  Y1.2083  
G01 X0.3679  Y1.2101  
G01 X0.3678  Y1.2103  
G01 X0.3668  Y1.2140  
G01 X0.3668  Y1.2180  
G01 X0.3679  Y1.2219  
G01 X0.3699  Y1.2254  
G01 X0.3727  Y1.2282  
G01 X0.3762  Y1.2302  
G01 X0.3764  Y1.2303  
G01 X0.3782  Y1.2308  
G01 X0.1718  Y1.2308  
G01 X0.1738  Y1.2302  
G01 X0.1773  Y1.2282  
G01 X0.1801  Y1.2254  
G01 X0.1821  Y1.2219  
G01 X0.1832  Y1.2180  
G01 X0.1832  Y1.2140  
G01 X0.1821  Y1.2101  
G01 X0.1811  Y1.2083  
G01 X0.1846  Y1.2118  
G01 X0.1882  Y1.2154  
G01 X0.1926  Y1.2179  
G01 X0.1975  Y1.2192  
G01 X0.3525  Y1.2192  
G00 Z0.3000  
G00 X0.3898  Y1.2308  
G01 Z-0.0070 F5     
G01 X0.3918  Y1.2302  F7     
G01 X0.3936  Y1.2292  
G01 X0.3920  Y1.2308  
G01 X0.3898  Y1.2308  
G00 Z0.3000  
G00 X0.1602  Y1.2308  
G01 Z-0.0070 F5     
G01 X0.1580  Y1.2308  F7     
G01 X0.1564  Y1.2292  
G01 X0.1582  Y1.2302  
G01 X0.1602  Y1.2308  
G00 Z0.3000  
G00 X0.1208  Y1.1936  
G01 Z-0.0070 F5     
G01 X0.1192  Y1.1920  F7     
G01 X0.1192  Y1.1898  
G01 X0.1198  Y1.1918  
G01 X0.1208  Y1.1936  
G00 Z0.3000  
G00 X0.1708  Y1.1436  
G01 Z-0.0070 F5     
G01 X0.1692  Y1.1420  F7     
G01 X0.1692  Y1.1398  
G01 X0.1698  Y1.1418  
G01 X0.1708  Y1.1436  
G00 Z0.3000  
G00 X0.2064  Y1.1792  
G01 Z-0.0070 F5     
G01 X0.2082  Y1.1802  F7     
G01 X0.2102  Y1.1807  
G01 X0.2080  Y1.1807  
G01 X0.2064  Y1.1792  
G00 Z0.3000  
G00 X0.0338  Y0.0376  
G01 Z-0.0070 F5     
G01 X0.0311  Y0.0422  F7     
G01 X0.0297  Y0.0473  
G01 X0.0297  Y0.0527  
G01 X0.0297  Y1.3363  
G01 X0.0297  Y1.3417  
G01 X0.0311  Y1.3468  
G01 X0.0338  Y1.3514  
G01 X0.0376  Y1.3552  
G01 X0.0422  Y1.3579  
G01 X0.0473  Y1.3593  
G01 X0.6527  Y1.3593  
G01 X0.6578  Y1.3579  
G01 X0.6624  Y1.3552  
G01 X0.6662  Y1.3514  
G01 X0.6689  Y1.3468  
G01 X0.6702  Y1.3417  
G01 X0.6702  Y0.0527  
G01 X0.6702  Y0.0473  
G01 X0.6689  Y0.0422  
G01 X0.6662  Y0.0376  
G01 X0.6624  Y0.0338  
G01 X0.6578  Y0.0311  
G01 X0.6527  Y0.0297  
G01 X0.0473  Y0.0297  
G01 X0.0422  Y0.0311  
G01 X0.0376  Y0.0338  
G01 X0.0338  Y0.0376  
G00 Z0.3000  
G00 X0.2305  Y0.3453  
G01 Z-0.0070 F5     
G01 X0.2311  Y0.3456  F7     
G01 X0.2385  Y0.3480  
G01 X0.2461  Y0.3492  
G01 X0.2539  Y0.3492  
G01 X0.2615  Y0.3480  
G01 X0.2689  Y0.3456  
G01 X0.2758  Y0.3421  
G01 X0.2821  Y0.3376  
G01 X0.2876  Y0.3321  
G01 X0.2921  Y0.3258  
G01 X0.2956  Y0.3189  
G01 X0.2980  Y0.3115  
G01 X0.2992  Y0.3039  
G01 X0.2992  Y0.2961  
G01 X0.2980  Y0.2885  
G01 X0.2975  Y0.2868  
G01 X0.3008  Y0.2868  
G01 X0.3008  Y0.3204  
G01 X0.3023  Y0.3219  
G01 X0.2888  Y0.3354  
G01 X0.2854  Y0.3388  
G01 X0.2830  Y0.3430  
G01 X0.2818  Y0.3476  
G01 X0.2818  Y0.3621  
G01 X0.2704  Y0.3508  
G01 X0.2296  Y0.3508  
G01 X0.2008  Y0.3796  
G01 X0.2008  Y0.3808  
G01 X0.1988  Y0.3797  
G01 X0.1967  Y0.3791  
G01 X0.2305  Y0.3453  
G00 Z0.3000  
G00 X0.3281  Y0.3477  
G01 Z-0.0070 F5     
G01 X0.3296  Y0.3492  F7     
G01 X0.3704  Y0.3492  
G01 X0.3817  Y0.3379  
G01 X0.3817  Y0.3424  
G01 X0.3719  Y0.3523  
G01 X0.3704  Y0.3508  
G01 X0.3296  Y0.3508  
G01 X0.3182  Y0.3621  
G01 X0.3182  Y0.3576  
G01 X0.3281  Y0.3477  
G00 Z0.3000  
G00 X0.4182  Y0.3524  
G01 Z-0.0070 F5     
G01 X0.4182  Y0.3379  F7     
G01 X0.4296  Y0.3492  
G01 X0.4704  Y0.3492  
G01 X0.4719  Y0.3477  
G01 X0.5033  Y0.3791  
G01 X0.5012  Y0.3797  
G01 X0.4992  Y0.3808  
G01 X0.4992  Y0.3796  
G01 X0.4704  Y0.3508  
G01 X0.4296  Y0.3508  
G01 X0.4007  Y0.3796  
G01 X0.4007  Y0.4132  
G01 X0.3992  Y0.4132  
G01 X0.3992  Y0.3796  
G01 X0.3977  Y0.3781  
G01 X0.4146  Y0.3612  
G01 X0.4170  Y0.3570  
G01 X0.4182  Y0.3524  
G00 Z0.3000  
G00 X0.4182  Y0.2621  
G01 Z-0.0070 F5     
G01 X0.4182  Y0.2588  F7     
G01 X0.4202  Y0.2599  
G01 X0.4204  Y0.2599  
G01 X0.4182  Y0.2621  
G00 Z0.3000  
G00 X0.3817  Y0.2621  
G01 Z-0.0070 F5     
G01 X0.3796  Y0.2599  F7     
G01 X0.3798  Y0.2599  
G01 X0.3817  Y0.2588  
G01 X0.3817  Y0.2621  
G00 Z0.3000  
G00 X0.4607  Y0.2507  
G01 Z-0.0070 F5     
G01 X0.4618  Y0.2488  F7     
G01 X0.4624  Y0.2467  
G01 X0.4665  Y0.2507  
G01 X0.4607  Y0.2507  
G00 Z0.3000  
G00 X0.4992  Y0.2835  
G01 Z-0.0070 F5     
G01 X0.5033  Y0.2876  F7     
G01 X0.5012  Y0.2882  
G01 X0.4992  Y0.2893  
G01 X0.4992  Y0.2835  
G00 Z0.3000  
G00 X0.5218  Y0.4393  
G01 Z-0.0070 F5     
G01 X0.5225  Y0.4390  F7     
G01 X0.5238  Y0.4387  
G01 X0.5250  Y0.4380  
G01 X0.5258  Y0.4377  
G01 X0.5258  Y0.8123  
G01 X0.5250  Y0.8120  
G01 X0.5238  Y0.8113  
G01 X0.5225  Y0.8110  
G01 X0.5218  Y0.8107  
G01 X0.5233  Y0.8071  
G01 X0.5242  Y0.8024  
G01 X0.5242  Y0.4476  
G01 X0.5233  Y0.4429  
G01 X0.5218  Y0.4393  
G00 Z0.3000  
G00 X0.5742  Y0.3976  
G01 Z-0.0070 F5     
G01 X0.5733  Y0.3929  F7     
G01 X0.5718  Y0.3893  
G01 X0.5725  Y0.3890  
G01 X0.5738  Y0.3887  
G01 X0.5750  Y0.3880  
G01 X0.5757  Y0.3877  
G01 X0.5757  Y0.8984  
G01 X0.5742  Y0.8999  
G01 X0.5742  Y0.3976  
G00 Z0.3000  
G00 X0.3182  Y0.4379  
G01 Z-0.0070 F5     
G01 X0.3201  Y0.4398  F7     
G01 X0.3188  Y0.4401  
G01 X0.3182  Y0.4404  
G01 X0.3182  Y0.4379  
G00 Z0.3000  
G00 X0.2818  Y0.4379  
G01 Z-0.0070 F5     
G01 X0.2818  Y0.4424  F7     
G01 X0.2709  Y0.4533  
G01 X0.2703  Y0.4512  
G01 X0.2692  Y0.4492  
G01 X0.2704  Y0.4492  
G01 X0.2818  Y0.4379  
G00 Z0.3000  
G00 X0.1282  Y0.4893  
G01 Z-0.0070 F5     
G01 X0.1267  Y0.4929  F7     
G01 X0.1258  Y0.4976  
G01 X0.1258  Y1.1524  
G01 X0.1267  Y1.1571  
G01 X0.1285  Y1.1615  
G01 X0.1291  Y1.1624  
G01 X0.1262  Y1.1632  
G01 X0.1242  Y1.1643  
G01 X0.1242  Y0.4877  
G01 X0.1250  Y0.4880  
G01 X0.1262  Y0.4887  
G01 X0.1275  Y0.4890  
G01 X0.1282  Y0.4893  
G00 Z0.3000  
G00 X0.1742  Y0.5377  
G01 Z-0.0070 F5     
G01 X0.1750  Y0.5380  F7     
G01 X0.1762  Y0.5387  
G01 X0.1775  Y0.5390  
G01 X0.1782  Y0.5393  
G01 X0.1767  Y0.5429  
G01 X0.1757  Y0.5476  
G01 X0.1757  Y0.9524  
G01 X0.1767  Y0.9571  
G01 X0.1782  Y0.9607  
G01 X0.1775  Y0.9610  
G01 X0.1762  Y0.9613  
G01 X0.1750  Y0.9620  
G01 X0.1742  Y0.9623  
G01 X0.1742  Y0.5377  
G00 Z0.3000  
G00 X0.3220  Y0.6081  
G01 Z-0.0070 F5     
G01 X0.3402  Y0.6006  F7     
G01 X0.3598  Y0.6006  
G01 X0.3780  Y0.6081  
G01 X0.3919  Y0.6220  
G01 X0.3994  Y0.6402  
G01 X0.3994  Y0.6598  
G01 X0.3919  Y0.6780  
G01 X0.3780  Y0.6919  
G01 X0.3598  Y0.6994  
G01 X0.3402  Y0.6994  
G01 X0.3220  Y0.6919  
G01 X0.3081  Y0.6780  
G01 X0.3006  Y0.6598  
G01 X0.3006  Y0.6402  
G01 X0.3081  Y0.6220  
G01 X0.3220  Y0.6081  
G00 Z0.3000  
G00 X0.3492  Y0.8868  
G01 Z-0.0070 F5     
G01 X0.3508  Y0.8868  F7     
G01 X0.3508  Y0.9204  
G01 X0.3621  Y0.9317  
G01 X0.3576  Y0.9317  
G01 X0.3477  Y0.9219  
G01 X0.3492  Y0.9204  
G01 X0.3492  Y0.8868  
G00 Z0.3000  
G00 X0.3476  Y0.9682  
G01 Z-0.0070 F5     
G01 X0.3621  Y0.9682  F7     
G01 X0.3508  Y0.9796  
G01 X0.3508  Y1.0204  
G01 X0.3621  Y1.0317  
G01 X0.3476  Y1.0317  
G01 X0.3430  Y1.0330  
G01 X0.3388  Y1.0354  
G01 X0.3354  Y1.0388  
G01 X0.3195  Y1.0547  
G01 X0.3189  Y1.0544  
G01 X0.3115  Y1.0520  
G01 X0.3039  Y1.0508  
G01 X0.2961  Y1.0508  
G01 X0.2885  Y1.0520  
G01 X0.2868  Y1.0525  
G01 X0.2868  Y1.0492  
G01 X0.3204  Y1.0492  
G01 X0.3492  Y1.0204  
G01 X0.3492  Y0.9796  
G01 X0.3204  Y0.9507  
G01 X0.2868  Y0.9507  
G01 X0.2868  Y0.9492  
G01 X0.3204  Y0.9492  
G01 X0.3219  Y0.9477  
G01 X0.3388  Y0.9646  
G01 X0.3430  Y0.9670  
G01 X0.3476  Y0.9682  
G00 Z0.3000  
G00 X0.4379  Y0.9682  
G01 Z-0.0070 F5     
G01 X0.5024  Y0.9682  F7     
G01 X0.5070  Y0.9670  
G01 X0.5074  Y0.9668  
G01 X0.4924  Y0.9818  
G01 X0.4492  Y0.9818  
G01 X0.4492  Y0.9796  
G01 X0.4379  Y0.9682  
G00 Z0.3000  
G00 X0.4379  Y0.9317  
G01 Z-0.0070 F5     
G01 X0.4401  Y0.9296  F7     
G01 X0.4401  Y0.9298  
G01 X0.4412  Y0.9317  
G01 X0.4379  Y0.9317  
G00 Z0.3000  
G00 X0.4492  Y1.0182  
G01 Z-0.0070 F5     
G01 X0.4498  Y1.0182  F7     
G01 X0.4492  Y1.0193  
G01 X0.4492  Y1.0182  
G00 Z0.3000  
G00 X0.4485  Y1.0212  
G01 Z-0.0070 F5     
G01 X0.4473  Y1.0253  F7     
G01 X0.4473  Y1.0307  
G01 X0.4476  Y1.0317  
G01 X0.4379  Y1.0317  
G01 X0.4485  Y1.0212  
G00 Z0.3000  
G00 X0.4424  Y1.0682  
G01 Z-0.0070 F5     
G01 X0.4533  Y1.0791  F7     
G01 X0.4512  Y1.0797  
G01 X0.4492  Y1.0808  
G01 X0.4492  Y1.0796  
G01 X0.4379  Y1.0682  
G01 X0.4424  Y1.0682  
G00 Z0.3000  
G00 X0.3621  Y1.0682  
G01 Z-0.0070 F5     
G01 X0.3508  Y1.0796  F7     
G01 X0.3508  Y1.1132  
G01 X0.3475  Y1.1132  
G01 X0.3480  Y1.1115  
G01 X0.3492  Y1.1039  
G01 X0.3492  Y1.0961  
G01 X0.3480  Y1.0885  
G01 X0.3456  Y1.0811  
G01 X0.3453  Y1.0805  
G01 X0.3576  Y1.0682  
G01 X0.3621  Y1.0682  
G00 Z0.3000  
G00 X0.3624  Y1.2209  
G01 Z-0.0070 F5     
G01 X0.3632  Y1.2238  F7     
G01 X0.3643  Y1.2257  
G01 X0.1857  Y1.2257  
G01 X0.1868  Y1.2238  
G01 X0.1876  Y1.2209  
G01 X0.1885  Y1.2215  
G01 X0.1929  Y1.2233  
G01 X0.1976  Y1.2242  
G01 X0.3524  Y1.2242  
G01 X0.3571  Y1.2233  
G01 X0.3615  Y1.2215  
G01 X0.3624  Y1.2209  
G00 Z0.3000  
G00 X0.0304  Y0.0339  
G01 Z-0.0070 F5     
G01 X0.0276  Y0.0380  F7     
G01 X0.0257  Y0.0426  
G01 X0.0256  Y0.0435  
G01 X0.0248  Y0.0475  
G01 X0.0248  Y0.0525  
G01 X0.0247  Y1.3365  
G01 X0.0247  Y1.3415  
G01 X0.0257  Y1.3464  
G01 X0.0276  Y1.3510  
G01 X0.0304  Y1.3551  
G01 X0.0339  Y1.3586  
G01 X0.0380  Y1.3614  
G01 X0.0426  Y1.3633  
G01 X0.0429  Y1.3633  
G01 X0.0475  Y1.3643  
G01 X0.6475  Y1.3643  
G01 X0.6525  Y1.3643  
G01 X0.6574  Y1.3633  
G01 X0.6620  Y1.3614  
G01 X0.6661  Y1.3586  
G01 X0.6696  Y1.3551  
G01 X0.6724  Y1.3510  
G01 X0.6743  Y1.3464  
G01 X0.6752  Y1.3415  
G01 X0.6752  Y0.0475  
G01 X0.6743  Y0.0426  
G01 X0.6724  Y0.0380  
G01 X0.6696  Y0.0339  
G01 X0.6661  Y0.0304  
G01 X0.6620  Y0.0276  
G01 X0.6574  Y0.0257  
G01 X0.6525  Y0.0248  
G01 X0.0475  Y0.0248  
G01 X0.0426  Y0.0257  
G01 X0.0380  Y0.0276  
G01 X0.0339  Y0.0304  
G01 X0.0304  Y0.0339  
G00 Z0.3000  
G00 X0.2749  Y0.3482  
G01 Z-0.0070 F5     
G01 X0.2769  Y0.3472  F7     
G01 X0.2767  Y0.3477  
G01 X0.2767  Y0.3500  
G01 X0.2749  Y0.3482  
G00 Z0.3000  
G00 X0.4232  Y0.3500  
G01 Z-0.0070 F5     
G01 X0.4233  Y0.3500  F7     
G00 Z0.3000  
G00 X0.3876  Y0.6248  
G01 Z-0.0070 F5     
G01 X0.3944  Y0.6412  F7     
G01 X0.3944  Y0.6588  
G01 X0.3876  Y0.6752  
G01 X0.3752  Y0.6876  
G01 X0.3588  Y0.6944  
G01 X0.3412  Y0.6944  
G01 X0.3248  Y0.6876  
G01 X0.3124  Y0.6752  
G01 X0.3056  Y0.6588  
G01 X0.3056  Y0.6412  
G01 X0.3124  Y0.6248  
G01 X0.3248  Y0.6124  
G01 X0.3412  Y0.6056  
G01 X0.3588  Y0.6056  
G01 X0.3752  Y0.6124  
G01 X0.3876  Y0.6248  
G00 Z0.3000  
G00 X0.3500  Y0.9732  
G01 Z-0.0070 F5     
G01 X0.3500  Y0.9733  F7     
G00 Z0.3000  
G00 X0.3500  Y1.0268  
G01 Z-0.0070 F5     
G01 X0.3500  Y1.0268  F7     
G00 Z0.3000  
G00 X0.4500  Y0.9732  
G01 Z-0.0070 F5     
G01 X0.4939  Y0.9732  F7     
G01 X0.4904  Y0.9768  
G01 X0.4535  Y0.9768  
G01 X0.4500  Y0.9732  
G00 Z0.3000  
G00 X0.0265  Y0.0307  
G01 Z-0.0070 F5     
G01 X0.0232  Y0.0357  F7     
G01 X0.0209  Y0.0412  
G01 X0.0198  Y0.0470  
G01 X0.0198  Y0.0530  
G01 X0.0197  Y1.3360  
G01 X0.0197  Y1.3420  
G01 X0.0209  Y1.3478  
G01 X0.0232  Y1.3533  
G01 X0.0265  Y1.3583  
G01 X0.0307  Y1.3625  
G01 X0.0357  Y1.3658  
G01 X0.0412  Y1.3681  
G01 X0.0470  Y1.3693  
G01 X0.6470  Y1.3693  
G01 X0.6530  Y1.3693  
G01 X0.6588  Y1.3681  
G01 X0.6643  Y1.3658  
G01 X0.6693  Y1.3625  
G01 X0.6735  Y1.3583  
G01 X0.6768  Y1.3533  
G01 X0.6791  Y1.3478  
G01 X0.6802  Y1.3420  
G01 X0.6802  Y0.0470  
G01 X0.6791  Y0.0412  
G01 X0.6768  Y0.0357  
G01 X0.6735  Y0.0307  
G01 X0.6693  Y0.0265  
G01 X0.6643  Y0.0232  
G01 X0.6588  Y0.0209  
G01 X0.6530  Y0.0198  
G01 X0.0470  Y0.0198  
G01 X0.0412  Y0.0209  
G01 X0.0357  Y0.0232  
G01 X0.0307  Y0.0265  
G01 X0.0265  Y0.0307  
G00 Z0.3000  
G00 X0.3277  Y0.6166  
G01 Z-0.0070 F5     
G01 X0.3422  Y0.6106  F7     
G01 X0.3578  Y0.6106  
G01 X0.3723  Y0.6166  
G01 X0.3834  Y0.6277  
G01 X0.3894  Y0.6422  
G01 X0.3894  Y0.6578  
G01 X0.3834  Y0.6723  
G01 X0.3723  Y0.6834  
G01 X0.3578  Y0.6894  
G01 X0.3422  Y0.6894  
G01 X0.3277  Y0.6834  
G01 X0.3166  Y0.6723  
G01 X0.3106  Y0.6578  
G01 X0.3106  Y0.6422  
G01 X0.3166  Y0.6277  
G01 X0.3277  Y0.6166  
G00 Z0.3000  
G82 X0.3500  Y0.6500  Z-0.0110 F20    R0.3000  P1.000000
G82 X0.2500  Y0.3000  
G82 X0.2500  Y0.4000  
G82 X0.3500  Y0.3000  
G82 X0.3500  Y0.4000  
G82 X0.4500  Y0.3000  
G82 X0.4500  Y0.4000  
G82 X0.3000  Y1.1000  
G82 X0.4000  Y1.1000  
G82 X0.3000  Y1.0000  
G82 X0.4000  Y1.0000  
G82 X0.3000  Y0.9000  
G82 X0.4000  Y0.9000  
G00 Z0.5000  
M05
M02
