(.../EagleCAD.Playground/PCB-GCODE/pcb-gcode.ulp)
(Copyright 2005 - 2012 by John Johnson)
(See readme.txt for licensing terms.)
(This file generated from the board:)
(.../IDers Test/SMM Test Jig/CPLD_probe.brd)
(Current profile is .../EagleCAD.Playground/PCB-GCODE/profiles/mach.pp  )
(This file generated 5/25/2015 7:48:52 PM)
(Settings from pcb-machine.h)
(spindle on time = 3.0000)
(  Tool Size)
(0.0025  )
(spindle speed = 30000.0000)
(tool change at 0.0000  0.0000  1.0000  )
(feed rate xy = F7     )
(feed rate z  = F5     )
(Z Axis Settings)
(  High     Up        Down     Drill)
(0.5000  	0.3000  	-0.0070 	-0.0630 )
(Settings from pcb-defaults.h)
(isolate min = 0.0010)
(isolate max = 0.0200)
(isolate step = 0.0050)
(Generated top outlines, top drill, )
(Unit of measure: inch)
(Inch Mode)
G20
(Absolute Coordinates)
G90
S30000
G00 Z0.5000  
G00 X0.0000  Y0.0000  
M03
G04 P3.000000
G00 Z0.3000  
G00 X0.0418  Y0.0437  
G01 Z-0.0070 F5     
G01 X0.0404  Y0.0460  F7     
G01 X0.0398  Y0.0487  
G01 X0.0397  Y1.3377  
G01 X0.0397  Y1.3404  
G01 X0.0404  Y1.3430  
G01 X0.0418  Y1.3453  
G01 X0.0437  Y1.3472  
G01 X0.0460  Y1.3486  
G01 X0.0487  Y1.3493  
G01 X0.6513  Y1.3493  
G01 X0.6540  Y1.3486  
G01 X0.6563  Y1.3472  
G01 X0.6582  Y1.3453  
G01 X0.6596  Y1.3430  
G01 X0.6602  Y1.3404  
G01 X0.6602  Y0.0487  
G01 X0.6596  Y0.0460  
G01 X0.6582  Y0.0437  
G01 X0.6563  Y0.0418  
G01 X0.6540  Y0.0404  
G01 X0.6513  Y0.0398  
G01 X0.0487  Y0.0398  
G01 X0.0460  Y0.0404  
G01 X0.0437  Y0.0418  
G01 X0.0418  Y0.0437  
G00 Z0.3000  
G00 X0.1365  Y0.2799  
G01 Z-0.0070 F5     
G01 X0.1453  Y0.2762  F7     
G01 X0.1992  Y0.2762  
G01 X0.2019  Y0.2762  
G01 X0.2045  Y0.2756  
G01 X0.2069  Y0.2742  
G01 X0.2224  Y0.2587  
G01 X0.2403  Y0.2512  
G01 X0.2597  Y0.2512  
G01 X0.2776  Y0.2587  
G01 X0.2918  Y0.2729  
G01 X0.2937  Y0.2748  
G01 X0.2960  Y0.2761  
G01 X0.2987  Y0.2768  
G01 X0.3013  Y0.2768  
G01 X0.3040  Y0.2761  
G01 X0.3063  Y0.2748  
G01 X0.3082  Y0.2729  
G01 X0.3298  Y0.2512  
G01 X0.3663  Y0.2512  
G01 X0.3669  Y0.2513  
G01 X0.3676  Y0.2512  
G01 X0.3683  Y0.2512  
G01 X0.3689  Y0.2511  
G01 X0.3696  Y0.2510  
G01 X0.3702  Y0.2507  
G01 X0.3709  Y0.2506  
G01 X0.3715  Y0.2502  
G01 X0.3721  Y0.2500  
G01 X0.3726  Y0.2495  
G01 X0.3732  Y0.2492  
G01 X0.3737  Y0.2487  
G01 X0.3742  Y0.2483  
G01 X0.3746  Y0.2478  
G01 X0.3751  Y0.2473  
G01 X0.3755  Y0.2467  
G01 X0.3759  Y0.2462  
G01 X0.3761  Y0.2455  
G01 X0.3765  Y0.2450  
G01 X0.3767  Y0.2443  
G01 X0.3799  Y0.2365  
G01 X0.3870  Y0.2294  
G01 X0.4365  Y0.1799  
G01 X0.4453  Y0.1762  
G01 X0.5047  Y0.1762  
G01 X0.5135  Y0.1799  
G01 X0.5206  Y0.1870  
G01 X0.5701  Y0.2365  
G01 X0.5737  Y0.2453  
G01 X0.5737  Y0.4547  
G01 X0.5701  Y0.4635  
G01 X0.5630  Y0.4706  
G01 X0.5277  Y0.5059  
G01 X0.5258  Y0.5078  
G01 X0.5244  Y0.5101  
G01 X0.5237  Y0.5127  
G01 X0.5237  Y0.9047  
G01 X0.5201  Y0.9135  
G01 X0.5130  Y0.9206  
G01 X0.4527  Y0.9809  
G01 X0.4508  Y0.9828  
G01 X0.4494  Y0.9851  
G01 X0.4487  Y0.9877  
G01 X0.4487  Y1.0202  
G01 X0.4271  Y1.0418  
G01 X0.4252  Y1.0437  
G01 X0.4239  Y1.0460  
G01 X0.4232  Y1.0487  
G01 X0.4232  Y1.0513  
G01 X0.4239  Y1.0540  
G01 X0.4252  Y1.0563  
G01 X0.4487  Y1.0798  
G01 X0.4487  Y1.1202  
G01 X0.4202  Y1.1487  
G01 X0.3798  Y1.1487  
G01 X0.3582  Y1.1271  
G01 X0.3563  Y1.1252  
G01 X0.3540  Y1.1239  
G01 X0.3513  Y1.1232  
G01 X0.3487  Y1.1232  
G01 X0.3460  Y1.1239  
G01 X0.3437  Y1.1252  
G01 X0.3418  Y1.1271  
G01 X0.3276  Y1.1413  
G01 X0.3097  Y1.1487  
G01 X0.2903  Y1.1487  
G01 X0.2724  Y1.1413  
G01 X0.2588  Y1.1277  
G01 X0.2569  Y1.1258  
G01 X0.2545  Y1.1244  
G01 X0.2519  Y1.1237  
G01 X0.1953  Y1.1237  
G01 X0.1865  Y1.1201  
G01 X0.0889  Y1.0225  
G01 X0.0799  Y1.0135  
G01 X0.0762  Y1.0047  
G01 X0.0762  Y0.3453  
G01 X0.0799  Y0.3365  
G01 X0.1275  Y0.2889  
G01 X0.1365  Y0.2799  
G00 Z0.3000  
G00 X0.1386  Y0.2913  
G01 Z-0.0070 F5     
G01 X0.0886  Y0.3413  F7     
G01 X0.0867  Y0.3445  
G01 X0.0858  Y0.3481  
G01 X0.0858  Y1.0019  
G01 X0.0867  Y1.0055  
G01 X0.0886  Y1.0087  
G01 X0.0913  Y1.0114  
G01 X0.1913  Y1.1114  
G01 X0.1945  Y1.1133  
G01 X0.1981  Y1.1142  
G01 X0.2634  Y1.1142  
G01 X0.2652  Y1.1186  
G01 X0.2695  Y1.1250  
G01 X0.2750  Y1.1305  
G01 X0.2814  Y1.1348  
G01 X0.2886  Y1.1377  
G01 X0.2961  Y1.1392  
G01 X0.3039  Y1.1392  
G01 X0.3114  Y1.1377  
G01 X0.3186  Y1.1348  
G01 X0.3250  Y1.1305  
G01 X0.3305  Y1.1250  
G01 X0.3348  Y1.1186  
G01 X0.3377  Y1.1114  
G01 X0.3392  Y1.1039  
G01 X0.3392  Y1.0961  
G01 X0.3377  Y1.0886  
G01 X0.3348  Y1.0814  
G01 X0.3305  Y1.0750  
G01 X0.3250  Y1.0695  
G01 X0.3186  Y1.0652  
G01 X0.3114  Y1.0623  
G01 X0.3039  Y1.0608  
G01 X0.2961  Y1.0608  
G01 X0.2886  Y1.0623  
G01 X0.2814  Y1.0652  
G01 X0.2750  Y1.0695  
G01 X0.2695  Y1.0750  
G01 X0.2652  Y1.0814  
G01 X0.2634  Y1.0857  
G01 X0.2059  Y1.0857  
G01 X0.1142  Y0.9941  
G01 X0.1142  Y0.3559  
G01 X0.1559  Y0.3142  
G01 X0.2134  Y0.3142  
G01 X0.2152  Y0.3186  
G01 X0.2195  Y0.3250  
G01 X0.2250  Y0.3305  
G01 X0.2314  Y0.3348  
G01 X0.2337  Y0.3357  
G01 X0.1981  Y0.3357  
G01 X0.1945  Y0.3367  
G01 X0.1913  Y0.3386  
G01 X0.1886  Y0.3413  
G01 X0.1386  Y0.3913  
G01 X0.1367  Y0.3945  
G01 X0.1358  Y0.3981  
G01 X0.1358  Y0.9519  
G01 X0.1367  Y0.9555  
G01 X0.1386  Y0.9587  
G01 X0.1413  Y0.9614  
G01 X0.1913  Y1.0114  
G01 X0.1945  Y1.0133  
G01 X0.1981  Y1.0142  
G01 X0.2607  Y1.0142  
G01 X0.2607  Y1.0163  
G01 X0.2837  Y1.0392  
G01 X0.3163  Y1.0392  
G01 X0.3357  Y1.0198  
G01 X0.3357  Y1.0519  
G01 X0.3367  Y1.0555  
G01 X0.3386  Y1.0587  
G01 X0.3413  Y1.0614  
G01 X0.3622  Y1.0823  
G01 X0.3608  Y1.0837  
G01 X0.3608  Y1.1163  
G01 X0.3837  Y1.1392  
G01 X0.4163  Y1.1392  
G01 X0.4392  Y1.1163  
G01 X0.4392  Y1.0837  
G01 X0.4163  Y1.0608  
G01 X0.3837  Y1.0608  
G01 X0.3823  Y1.0622  
G01 X0.3642  Y1.0441  
G01 X0.3642  Y1.0198  
G01 X0.3837  Y1.0392  
G01 X0.4163  Y1.0392  
G01 X0.4392  Y1.0163  
G01 X0.4392  Y0.9837  
G01 X0.4378  Y0.9823  
G01 X0.5087  Y0.9114  
G01 X0.5114  Y0.9087  
G01 X0.5133  Y0.9055  
G01 X0.5142  Y0.9019  
G01 X0.5142  Y0.5059  
G01 X0.5614  Y0.4587  
G01 X0.5633  Y0.4555  
G01 X0.5642  Y0.4519  
G01 X0.5642  Y0.2481  
G01 X0.5633  Y0.2445  
G01 X0.5614  Y0.2413  
G01 X0.5114  Y0.1913  
G01 X0.5087  Y0.1886  
G01 X0.5055  Y0.1867  
G01 X0.5019  Y0.1857  
G01 X0.4481  Y0.1857  
G01 X0.4445  Y0.1867  
G01 X0.4413  Y0.1886  
G01 X0.3913  Y0.2386  
G01 X0.3886  Y0.2413  
G01 X0.3867  Y0.2445  
G01 X0.3857  Y0.2481  
G01 X0.3857  Y0.2802  
G01 X0.3663  Y0.2607  
G01 X0.3337  Y0.2607  
G01 X0.3108  Y0.2837  
G01 X0.3108  Y0.3163  
G01 X0.3122  Y0.3177  
G01 X0.2941  Y0.3357  
G01 X0.2663  Y0.3357  
G01 X0.2686  Y0.3348  
G01 X0.2750  Y0.3305  
G01 X0.2805  Y0.3250  
G01 X0.2848  Y0.3186  
G01 X0.2877  Y0.3114  
G01 X0.2892  Y0.3039  
G01 X0.2892  Y0.2961  
G01 X0.2877  Y0.2886  
G01 X0.2848  Y0.2814  
G01 X0.2805  Y0.2750  
G01 X0.2750  Y0.2695  
G01 X0.2686  Y0.2652  
G01 X0.2614  Y0.2623  
G01 X0.2539  Y0.2607  
G01 X0.2461  Y0.2607  
G01 X0.2386  Y0.2623  
G01 X0.2314  Y0.2652  
G01 X0.2250  Y0.2695  
G01 X0.2195  Y0.2750  
G01 X0.2152  Y0.2814  
G01 X0.2134  Y0.2858  
G01 X0.1481  Y0.2858  
G01 X0.1445  Y0.2867  
G01 X0.1413  Y0.2886  
G01 X0.1386  Y0.2913  
G00 Z0.3000  
G00 X0.1578  Y0.3258  
G01 Z-0.0070 F5     
G01 X0.1258  Y0.3578  F7     
G01 X0.1244  Y0.3601  
G01 X0.1237  Y0.3627  
G01 X0.1237  Y0.3693  
G01 X0.1244  Y0.3719  
G01 X0.1258  Y0.3742  
G01 X0.1277  Y0.3761  
G01 X0.1300  Y0.3775  
G01 X0.1327  Y0.3782  
G01 X0.1353  Y0.3782  
G01 X0.1380  Y0.3775  
G01 X0.1403  Y0.3761  
G01 X0.1742  Y0.3422  
G01 X0.1761  Y0.3403  
G01 X0.1775  Y0.3380  
G01 X0.1782  Y0.3353  
G01 X0.1782  Y0.3327  
G01 X0.1775  Y0.3300  
G01 X0.1761  Y0.3277  
G01 X0.1742  Y0.3258  
G01 X0.1719  Y0.3244  
G01 X0.1693  Y0.3237  
G01 X0.1654  Y0.3237  
G01 X0.1627  Y0.3237  
G01 X0.1601  Y0.3244  
G01 X0.1578  Y0.3258  
G00 Z0.3000  
G00 X0.1642  Y0.4059  
G01 Z-0.0070 F5     
G01 X0.2059  Y0.3642  F7     
G01 X0.2302  Y0.3642  
G01 X0.2107  Y0.3837  
G01 X0.2107  Y0.4163  
G01 X0.2122  Y0.4177  
G01 X0.1886  Y0.4413  
G01 X0.1867  Y0.4445  
G01 X0.1857  Y0.4481  
G01 X0.1857  Y0.9019  
G01 X0.1867  Y0.9055  
G01 X0.1886  Y0.9087  
G01 X0.1913  Y0.9114  
G01 X0.2386  Y0.9587  
G01 X0.2413  Y0.9614  
G01 X0.2445  Y0.9633  
G01 X0.2481  Y0.9642  
G01 X0.2802  Y0.9642  
G01 X0.2607  Y0.9837  
G01 X0.2607  Y0.9858  
G01 X0.2059  Y0.9858  
G01 X0.1642  Y0.9441  
G01 X0.1642  Y0.4059  
G00 Z0.3000  
G00 X0.1758  Y0.4078  
G01 Z-0.0070 F5     
G01 X0.1744  Y0.4101  F7     
G01 X0.1739  Y0.4120  
G01 X0.1737  Y0.4127  
G01 X0.1737  Y0.4193  
G01 X0.1744  Y0.4219  
G01 X0.1758  Y0.4242  
G01 X0.1777  Y0.4261  
G01 X0.1800  Y0.4275  
G01 X0.1819  Y0.4280  
G01 X0.1827  Y0.4282  
G01 X0.1853  Y0.4282  
G01 X0.1880  Y0.4275  
G01 X0.1903  Y0.4261  
G01 X0.1992  Y0.4172  
G01 X0.2006  Y0.4149  
G01 X0.2011  Y0.4130  
G01 X0.2012  Y0.4123  
G01 X0.2012  Y0.4057  
G01 X0.2006  Y0.4031  
G01 X0.1992  Y0.4008  
G01 X0.1973  Y0.3989  
G01 X0.1950  Y0.3975  
G01 X0.1930  Y0.3970  
G01 X0.1923  Y0.3968  
G01 X0.1897  Y0.3968  
G01 X0.1870  Y0.3975  
G01 X0.1847  Y0.3989  
G01 X0.1758  Y0.4078  
G00 Z0.3000  
G00 X0.2323  Y0.4378  
G01 Z-0.0070 F5     
G01 X0.2337  Y0.4392  F7     
G01 X0.2663  Y0.4392  
G01 X0.2892  Y0.4163  
G01 X0.2892  Y0.3837  
G01 X0.2698  Y0.3642  
G01 X0.3019  Y0.3642  
G01 X0.3055  Y0.3633  
G01 X0.3087  Y0.3614  
G01 X0.3323  Y0.3378  
G01 X0.3337  Y0.3392  
G01 X0.3663  Y0.3392  
G01 X0.3857  Y0.3198  
G01 X0.3857  Y0.3441  
G01 X0.3677  Y0.3622  
G01 X0.3663  Y0.3608  
G01 X0.3337  Y0.3608  
G01 X0.3108  Y0.3837  
G01 X0.3108  Y0.4163  
G01 X0.3337  Y0.4392  
G01 X0.3663  Y0.4392  
G01 X0.3857  Y0.4198  
G01 X0.3857  Y0.5941  
G01 X0.2886  Y0.6913  
G01 X0.2867  Y0.6945  
G01 X0.2858  Y0.6981  
G01 X0.2858  Y0.8608  
G01 X0.2837  Y0.8608  
G01 X0.2607  Y0.8837  
G01 X0.2607  Y0.9163  
G01 X0.2802  Y0.9357  
G01 X0.2559  Y0.9357  
G01 X0.2142  Y0.8941  
G01 X0.2142  Y0.4559  
G01 X0.2323  Y0.4378  
G00 Z0.3000  
G00 X0.2328  Y0.4508  
G01 Z-0.0070 F5     
G01 X0.2277  Y0.4559  F7     
G01 X0.2258  Y0.4578  
G01 X0.2244  Y0.4601  
G01 X0.2237  Y0.4627  
G01 X0.2237  Y0.8873  
G01 X0.2239  Y0.8879  
G01 X0.2244  Y0.8899  
G01 X0.2258  Y0.8922  
G01 X0.2347  Y0.9011  
G01 X0.2370  Y0.9025  
G01 X0.2397  Y0.9032  
G01 X0.2423  Y0.9032  
G01 X0.2431  Y0.9030  
G01 X0.2450  Y0.9025  
G01 X0.2473  Y0.9011  
G01 X0.2492  Y0.8992  
G01 X0.2506  Y0.8969  
G01 X0.2512  Y0.8943  
G01 X0.2512  Y0.8798  
G01 X0.2723  Y0.8588  
G01 X0.2742  Y0.8569  
G01 X0.2756  Y0.8545  
G01 X0.2762  Y0.8519  
G01 X0.2762  Y0.6953  
G01 X0.2799  Y0.6865  
G01 X0.3723  Y0.5941  
G01 X0.3742  Y0.5922  
G01 X0.3756  Y0.5899  
G01 X0.3762  Y0.5873  
G01 X0.3762  Y0.4603  
G01 X0.3762  Y0.4577  
G01 X0.3756  Y0.4550  
G01 X0.3742  Y0.4527  
G01 X0.3723  Y0.4508  
G01 X0.3700  Y0.4494  
G01 X0.3673  Y0.4487  
G01 X0.3298  Y0.4487  
G01 X0.3082  Y0.4271  
G01 X0.3063  Y0.4252  
G01 X0.3040  Y0.4239  
G01 X0.3013  Y0.4232  
G01 X0.2987  Y0.4232  
G01 X0.2960  Y0.4239  
G01 X0.2937  Y0.4252  
G01 X0.2702  Y0.4487  
G01 X0.2377  Y0.4487  
G01 X0.2351  Y0.4494  
G01 X0.2328  Y0.4508  
G00 Z0.3000  
G00 X0.4337  Y0.4392  
G01 Z-0.0070 F5     
G01 X0.4358  Y0.4392  F7     
G01 X0.4358  Y0.6441  
G01 X0.3886  Y0.6913  
G01 X0.3867  Y0.6945  
G01 X0.3857  Y0.6981  
G01 X0.3857  Y0.8608  
G01 X0.3837  Y0.8608  
G01 X0.3608  Y0.8837  
G01 X0.3608  Y0.9163  
G01 X0.3837  Y0.9392  
G01 X0.4163  Y0.9392  
G01 X0.4392  Y0.9163  
G01 X0.4392  Y0.8837  
G01 X0.4163  Y0.8608  
G01 X0.4142  Y0.8608  
G01 X0.4142  Y0.7059  
G01 X0.4587  Y0.6614  
G01 X0.4614  Y0.6587  
G01 X0.4633  Y0.6555  
G01 X0.4642  Y0.6519  
G01 X0.4642  Y0.4392  
G01 X0.4663  Y0.4392  
G01 X0.4892  Y0.4163  
G01 X0.4892  Y0.3837  
G01 X0.4663  Y0.3608  
G01 X0.4594  Y0.3608  
G01 X0.4614  Y0.3587  
G01 X0.4633  Y0.3555  
G01 X0.4642  Y0.3519  
G01 X0.4642  Y0.3392  
G01 X0.4663  Y0.3392  
G01 X0.4892  Y0.3163  
G01 X0.4892  Y0.2837  
G01 X0.4663  Y0.2607  
G01 X0.4337  Y0.2607  
G01 X0.4142  Y0.2802  
G01 X0.4142  Y0.2559  
G01 X0.4559  Y0.2142  
G01 X0.4941  Y0.2142  
G01 X0.5357  Y0.2559  
G01 X0.5357  Y0.4441  
G01 X0.4886  Y0.4913  
G01 X0.4867  Y0.4945  
G01 X0.4858  Y0.4981  
G01 X0.4858  Y0.8941  
G01 X0.4177  Y0.9622  
G01 X0.4163  Y0.9607  
G01 X0.3837  Y0.9607  
G01 X0.3642  Y0.9802  
G01 X0.3642  Y0.9481  
G01 X0.3633  Y0.9445  
G01 X0.3614  Y0.9413  
G01 X0.3587  Y0.9386  
G01 X0.3555  Y0.9367  
G01 X0.3519  Y0.9357  
G01 X0.3198  Y0.9357  
G01 X0.3392  Y0.9163  
G01 X0.3392  Y0.8837  
G01 X0.3163  Y0.8608  
G01 X0.3142  Y0.8608  
G01 X0.3142  Y0.7059  
G01 X0.4087  Y0.6114  
G01 X0.4114  Y0.6087  
G01 X0.4133  Y0.6055  
G01 X0.4142  Y0.6019  
G01 X0.4142  Y0.4198  
G01 X0.4337  Y0.4392  
G00 Z0.3000  
G00 X0.4758  Y0.4431  
G01 Z-0.0070 F5     
G01 X0.4744  Y0.4455  F7     
G01 X0.4737  Y0.4481  
G01 X0.4737  Y0.4693  
G01 X0.4744  Y0.4719  
G01 X0.4758  Y0.4742  
G01 X0.4777  Y0.4761  
G01 X0.4800  Y0.4775  
G01 X0.4827  Y0.4782  
G01 X0.4853  Y0.4782  
G01 X0.4880  Y0.4775  
G01 X0.4903  Y0.4761  
G01 X0.4908  Y0.4756  
G01 X0.4922  Y0.4742  
G01 X0.5237  Y0.4427  
G01 X0.5242  Y0.4422  
G01 X0.5256  Y0.4399  
G01 X0.5262  Y0.4373  
G01 X0.5262  Y0.2627  
G01 X0.5256  Y0.2601  
G01 X0.5242  Y0.2578  
G01 X0.4941  Y0.2277  
G01 X0.4922  Y0.2258  
G01 X0.4899  Y0.2244  
G01 X0.4873  Y0.2237  
G01 X0.4627  Y0.2237  
G01 X0.4621  Y0.2239  
G01 X0.4601  Y0.2244  
G01 X0.4578  Y0.2258  
G01 X0.4489  Y0.2347  
G01 X0.4475  Y0.2370  
G01 X0.4468  Y0.2397  
G01 X0.4468  Y0.2423  
G01 X0.4470  Y0.2431  
G01 X0.4475  Y0.2450  
G01 X0.4489  Y0.2473  
G01 X0.4508  Y0.2492  
G01 X0.4531  Y0.2506  
G01 X0.4557  Y0.2512  
G01 X0.4702  Y0.2512  
G01 X0.4987  Y0.2798  
G01 X0.4987  Y0.3202  
G01 X0.4777  Y0.3412  
G01 X0.4758  Y0.3431  
G01 X0.4744  Y0.3455  
G01 X0.4737  Y0.3481  
G01 X0.4737  Y0.3519  
G01 X0.4744  Y0.3545  
G01 X0.4758  Y0.3569  
G01 X0.4987  Y0.3798  
G01 X0.4987  Y0.4202  
G01 X0.4777  Y0.4412  
G01 X0.4758  Y0.4431  
G00 Z0.3000  
G00 X0.3892  Y0.3906  
G01 Z-0.0070 F5     
G01 X0.3892  Y0.3837  F7     
G01 X0.3878  Y0.3823  
G01 X0.4114  Y0.3587  
G01 X0.4133  Y0.3555  
G01 X0.4142  Y0.3519  
G01 X0.4142  Y0.3198  
G01 X0.4337  Y0.3392  
G01 X0.4358  Y0.3392  
G01 X0.4358  Y0.3441  
G01 X0.3892  Y0.3906  
G00 Z0.3000  
G00 X0.4078  Y0.6258  
G01 Z-0.0070 F5     
G01 X0.3258  Y0.7078  F7     
G01 X0.3244  Y0.7101  
G01 X0.3237  Y0.7127  
G01 X0.3237  Y0.8519  
G01 X0.3244  Y0.8545  
G01 X0.3258  Y0.8569  
G01 X0.3418  Y0.8729  
G01 X0.3437  Y0.8748  
G01 X0.3460  Y0.8761  
G01 X0.3487  Y0.8768  
G01 X0.3513  Y0.8768  
G01 X0.3540  Y0.8761  
G01 X0.3563  Y0.8748  
G01 X0.3723  Y0.8588  
G01 X0.3742  Y0.8569  
G01 X0.3756  Y0.8545  
G01 X0.3762  Y0.8519  
G01 X0.3762  Y0.6953  
G01 X0.3799  Y0.6865  
G01 X0.4223  Y0.6441  
G01 X0.4242  Y0.6422  
G01 X0.4256  Y0.6399  
G01 X0.4262  Y0.6373  
G01 X0.4262  Y0.6307  
G01 X0.4256  Y0.6281  
G01 X0.4242  Y0.6258  
G01 X0.4223  Y0.6239  
G01 X0.4200  Y0.6225  
G01 X0.4173  Y0.6218  
G01 X0.4147  Y0.6218  
G01 X0.4120  Y0.6225  
G01 X0.4097  Y0.6239  
G01 X0.4084  Y0.6252  
G01 X0.4078  Y0.6258  
G00 Z0.3000  
G00 X0.4578  Y0.6758  
G01 Z-0.0070 F5     
G01 X0.4578  Y0.6758  F7     
G01 X0.4263  Y0.7073  
G01 X0.4258  Y0.7078  
G01 X0.4244  Y0.7101  
G01 X0.4238  Y0.7127  
G01 X0.4237  Y0.8519  
G01 X0.4244  Y0.8545  
G01 X0.4258  Y0.8569  
G01 X0.4277  Y0.8588  
G01 X0.4487  Y0.8798  
G01 X0.4487  Y0.8943  
G01 X0.4494  Y0.8969  
G01 X0.4508  Y0.8992  
G01 X0.4527  Y0.9011  
G01 X0.4550  Y0.9025  
G01 X0.4577  Y0.9032  
G01 X0.4603  Y0.9032  
G01 X0.4630  Y0.9025  
G01 X0.4653  Y0.9011  
G01 X0.4723  Y0.8941  
G01 X0.4742  Y0.8922  
G01 X0.4756  Y0.8899  
G01 X0.4762  Y0.8873  
G01 X0.4762  Y0.6807  
G01 X0.4756  Y0.6781  
G01 X0.4742  Y0.6758  
G01 X0.4723  Y0.6739  
G01 X0.4700  Y0.6725  
G01 X0.4673  Y0.6718  
G01 X0.4647  Y0.6718  
G01 X0.4620  Y0.6725  
G01 X0.4597  Y0.6739  
G01 X0.4592  Y0.6744  
G01 X0.4578  Y0.6758  
G00 Z0.3000  
G00 X0.3357  Y0.9642  
G01 Z-0.0070 F5     
G01 X0.3357  Y0.9802  F7     
G01 X0.3198  Y0.9642  
G01 X0.3357  Y0.9642  
G00 Z0.3000  
G00 X0.2282  Y0.9647  
G01 Z-0.0070 F5     
G01 X0.2275  Y0.9620  F7     
G01 X0.2261  Y0.9597  
G01 X0.1922  Y0.9258  
G01 X0.1903  Y0.9239  
G01 X0.1880  Y0.9225  
G01 X0.1853  Y0.9218  
G01 X0.1827  Y0.9218  
G01 X0.1800  Y0.9225  
G01 X0.1777  Y0.9239  
G01 X0.1758  Y0.9258  
G01 X0.1744  Y0.9281  
G01 X0.1737  Y0.9307  
G01 X0.1737  Y0.9346  
G01 X0.1737  Y0.9373  
G01 X0.1744  Y0.9399  
G01 X0.1758  Y0.9422  
G01 X0.2078  Y0.9742  
G01 X0.2101  Y0.9756  
G01 X0.2127  Y0.9762  
G01 X0.2193  Y0.9762  
G01 X0.2219  Y0.9756  
G01 X0.2242  Y0.9742  
G01 X0.2261  Y0.9723  
G01 X0.2275  Y0.9700  
G01 X0.2282  Y0.9673  
G01 X0.2282  Y0.9647  
G00 Z0.3000  
G00 X0.2519  Y1.0237  
G01 Z-0.0070 F5     
G01 X0.1953  Y1.0237  F7     
G01 X0.1865  Y1.0201  
G01 X0.1422  Y0.9758  
G01 X0.1403  Y0.9739  
G01 X0.1380  Y0.9725  
G01 X0.1353  Y0.9718  
G01 X0.1327  Y0.9718  
G01 X0.1300  Y0.9725  
G01 X0.1277  Y0.9739  
G01 X0.1258  Y0.9758  
G01 X0.1244  Y0.9781  
G01 X0.1237  Y0.9807  
G01 X0.1237  Y0.9873  
G01 X0.1244  Y0.9899  
G01 X0.1258  Y0.9922  
G01 X0.1277  Y0.9941  
G01 X0.2059  Y1.0723  
G01 X0.2078  Y1.0742  
G01 X0.2101  Y1.0756  
G01 X0.2127  Y1.0762  
G01 X0.2519  Y1.0762  
G01 X0.2545  Y1.0756  
G01 X0.2569  Y1.0742  
G01 X0.2729  Y1.0582  
G01 X0.2748  Y1.0563  
G01 X0.2761  Y1.0540  
G01 X0.2768  Y1.0513  
G01 X0.2768  Y1.0487  
G01 X0.2761  Y1.0460  
G01 X0.2748  Y1.0437  
G01 X0.2588  Y1.0277  
G01 X0.2569  Y1.0258  
G01 X0.2545  Y1.0244  
G01 X0.2519  Y1.0237  
G00 Z0.3000  
G00 X0.0378  Y0.0406  
G01 Z-0.0070 F5     
G01 X0.0358  Y0.0441  F7     
G01 X0.0348  Y0.0480  
G01 X0.0347  Y1.3370  
G01 X0.0347  Y1.3410  
G01 X0.0358  Y1.3449  
G01 X0.0378  Y1.3484  
G01 X0.0406  Y1.3512  
G01 X0.0441  Y1.3532  
G01 X0.0480  Y1.3543  
G01 X0.6520  Y1.3543  
G01 X0.6559  Y1.3532  
G01 X0.6594  Y1.3512  
G01 X0.6622  Y1.3484  
G01 X0.6642  Y1.3449  
G01 X0.6652  Y1.3410  
G01 X0.6652  Y0.0480  
G01 X0.6642  Y0.0441  
G01 X0.6622  Y0.0406  
G01 X0.6594  Y0.0378  
G01 X0.6559  Y0.0358  
G01 X0.6520  Y0.0348  
G01 X0.0480  Y0.0348  
G01 X0.0441  Y0.0358  
G01 X0.0406  Y0.0378  
G01 X0.0378  Y0.0406  
G00 Z0.3000  
G00 X0.1192  Y0.3580  
G01 Z-0.0070 F5     
G01 X0.1208  Y0.3564  F7     
G01 X0.1198  Y0.3582  
G01 X0.1192  Y0.3602  
G01 X0.1192  Y0.3580  
G00 Z0.3000  
G00 X0.1192  Y0.3718  
G01 Z-0.0070 F5     
G01 X0.1198  Y0.3738  F7     
G01 X0.1218  Y0.3773  
G01 X0.1246  Y0.3801  
G01 X0.1281  Y0.3821  
G01 X0.1320  Y0.3832  
G01 X0.1360  Y0.3832  
G01 X0.1399  Y0.3821  
G01 X0.1417  Y0.3811  
G01 X0.1346  Y0.3882  
G01 X0.1321  Y0.3926  
G01 X0.1308  Y0.3975  
G01 X0.1308  Y0.9525  
G01 X0.1321  Y0.9574  
G01 X0.1346  Y0.9618  
G01 X0.1382  Y0.9654  
G01 X0.1417  Y0.9689  
G01 X0.1399  Y0.9679  
G01 X0.1397  Y0.9678  
G01 X0.1360  Y0.9668  
G01 X0.1320  Y0.9668  
G01 X0.1281  Y0.9679  
G01 X0.1246  Y0.9699  
G01 X0.1218  Y0.9727  
G01 X0.1198  Y0.9762  
G01 X0.1197  Y0.9764  
G01 X0.1192  Y0.9782  
G01 X0.1192  Y0.3718  
G00 Z0.3000  
G00 X0.1708  Y0.4064  
G01 Z-0.0070 F5     
G01 X0.1698  Y0.4082  F7     
G01 X0.1692  Y0.4102  
G01 X0.1692  Y0.4080  
G01 X0.1708  Y0.4064  
G00 Z0.3000  
G00 X0.1692  Y0.4218  
G01 Z-0.0070 F5     
G01 X0.1698  Y0.4238  F7     
G01 X0.1718  Y0.4273  
G01 X0.1745  Y0.4300  
G01 X0.1746  Y0.4301  
G01 X0.1760  Y0.4309  
G01 X0.1781  Y0.4321  
G01 X0.1820  Y0.4332  
G01 X0.1860  Y0.4332  
G01 X0.1899  Y0.4321  
G01 X0.1917  Y0.4311  
G01 X0.1846  Y0.4382  
G01 X0.1821  Y0.4426  
G01 X0.1807  Y0.4475  
G01 X0.1807  Y0.9025  
G01 X0.1821  Y0.9074  
G01 X0.1846  Y0.9118  
G01 X0.1882  Y0.9154  
G01 X0.1917  Y0.9189  
G01 X0.1899  Y0.9179  
G01 X0.1860  Y0.9168  
G01 X0.1820  Y0.9168  
G01 X0.1781  Y0.9179  
G01 X0.1746  Y0.9199  
G01 X0.1718  Y0.9227  
G01 X0.1698  Y0.9262  
G01 X0.1692  Y0.9282  
G01 X0.1692  Y0.4218  
G00 Z0.3000  
G00 X0.2042  Y0.4186  
G01 Z-0.0070 F5     
G01 X0.2052  Y0.4168  F7     
G01 X0.2057  Y0.4148  
G01 X0.2057  Y0.4170  
G01 X0.2042  Y0.4186  
G00 Z0.3000  
G00 X0.2057  Y0.4032  
G01 Z-0.0070 F5     
G01 X0.2052  Y0.4012  F7     
G01 X0.2032  Y0.3977  
G01 X0.2004  Y0.3949  
G01 X0.1988  Y0.3940  
G01 X0.1969  Y0.3929  
G01 X0.1930  Y0.3918  
G01 X0.1890  Y0.3918  
G01 X0.1851  Y0.3929  
G01 X0.1833  Y0.3939  
G01 X0.2080  Y0.3692  
G01 X0.2182  Y0.3692  
G01 X0.2057  Y0.3817  
G01 X0.2057  Y0.4032  
G00 Z0.3000  
G00 X0.2314  Y0.4458  
G01 Z-0.0070 F5     
G01 X0.2330  Y0.4442  F7     
G01 X0.2352  Y0.4442  
G01 X0.2332  Y0.4448  
G01 X0.2314  Y0.4458  
G00 Z0.3000  
G00 X0.2208  Y0.4564  
G01 Z-0.0070 F5     
G01 X0.2198  Y0.4582  F7     
G01 X0.2192  Y0.4602  
G01 X0.2192  Y0.4580  
G01 X0.2208  Y0.4564  
G00 Z0.3000  
G00 X0.2923  Y0.4203  
G01 Z-0.0070 F5     
G01 X0.2942  Y0.4183  F7     
G01 X0.2942  Y0.3817  
G01 X0.2818  Y0.3692  
G01 X0.3025  Y0.3692  
G01 X0.3074  Y0.3679  
G01 X0.3118  Y0.3654  
G01 X0.3330  Y0.3442  
G01 X0.3683  Y0.3442  
G01 X0.3807  Y0.3318  
G01 X0.3807  Y0.3420  
G01 X0.3670  Y0.3558  
G01 X0.3317  Y0.3558  
G01 X0.3058  Y0.3817  
G01 X0.3058  Y0.4183  
G01 X0.3077  Y0.4203  
G01 X0.3059  Y0.4192  
G01 X0.3020  Y0.4182  
G01 X0.2980  Y0.4182  
G01 X0.2941  Y0.4192  
G01 X0.2923  Y0.4203  
G00 Z0.3000  
G00 X0.2920  Y0.3307  
G01 Z-0.0070 F5     
G01 X0.2818  Y0.3307  F7     
G01 X0.2838  Y0.3288  
G01 X0.2878  Y0.3232  
G01 X0.2910  Y0.3170  
G01 X0.2932  Y0.3104  
G01 X0.2942  Y0.3035  
G01 X0.2942  Y0.2965  
G01 X0.2932  Y0.2896  
G01 X0.2910  Y0.2830  
G01 X0.2878  Y0.2768  
G01 X0.2856  Y0.2738  
G01 X0.2878  Y0.2759  
G01 X0.2906  Y0.2788  
G01 X0.2922  Y0.2796  
G01 X0.2941  Y0.2808  
G01 X0.2980  Y0.2818  
G01 X0.3020  Y0.2818  
G01 X0.3059  Y0.2808  
G01 X0.3077  Y0.2797  
G01 X0.3058  Y0.2817  
G01 X0.3058  Y0.3170  
G01 X0.2920  Y0.3307  
G00 Z0.3000  
G00 X0.2182  Y0.3307  
G01 Z-0.0070 F5     
G01 X0.1975  Y0.3307  F7     
G01 X0.1926  Y0.3321  
G01 X0.1882  Y0.3346  
G01 X0.1846  Y0.3382  
G01 X0.1811  Y0.3417  
G01 X0.1821  Y0.3399  
G01 X0.1832  Y0.3360  
G01 X0.1832  Y0.3320  
G01 X0.1821  Y0.3281  
G01 X0.1801  Y0.3246  
G01 X0.1773  Y0.3218  
G01 X0.1738  Y0.3198  
G01 X0.1718  Y0.3192  
G01 X0.2101  Y0.3192  
G01 X0.2122  Y0.3232  
G01 X0.2162  Y0.3288  
G01 X0.2182  Y0.3307  
G00 Z0.3000  
G00 X0.2101  Y0.2807  
G01 Z-0.0070 F5     
G01 X0.2044  Y0.2807  F7     
G01 X0.2064  Y0.2802  
G01 X0.2099  Y0.2782  
G01 X0.2102  Y0.2779  
G01 X0.2128  Y0.2754  
G01 X0.2144  Y0.2738  
G01 X0.2122  Y0.2768  
G01 X0.2101  Y0.2807  
G00 Z0.3000  
G00 X0.2238  Y0.2644  
G01 Z-0.0070 F5     
G01 X0.2252  Y0.2629  F7     
G01 X0.2265  Y0.2624  
G01 X0.2238  Y0.2644  
G00 Z0.3000  
G00 X0.2400  Y0.2568  
G01 Z-0.0070 F5     
G01 X0.2413  Y0.2562  F7     
G01 X0.2434  Y0.2562  
G01 X0.2400  Y0.2568  
G00 Z0.3000  
G00 X0.2566  Y0.2562  
G01 Z-0.0070 F5     
G01 X0.2587  Y0.2562  F7     
G01 X0.2600  Y0.2568  
G01 X0.2566  Y0.2562  
G00 Z0.3000  
G00 X0.2735  Y0.2624  
G01 Z-0.0070 F5     
G01 X0.2748  Y0.2629  F7     
G01 X0.2762  Y0.2644  
G01 X0.2735  Y0.2624  
G00 Z0.3000  
G00 X0.3688  Y0.2562  
G01 Z-0.0070 F5     
G01 X0.3689  Y0.2562  F7     
G01 X0.3699  Y0.2560  
G01 X0.3709  Y0.2559  
G01 X0.3718  Y0.2555  
G01 X0.3728  Y0.2552  
G01 X0.3737  Y0.2547  
G01 X0.3746  Y0.2543  
G01 X0.3754  Y0.2537  
G01 X0.3763  Y0.2532  
G01 X0.3770  Y0.2525  
G01 X0.3778  Y0.2519  
G01 X0.3784  Y0.2511  
G01 X0.3791  Y0.2504  
G01 X0.3796  Y0.2495  
G01 X0.3802  Y0.2487  
G01 X0.3806  Y0.2478  
G01 X0.3807  Y0.2476  
G01 X0.3807  Y0.2682  
G01 X0.3688  Y0.2562  
G00 Z0.3000  
G00 X0.4192  Y0.2580  
G01 Z-0.0070 F5     
G01 X0.4439  Y0.2333  F7     
G01 X0.4429  Y0.2351  
G01 X0.4418  Y0.2390  
G01 X0.4418  Y0.2430  
G01 X0.4429  Y0.2469  
G01 X0.4441  Y0.2489  
G01 X0.4449  Y0.2504  
G01 X0.4477  Y0.2532  
G01 X0.4512  Y0.2552  
G01 X0.4532  Y0.2557  
G01 X0.4317  Y0.2557  
G01 X0.4192  Y0.2682  
G01 X0.4192  Y0.2580  
G00 Z0.3000  
G00 X0.4192  Y0.3318  
G01 Z-0.0070 F5     
G01 X0.4301  Y0.3427  F7     
G01 X0.4189  Y0.3539  
G01 X0.4192  Y0.3525  
G01 X0.4192  Y0.3318  
G00 Z0.3000  
G00 X0.4692  Y0.3433  
G01 Z-0.0070 F5     
G01 X0.4708  Y0.3417  F7     
G01 X0.4698  Y0.3436  
G01 X0.4692  Y0.3456  
G01 X0.4692  Y0.3433  
G00 Z0.3000  
G00 X0.4690  Y0.3535  
G01 Z-0.0070 F5     
G01 X0.4698  Y0.3564  F7     
G01 X0.4708  Y0.3583  
G01 X0.4684  Y0.3558  
G01 X0.4690  Y0.3535  
G00 Z0.3000  
G00 X0.4692  Y0.4433  
G01 Z-0.0070 F5     
G01 X0.4708  Y0.4417  F7     
G01 X0.4698  Y0.4436  
G01 X0.4692  Y0.4456  
G01 X0.4692  Y0.4433  
G00 Z0.3000  
G00 X0.4692  Y0.4718  
G01 Z-0.0070 F5     
G01 X0.4698  Y0.4738  F7     
G01 X0.4718  Y0.4773  
G01 X0.4746  Y0.4801  
G01 X0.4781  Y0.4821  
G01 X0.4820  Y0.4832  
G01 X0.4860  Y0.4832  
G01 X0.4899  Y0.4821  
G01 X0.4917  Y0.4811  
G01 X0.4846  Y0.4882  
G01 X0.4821  Y0.4926  
G01 X0.4808  Y0.4975  
G01 X0.4808  Y0.6782  
G01 X0.4802  Y0.6762  
G01 X0.4782  Y0.6727  
G01 X0.4754  Y0.6699  
G01 X0.4719  Y0.6679  
G01 X0.4680  Y0.6668  
G01 X0.4640  Y0.6668  
G01 X0.4601  Y0.6679  
G01 X0.4583  Y0.6689  
G01 X0.4618  Y0.6654  
G01 X0.4654  Y0.6618  
G01 X0.4679  Y0.6574  
G01 X0.4692  Y0.6525  
G01 X0.4692  Y0.4718  
G00 Z0.3000  
G00 X0.4308  Y0.4433  
G01 Z-0.0070 F5     
G01 X0.4308  Y0.6282  F7     
G01 X0.4302  Y0.6262  
G01 X0.4282  Y0.6227  
G01 X0.4254  Y0.6199  
G01 X0.4219  Y0.6179  
G01 X0.4180  Y0.6168  
G01 X0.4140  Y0.6168  
G01 X0.4101  Y0.6179  
G01 X0.4083  Y0.6189  
G01 X0.4118  Y0.6154  
G01 X0.4154  Y0.6118  
G01 X0.4179  Y0.6074  
G01 X0.4192  Y0.6025  
G01 X0.4192  Y0.4318  
G01 X0.4308  Y0.4433  
G00 Z0.3000  
G00 X0.3754  Y0.4468  
G01 Z-0.0070 F5     
G01 X0.3719  Y0.4448  F7     
G01 X0.3687  Y0.4439  
G01 X0.3807  Y0.4318  
G01 X0.3807  Y0.4551  
G01 X0.3802  Y0.4531  
G01 X0.3782  Y0.4496  
G01 X0.3754  Y0.4468  
G00 Z0.3000  
G00 X0.3807  Y0.5898  
G01 Z-0.0070 F5     
G01 X0.3807  Y0.5920  F7     
G01 X0.3792  Y0.5936  
G01 X0.3802  Y0.5918  
G01 X0.3807  Y0.5898  
G00 Z0.3000  
G00 X0.4308  Y0.6398  
G01 Z-0.0070 F5     
G01 X0.4308  Y0.6420  F7     
G01 X0.4292  Y0.6436  
G01 X0.4302  Y0.6418  
G01 X0.4308  Y0.6398  
G00 Z0.3000  
G00 X0.4208  Y0.7064  
G01 Z-0.0070 F5     
G01 X0.4198  Y0.7082  F7     
G01 X0.4192  Y0.7102  
G01 X0.4192  Y0.7080  
G01 X0.4208  Y0.7064  
G00 Z0.3000  
G00 X0.3208  Y0.7064  
G01 Z-0.0070 F5     
G01 X0.3198  Y0.7082  F7     
G01 X0.3192  Y0.7102  
G01 X0.3192  Y0.7080  
G01 X0.3208  Y0.7064  
G00 Z0.3000  
G00 X0.3192  Y0.8544  
G01 Z-0.0070 F5     
G01 X0.3198  Y0.8564  F7     
G01 X0.3208  Y0.8583  
G01 X0.3192  Y0.8567  
G01 X0.3192  Y0.8544  
G00 Z0.3000  
G00 X0.2807  Y0.8544  
G01 Z-0.0070 F5     
G01 X0.2807  Y0.8567  F7     
G01 X0.2792  Y0.8583  
G01 X0.2802  Y0.8564  
G01 X0.2807  Y0.8544  
G00 Z0.3000  
G00 X0.2557  Y0.8968  
G01 Z-0.0070 F5     
G01 X0.2557  Y0.9183  F7     
G01 X0.2682  Y0.9307  
G01 X0.2580  Y0.9307  
G01 X0.2333  Y0.9061  
G01 X0.2351  Y0.9071  
G01 X0.2390  Y0.9082  
G01 X0.2430  Y0.9082  
G01 X0.2469  Y0.9071  
G01 X0.2489  Y0.9059  
G01 X0.2504  Y0.9051  
G01 X0.2532  Y0.9023  
G01 X0.2552  Y0.8988  
G01 X0.2557  Y0.8968  
G00 Z0.3000  
G00 X0.2208  Y0.8936  
G01 Z-0.0070 F5     
G01 X0.2192  Y0.8920  F7     
G01 X0.2192  Y0.8898  
G01 X0.2198  Y0.8918  
G01 X0.2208  Y0.8936  
G00 Z0.3000  
G00 X0.2311  Y0.9583  
G01 Z-0.0070 F5     
G01 X0.2346  Y0.9618  F7     
G01 X0.2382  Y0.9654  
G01 X0.2426  Y0.9679  
G01 X0.2475  Y0.9692  
G01 X0.2682  Y0.9692  
G01 X0.2567  Y0.9808  
G01 X0.2218  Y0.9808  
G01 X0.2238  Y0.9802  
G01 X0.2273  Y0.9782  
G01 X0.2301  Y0.9754  
G01 X0.2321  Y0.9719  
G01 X0.2332  Y0.9680  
G01 X0.2332  Y0.9640  
G01 X0.2321  Y0.9601  
G01 X0.2311  Y0.9583  
G00 Z0.3000  
G00 X0.2102  Y0.9808  
G01 Z-0.0070 F5     
G01 X0.2080  Y0.9808  F7     
G01 X0.2064  Y0.9792  
G01 X0.2082  Y0.9802  
G01 X0.2102  Y0.9808  
G00 Z0.3000  
G00 X0.1708  Y0.9436  
G01 Z-0.0070 F5     
G01 X0.1692  Y0.9420  F7     
G01 X0.1692  Y0.9398  
G01 X0.1698  Y0.9418  
G01 X0.1708  Y0.9436  
G00 Z0.3000  
G00 X0.1192  Y0.9898  
G01 Z-0.0070 F5     
G01 X0.1198  Y0.9918  F7     
G01 X0.1208  Y0.9936  
G01 X0.1192  Y0.9920  
G01 X0.1192  Y0.9898  
G00 Z0.3000  
G00 X0.2544  Y1.0192  
G01 Z-0.0070 F5     
G01 X0.2567  Y1.0192  F7     
G01 X0.2583  Y1.0208  
G01 X0.2564  Y1.0198  
G01 X0.2544  Y1.0192  
G00 Z0.3000  
G00 X0.2797  Y1.0423  
G01 Z-0.0070 F5     
G01 X0.2817  Y1.0442  F7     
G01 X0.3183  Y1.0442  
G01 X0.3307  Y1.0318  
G01 X0.3307  Y1.0525  
G01 X0.3321  Y1.0574  
G01 X0.3346  Y1.0618  
G01 X0.3382  Y1.0654  
G01 X0.3558  Y1.0830  
G01 X0.3558  Y1.1183  
G01 X0.3577  Y1.1203  
G01 X0.3559  Y1.1192  
G01 X0.3520  Y1.1182  
G01 X0.3480  Y1.1182  
G01 X0.3441  Y1.1192  
G01 X0.3421  Y1.1204  
G01 X0.3406  Y1.1212  
G01 X0.3403  Y1.1215  
G01 X0.3378  Y1.1241  
G01 X0.3356  Y1.1262  
G01 X0.3378  Y1.1232  
G01 X0.3410  Y1.1170  
G01 X0.3432  Y1.1104  
G01 X0.3442  Y1.1035  
G01 X0.3442  Y1.0965  
G01 X0.3432  Y1.0896  
G01 X0.3410  Y1.0830  
G01 X0.3378  Y1.0768  
G01 X0.3338  Y1.0712  
G01 X0.3288  Y1.0662  
G01 X0.3232  Y1.0622  
G01 X0.3170  Y1.0590  
G01 X0.3104  Y1.0568  
G01 X0.3035  Y1.0557  
G01 X0.2965  Y1.0557  
G01 X0.2896  Y1.0568  
G01 X0.2830  Y1.0590  
G01 X0.2768  Y1.0622  
G01 X0.2738  Y1.0644  
G01 X0.2759  Y1.0622  
G01 X0.2788  Y1.0594  
G01 X0.2808  Y1.0559  
G01 X0.2818  Y1.0520  
G01 X0.2818  Y1.0480  
G01 X0.2808  Y1.0441  
G01 X0.2797  Y1.0423  
G00 Z0.3000  
G00 X0.2644  Y1.0738  
G01 Z-0.0070 F5     
G01 X0.2622  Y1.0768  F7     
G01 X0.2601  Y1.0808  
G01 X0.2544  Y1.0808  
G01 X0.2564  Y1.0802  
G01 X0.2599  Y1.0782  
G01 X0.2644  Y1.0738  
G00 Z0.3000  
G00 X0.2601  Y1.1192  
G01 Z-0.0070 F5     
G01 X0.2622  Y1.1232  F7     
G01 X0.2644  Y1.1262  
G01 X0.2628  Y1.1246  
G01 X0.2599  Y1.1218  
G01 X0.2564  Y1.1198  
G01 X0.2544  Y1.1192  
G01 X0.2601  Y1.1192  
G00 Z0.3000  
G00 X0.2738  Y1.1356  
G01 Z-0.0070 F5     
G01 X0.2765  Y1.1376  F7     
G01 X0.2752  Y1.1371  
G01 X0.2738  Y1.1356  
G00 Z0.3000  
G00 X0.2900  Y1.1432  
G01 Z-0.0070 F5     
G01 X0.2934  Y1.1437  F7     
G01 X0.2913  Y1.1437  
G01 X0.2900  Y1.1432  
G00 Z0.3000  
G00 X0.3066  Y1.1437  
G01 Z-0.0070 F5     
G01 X0.3100  Y1.1432  F7     
G01 X0.3087  Y1.1437  
G01 X0.3066  Y1.1437  
G00 Z0.3000  
G00 X0.3235  Y1.1376  
G01 Z-0.0070 F5     
G01 X0.3262  Y1.1356  F7     
G01 X0.3248  Y1.1371  
G01 X0.3235  Y1.1376  
G00 Z0.3000  
G00 X0.3692  Y1.0420  
G01 Z-0.0070 F5     
G01 X0.3692  Y1.0318  F7     
G01 X0.3817  Y1.0442  
G01 X0.4183  Y1.0442  
G01 X0.4203  Y1.0423  
G01 X0.4192  Y1.0441  
G01 X0.4182  Y1.0480  
G01 X0.4182  Y1.0520  
G01 X0.4192  Y1.0559  
G01 X0.4203  Y1.0577  
G01 X0.4183  Y1.0557  
G01 X0.3830  Y1.0557  
G01 X0.3692  Y1.0420  
G00 Z0.3000  
G00 X0.3692  Y0.9682  
G01 Z-0.0070 F5     
G01 X0.3692  Y0.9475  F7     
G01 X0.3679  Y0.9426  
G01 X0.3654  Y0.9382  
G01 X0.3618  Y0.9346  
G01 X0.3574  Y0.9321  
G01 X0.3525  Y0.9307  
G01 X0.3318  Y0.9307  
G01 X0.3442  Y0.9183  
G01 X0.3442  Y0.8817  
G01 X0.3423  Y0.8797  
G01 X0.3441  Y0.8808  
G01 X0.3480  Y0.8818  
G01 X0.3520  Y0.8818  
G01 X0.3559  Y0.8808  
G01 X0.3577  Y0.8797  
G01 X0.3558  Y0.8817  
G01 X0.3558  Y0.9183  
G01 X0.3817  Y0.9442  
G01 X0.4183  Y0.9442  
G01 X0.4442  Y0.9183  
G01 X0.4442  Y0.8968  
G01 X0.4448  Y0.8988  
G01 X0.4468  Y0.9023  
G01 X0.4496  Y0.9051  
G01 X0.4531  Y0.9071  
G01 X0.4570  Y0.9082  
G01 X0.4610  Y0.9082  
G01 X0.4649  Y0.9071  
G01 X0.4667  Y0.9061  
G01 X0.4170  Y0.9557  
G01 X0.3817  Y0.9557  
G01 X0.3692  Y0.9682  
G00 Z0.3000  
G00 X0.4442  Y0.9830  
G01 Z-0.0070 F5     
G01 X0.4458  Y0.9814  F7     
G01 X0.4448  Y0.9832  
G01 X0.4442  Y0.9852  
G01 X0.4442  Y0.9830  
G00 Z0.3000  
G00 X0.4792  Y0.8936  
G01 Z-0.0070 F5     
G01 X0.4802  Y0.8918  F7     
G01 X0.4808  Y0.8898  
G01 X0.4808  Y0.8920  
G01 X0.4792  Y0.8936  
G00 Z0.3000  
G00 X0.4208  Y0.8583  
G01 Z-0.0070 F5     
G01 X0.4192  Y0.8567  F7     
G01 X0.4192  Y0.8544  
G01 X0.4198  Y0.8564  
G01 X0.4208  Y0.8583  
G00 Z0.3000  
G00 X0.3807  Y0.8567  
G01 Z-0.0070 F5     
G01 X0.3792  Y0.8583  F7     
G01 X0.3802  Y0.8564  
G01 X0.3807  Y0.8544  
G01 X0.3807  Y0.8567  
G00 Z0.3000  
G00 X0.2102  Y1.0808  
G01 Z-0.0070 F5     
G01 X0.2080  Y1.0808  F7     
G01 X0.2064  Y1.0792  
G01 X0.2082  Y1.0802  
G01 X0.2102  Y1.0808  
G00 Z0.3000  
G00 X0.1602  Y0.3192  
G01 Z-0.0070 F5     
G01 X0.1582  Y0.3198  F7     
G01 X0.1564  Y0.3208  
G01 X0.1580  Y0.3192  
G01 X0.1602  Y0.3192  
G00 Z0.3000  
G00 X0.4564  Y0.2208  
G01 Z-0.0070 F5     
G01 X0.4580  Y0.2192  F7     
G01 X0.4602  Y0.2192  
G01 X0.4582  Y0.2198  
G01 X0.4564  Y0.2208  
G00 Z0.3000  
G00 X0.4898  Y0.2192  
G01 Z-0.0070 F5     
G01 X0.4920  Y0.2192  F7     
G01 X0.4936  Y0.2208  
G01 X0.4918  Y0.2198  
G01 X0.4898  Y0.2192  
G00 Z0.3000  
G00 X0.5292  Y0.2564  
G01 Z-0.0070 F5     
G01 X0.5308  Y0.2580  F7     
G01 X0.5308  Y0.2602  
G01 X0.5302  Y0.2582  
G01 X0.5292  Y0.2564  
G00 Z0.3000  
G00 X0.5308  Y0.4398  
G01 Z-0.0070 F5     
G01 X0.5308  Y0.4420  F7     
G01 X0.5292  Y0.4436  
G01 X0.5302  Y0.4418  
G01 X0.5308  Y0.4398  
G00 Z0.3000  
G00 X0.5208  Y0.5064  
G01 Z-0.0070 F5     
G01 X0.5198  Y0.5082  F7     
G01 X0.5192  Y0.5102  
G01 X0.5192  Y0.5080  
G01 X0.5208  Y0.5064  
G00 Z0.3000  
G00 X0.0338  Y0.0376  
G01 Z-0.0070 F5     
G01 X0.0311  Y0.0422  F7     
G01 X0.0297  Y0.0473  
G01 X0.0297  Y1.3363  
G01 X0.0297  Y1.3417  
G01 X0.0311  Y1.3468  
G01 X0.0338  Y1.3514  
G01 X0.0376  Y1.3552  
G01 X0.0422  Y1.3579  
G01 X0.0473  Y1.3593  
G01 X0.6527  Y1.3593  
G01 X0.6578  Y1.3579  
G01 X0.6624  Y1.3552  
G01 X0.6662  Y1.3514  
G01 X0.6689  Y1.3468  
G01 X0.6702  Y1.3417  
G01 X0.6702  Y0.0473  
G01 X0.6689  Y0.0422  
G01 X0.6662  Y0.0376  
G01 X0.6624  Y0.0338  
G01 X0.6578  Y0.0311  
G01 X0.6527  Y0.0297  
G01 X0.0473  Y0.0297  
G01 X0.0422  Y0.0311  
G01 X0.0376  Y0.0338  
G01 X0.0338  Y0.0376  
G00 Z0.3000  
G00 X0.1242  Y0.3857  
G01 Z-0.0070 F5     
G01 X0.1262  Y0.3868  F7     
G01 X0.1291  Y0.3876  
G01 X0.1285  Y0.3885  
G01 X0.1267  Y0.3929  
G01 X0.1258  Y0.3976  
G01 X0.1258  Y0.9524  
G01 X0.1267  Y0.9571  
G01 X0.1285  Y0.9615  
G01 X0.1291  Y0.9624  
G01 X0.1262  Y0.9632  
G01 X0.1242  Y0.9643  
G01 X0.1242  Y0.3857  
G00 Z0.3000  
G00 X0.1967  Y0.3876  
G01 Z-0.0070 F5     
G01 X0.2008  Y0.3835  F7     
G01 X0.2008  Y0.3893  
G01 X0.1988  Y0.3882  
G01 X0.1967  Y0.3876  
G00 Z0.3000  
G00 X0.1976  Y0.3257  
G01 Z-0.0070 F5     
G01 X0.1929  Y0.3267  F7     
G01 X0.1885  Y0.3285  
G01 X0.1876  Y0.3291  
G01 X0.1868  Y0.3262  
G01 X0.1857  Y0.3242  
G01 X0.2071  Y0.3242  
G01 X0.2078  Y0.3257  
G01 X0.1976  Y0.3257  
G00 Z0.3000  
G00 X0.2944  Y0.3213  
G01 Z-0.0070 F5     
G01 X0.2956  Y0.3189  F7     
G01 X0.2980  Y0.3115  
G01 X0.2992  Y0.3039  
G01 X0.2992  Y0.2961  
G01 X0.2980  Y0.2885  
G01 X0.2975  Y0.2868  
G01 X0.3008  Y0.2868  
G01 X0.3008  Y0.3150  
G01 X0.2944  Y0.3213  
G00 Z0.3000  
G00 X0.2939  Y0.3742  
G01 Z-0.0070 F5     
G01 X0.3024  Y0.3742  F7     
G01 X0.3070  Y0.3733  
G01 X0.3008  Y0.3796  
G01 X0.3008  Y0.4132  
G01 X0.2992  Y0.4132  
G01 X0.2992  Y0.3796  
G01 X0.2939  Y0.3742  
G00 Z0.3000  
G00 X0.3335  Y0.3508  
G01 Z-0.0070 F5     
G01 X0.3350  Y0.3492  F7     
G01 X0.3665  Y0.3492  
G01 X0.3650  Y0.3508  
G01 X0.3335  Y0.3508  
G00 Z0.3000  
G00 X0.4242  Y0.4439  
G01 Z-0.0070 F5     
G01 X0.4258  Y0.4454  F7     
G01 X0.4258  Y0.6143  
G01 X0.4238  Y0.6132  
G01 X0.4209  Y0.6124  
G01 X0.4215  Y0.6115  
G01 X0.4233  Y0.6071  
G01 X0.4242  Y0.6024  
G01 X0.4242  Y0.4439  
G00 Z0.3000  
G00 X0.4742  Y0.4857  
G01 Z-0.0070 F5     
G01 X0.4762  Y0.4868  F7     
G01 X0.4791  Y0.4876  
G01 X0.4785  Y0.4885  
G01 X0.4767  Y0.4929  
G01 X0.4758  Y0.4976  
G01 X0.4758  Y0.6643  
G01 X0.4738  Y0.6632  
G01 X0.4709  Y0.6624  
G01 X0.4715  Y0.6615  
G01 X0.4733  Y0.6571  
G01 X0.4742  Y0.6524  
G01 X0.4742  Y0.4857  
G00 Z0.3000  
G00 X0.4393  Y0.2507  
G01 Z-0.0070 F5     
G01 X0.4335  Y0.2507  F7     
G01 X0.4376  Y0.2467  
G01 X0.4382  Y0.2488  
G01 X0.4393  Y0.2507  
G00 Z0.3000  
G00 X0.1791  Y0.4376  
G01 Z-0.0070 F5     
G01 X0.1785  Y0.4385  F7     
G01 X0.1767  Y0.4429  
G01 X0.1757  Y0.4476  
G01 X0.1757  Y0.9024  
G01 X0.1767  Y0.9071  
G01 X0.1785  Y0.9115  
G01 X0.1791  Y0.9124  
G01 X0.1762  Y0.9132  
G01 X0.1742  Y0.9143  
G01 X0.1742  Y0.4357  
G01 X0.1762  Y0.4368  
G01 X0.1784  Y0.4374  
G01 X0.1791  Y0.4376  
G00 Z0.3000  
G00 X0.2467  Y0.9124  
G01 Z-0.0070 F5     
G01 X0.2488  Y0.9118  F7     
G01 X0.2507  Y0.9107  
G01 X0.2507  Y0.9165  
G01 X0.2467  Y0.9124  
G00 Z0.3000  
G00 X0.2476  Y0.9742  
G01 Z-0.0070 F5     
G01 X0.2561  Y0.9742  F7     
G01 X0.2546  Y0.9758  
G01 X0.2357  Y0.9758  
G01 X0.2368  Y0.9738  
G01 X0.2376  Y0.9709  
G01 X0.2385  Y0.9715  
G01 X0.2429  Y0.9733  
G01 X0.2476  Y0.9742  
G00 Z0.3000  
G00 X0.2868  Y1.0492  
G01 Z-0.0070 F5     
G01 X0.3204  Y1.0492  F7     
G01 X0.3257  Y1.0439  
G01 X0.3257  Y1.0524  
G01 X0.3267  Y1.0571  
G01 X0.3275  Y1.0591  
G01 X0.3258  Y1.0579  
G01 X0.3189  Y1.0544  
G01 X0.3115  Y1.0520  
G01 X0.3039  Y1.0508  
G01 X0.2961  Y1.0508  
G01 X0.2885  Y1.0520  
G01 X0.2868  Y1.0525  
G01 X0.2868  Y1.0492  
G00 Z0.3000  
G00 X0.3444  Y1.0787  
G01 Z-0.0070 F5     
G01 X0.3508  Y1.0850  F7     
G01 X0.3508  Y1.1132  
G01 X0.3475  Y1.1132  
G01 X0.3480  Y1.1115  
G01 X0.3492  Y1.1039  
G01 X0.3492  Y1.0961  
G01 X0.3480  Y1.0885  
G01 X0.3456  Y1.0811  
G01 X0.3444  Y1.0787  
G00 Z0.3000  
G00 X0.3835  Y1.0492  
G01 Z-0.0070 F5     
G01 X0.4132  Y1.0492  F7     
G01 X0.4132  Y1.0508  
G01 X0.3850  Y1.0508  
G01 X0.3835  Y1.0492  
G00 Z0.3000  
G00 X0.3742  Y0.9561  
G01 Z-0.0070 F5     
G01 X0.3742  Y0.9476  F7     
G01 X0.3733  Y0.9430  
G01 X0.3796  Y0.9492  
G01 X0.4165  Y0.9492  
G01 X0.4150  Y0.9507  
G01 X0.3796  Y0.9507  
G01 X0.3742  Y0.9561  
G00 Z0.3000  
G00 X0.3570  Y0.9267  
G01 Z-0.0070 F5     
G01 X0.3524  Y0.9257  F7     
G01 X0.3439  Y0.9257  
G01 X0.3492  Y0.9204  
G01 X0.3492  Y0.8868  
G01 X0.3508  Y0.8868  
G01 X0.3508  Y0.9204  
G01 X0.3570  Y0.9267  
G00 Z0.3000  
G00 X0.4492  Y0.9165  
G01 Z-0.0070 F5     
G01 X0.4492  Y0.9107  F7     
G01 X0.4512  Y0.9118  
G01 X0.4533  Y0.9124  
G01 X0.4492  Y0.9165  
G00 Z0.3000  
G00 X0.0304  Y0.0339  
G01 Z-0.0070 F5     
G01 X0.0276  Y0.0380  F7     
G01 X0.0257  Y0.0426  
G01 X0.0248  Y0.0475  
G01 X0.0247  Y1.3365  
G01 X0.0247  Y1.3415  
G01 X0.0257  Y1.3464  
G01 X0.0276  Y1.3510  
G01 X0.0304  Y1.3551  
G01 X0.0339  Y1.3586  
G01 X0.0380  Y1.3614  
G01 X0.0426  Y1.3633  
G01 X0.0429  Y1.3633  
G01 X0.0475  Y1.3643  
G01 X0.6525  Y1.3643  
G01 X0.6574  Y1.3633  
G01 X0.6620  Y1.3614  
G01 X0.6661  Y1.3586  
G01 X0.6696  Y1.3551  
G01 X0.6724  Y1.3510  
G01 X0.6743  Y1.3464  
G01 X0.6752  Y1.3415  
G01 X0.6752  Y1.3365  
G01 X0.6752  Y0.0525  
G01 X0.6752  Y0.0475  
G01 X0.6743  Y0.0426  
G01 X0.6724  Y0.0380  
G01 X0.6696  Y0.0339  
G01 X0.6661  Y0.0304  
G01 X0.6620  Y0.0276  
G01 X0.6574  Y0.0257  
G01 X0.6525  Y0.0248  
G01 X0.0475  Y0.0248  
G01 X0.0426  Y0.0257  
G01 X0.0380  Y0.0276  
G01 X0.0339  Y0.0304  
G01 X0.0304  Y0.0339  
G00 Z0.3000  
G00 X0.0265  Y0.0307  
G01 Z-0.0070 F5     
G01 X0.0232  Y0.0357  F7     
G01 X0.0209  Y0.0412  
G01 X0.0198  Y0.0470  
G01 X0.0197  Y1.3360  
G01 X0.0197  Y1.3420  
G01 X0.0209  Y1.3478  
G01 X0.0232  Y1.3533  
G01 X0.0265  Y1.3583  
G01 X0.0307  Y1.3625  
G01 X0.0357  Y1.3658  
G01 X0.0412  Y1.3681  
G01 X0.0470  Y1.3693  
G01 X0.6530  Y1.3693  
G01 X0.6588  Y1.3681  
G01 X0.6643  Y1.3658  
G01 X0.6693  Y1.3625  
G01 X0.6735  Y1.3583  
G01 X0.6768  Y1.3533  
G01 X0.6791  Y1.3478  
G01 X0.6802  Y1.3420  
G01 X0.6802  Y1.3360  
G01 X0.6802  Y0.0530  
G01 X0.6802  Y0.0470  
G01 X0.6791  Y0.0412  
G01 X0.6768  Y0.0357  
G01 X0.6735  Y0.0307  
G01 X0.6693  Y0.0265  
G01 X0.6643  Y0.0232  
G01 X0.6588  Y0.0209  
G01 X0.6530  Y0.0198  
G01 X0.0470  Y0.0198  
G01 X0.0412  Y0.0209  
G01 X0.0357  Y0.0232  
G01 X0.0307  Y0.0265  
G01 X0.0265  Y0.0307  
G00 Z0.3000  
G82 X0.2500  Y0.3000  Z-0.0110 F20    R0.3000  P1.000000
G82 X0.2500  Y0.4000  
G82 X0.3500  Y0.3000  
G82 X0.3500  Y0.4000  
G82 X0.4500  Y0.3000  
G82 X0.4500  Y0.4000  
G82 X0.3000  Y1.1000  
G82 X0.4000  Y1.1000  
G82 X0.3000  Y1.0000  
G82 X0.4000  Y1.0000  
G82 X0.3000  Y0.9000  
G82 X0.4000  Y0.9000  
G00 Z0.5000  
M05
M02
