(.../EagleCAD.Playground/PCB-GCODE/pcb-gcode.ulp)
(Copyright 2005 - 2012 by John Johnson)
(See readme.txt for licensing terms.)
(This file generated from the board:)
(.../IDers Test/SMM Test Jig/CPLD_probe.brd)
(Current profile is .../EagleCAD.Playground/PCB-GCODE/profiles/mach.pp  )
(This file generated 5/24/2015 5:28:29 PM)
(Settings from pcb-machine.h)
(spindle on time = 3.0000)
(  Tool Size)
(0.0025  )
(spindle speed = 30000.0000)
(tool change at 0.0000  0.0000  1.0000  )
(feed rate xy = F7     )
(feed rate z  = F5     )
(Z Axis Settings)
(  High     Up        Down     Drill)
(0.5000  	0.3000  	-0.0070 	-0.0630 )
(Settings from pcb-defaults.h)
(isolate min = 0.0010)
(isolate max = 0.0200)
(isolate step = 0.0050)
(Generated top outlines, top drill, )
(Unit of measure: inch)
(Inch Mode)
G20
(Absolute Coordinates)
G90
S30000
G00 Z0.5000  
G00 X0.0000  Y0.0000  
M03
G04 P3.000000
G00 Z0.3000  
G00 X0.0418  Y0.0437  
G01 Z-0.0070 F5     
G01 X0.0404  Y0.0460  F7     
G01 X0.0398  Y0.0487  
G01 X0.0398  Y1.5404  
G01 X0.0404  Y1.5430  
G01 X0.0418  Y1.5453  
G01 X0.0437  Y1.5472  
G01 X0.0460  Y1.5486  
G01 X0.0487  Y1.5493  
G01 X0.9013  Y1.5493  
G01 X0.9040  Y1.5486  
G01 X0.9063  Y1.5472  
G01 X0.9082  Y1.5453  
G01 X0.9096  Y1.5430  
G01 X0.9102  Y1.5404  
G01 X0.9102  Y0.0513  
G01 X0.9102  Y0.0487  
G01 X0.9096  Y0.0460  
G01 X0.9082  Y0.0437  
G01 X0.9063  Y0.0418  
G01 X0.9040  Y0.0404  
G01 X0.9013  Y0.0398  
G01 X0.0487  Y0.0398  
G01 X0.0460  Y0.0404  
G01 X0.0437  Y0.0418  
G01 X0.0418  Y0.0437  
G00 Z0.3000  
G00 X0.1764  Y0.3646  
G01 Z-0.0070 F5     
G01 X0.1917  Y0.3582  F7     
G01 X0.2083  Y0.3582  
G01 X0.2236  Y0.3646  
G01 X0.2354  Y0.3764  
G01 X0.2383  Y0.3833  
G01 X0.2384  Y0.3840  
G01 X0.2388  Y0.3845  
G01 X0.2390  Y0.3852  
G01 X0.2395  Y0.3857  
G01 X0.2398  Y0.3863  
G01 X0.2403  Y0.3868  
G01 X0.2407  Y0.3873  
G01 X0.2412  Y0.3877  
G01 X0.2417  Y0.3882  
G01 X0.2423  Y0.3885  
G01 X0.2428  Y0.3890  
G01 X0.2435  Y0.3892  
G01 X0.2440  Y0.3896  
G01 X0.2447  Y0.3897  
G01 X0.2453  Y0.3900  
G01 X0.2460  Y0.3901  
G01 X0.2467  Y0.3902  
G01 X0.2473  Y0.3902  
G01 X0.2480  Y0.3903  
G01 X0.2487  Y0.3902  
G01 X0.2493  Y0.3902  
G01 X0.2500  Y0.3901  
G01 X0.2507  Y0.3900  
G01 X0.2513  Y0.3897  
G01 X0.2520  Y0.3896  
G01 X0.2525  Y0.3892  
G01 X0.2532  Y0.3890  
G01 X0.2537  Y0.3885  
G01 X0.2543  Y0.3882  
G01 X0.2548  Y0.3877  
G01 X0.2553  Y0.3873  
G01 X0.2557  Y0.3868  
G01 X0.2562  Y0.3863  
G01 X0.2565  Y0.3857  
G01 X0.2570  Y0.3852  
G01 X0.2572  Y0.3845  
G01 X0.2576  Y0.3840  
G01 X0.2577  Y0.3833  
G01 X0.2578  Y0.3832  
G01 X0.2827  Y0.3582  
G01 X0.3109  Y0.3582  
G01 X0.3135  Y0.3576  
G01 X0.3159  Y0.3562  
G01 X0.3809  Y0.2912  
G01 X0.3888  Y0.2833  
G01 X0.3961  Y0.2802  
G01 X0.5039  Y0.2802  
G01 X0.5112  Y0.2833  
G01 X0.7088  Y0.4809  
G01 X0.7167  Y0.4888  
G01 X0.7197  Y0.4961  
G01 X0.7197  Y1.2539  
G01 X0.7167  Y1.2612  
G01 X0.7112  Y1.2667  
G01 X0.7039  Y1.2697  
G01 X0.6507  Y1.2697  
G01 X0.6480  Y1.2704  
G01 X0.6457  Y1.2718  
G01 X0.6438  Y1.2737  
G01 X0.6424  Y1.2760  
G01 X0.6417  Y1.2787  
G01 X0.6417  Y1.3173  
G01 X0.6218  Y1.3372  
G01 X0.6204  Y1.3396  
G01 X0.6197  Y1.3422  
G01 X0.6197  Y1.4039  
G01 X0.6167  Y1.4112  
G01 X0.6112  Y1.4167  
G01 X0.6039  Y1.4197  
G01 X0.3461  Y1.4197  
G01 X0.3388  Y1.4167  
G01 X0.3328  Y1.4107  
G01 X0.1833  Y1.2612  
G01 X0.1802  Y1.2539  
G01 X0.1802  Y0.5422  
G01 X0.1796  Y0.5396  
G01 X0.1782  Y0.5372  
G01 X0.1582  Y0.5173  
G01 X0.1582  Y0.4827  
G01 X0.1832  Y0.4578  
G01 X0.1833  Y0.4577  
G01 X0.1840  Y0.4576  
G01 X0.1845  Y0.4572  
G01 X0.1852  Y0.4570  
G01 X0.1857  Y0.4565  
G01 X0.1863  Y0.4562  
G01 X0.1868  Y0.4557  
G01 X0.1873  Y0.4553  
G01 X0.1877  Y0.4548  
G01 X0.1882  Y0.4543  
G01 X0.1885  Y0.4537  
G01 X0.1890  Y0.4532  
G01 X0.1892  Y0.4525  
G01 X0.1896  Y0.4520  
G01 X0.1897  Y0.4513  
G01 X0.1900  Y0.4507  
G01 X0.1901  Y0.4500  
G01 X0.1903  Y0.4493  
G01 X0.1903  Y0.4487  
G01 X0.1903  Y0.4480  
G01 X0.1903  Y0.4473  
G01 X0.1903  Y0.4467  
G01 X0.1901  Y0.4460  
G01 X0.1900  Y0.4453  
G01 X0.1897  Y0.4447  
G01 X0.1896  Y0.4440  
G01 X0.1892  Y0.4435  
G01 X0.1890  Y0.4428  
G01 X0.1885  Y0.4423  
G01 X0.1882  Y0.4417  
G01 X0.1877  Y0.4412  
G01 X0.1873  Y0.4407  
G01 X0.1868  Y0.4403  
G01 X0.1863  Y0.4398  
G01 X0.1857  Y0.4395  
G01 X0.1852  Y0.4390  
G01 X0.1845  Y0.4388  
G01 X0.1840  Y0.4384  
G01 X0.1833  Y0.4383  
G01 X0.1764  Y0.4354  
G01 X0.1646  Y0.4236  
G01 X0.1582  Y0.4083  
G01 X0.1582  Y0.3917  
G01 X0.1646  Y0.3764  
G01 X0.1764  Y0.3646  
G00 Z0.3000  
G00 X0.1794  Y0.3749  
G01 Z-0.0070 F5     
G01 X0.1749  Y0.3794  F7     
G01 X0.1714  Y0.3847  
G01 X0.1690  Y0.3906  
G01 X0.1678  Y0.3968  
G01 X0.1678  Y0.4032  
G01 X0.1690  Y0.4094  
G01 X0.1714  Y0.4153  
G01 X0.1749  Y0.4206  
G01 X0.1794  Y0.4251  
G01 X0.1847  Y0.4286  
G01 X0.1906  Y0.4310  
G01 X0.1968  Y0.4322  
G01 X0.2032  Y0.4322  
G01 X0.2094  Y0.4310  
G01 X0.2144  Y0.4289  
G01 X0.2397  Y0.4542  
G01 X0.2397  Y1.2013  
G01 X0.2404  Y1.2040  
G01 X0.2418  Y1.2063  
G01 X0.3418  Y1.3063  
G01 X0.3437  Y1.3082  
G01 X0.3460  Y1.3096  
G01 X0.3487  Y1.3102  
G01 X0.4693  Y1.3102  
G01 X0.4714  Y1.3153  
G01 X0.4749  Y1.3206  
G01 X0.4794  Y1.3251  
G01 X0.4847  Y1.3286  
G01 X0.4906  Y1.3310  
G01 X0.4968  Y1.3322  
G01 X0.5032  Y1.3322  
G01 X0.5094  Y1.3310  
G01 X0.5153  Y1.3286  
G01 X0.5206  Y1.3251  
G01 X0.5251  Y1.3206  
G01 X0.5286  Y1.3153  
G01 X0.5310  Y1.3094  
G01 X0.5322  Y1.3032  
G01 X0.5322  Y1.2968  
G01 X0.5310  Y1.2906  
G01 X0.5286  Y1.2847  
G01 X0.5251  Y1.2794  
G01 X0.5206  Y1.2749  
G01 X0.5153  Y1.2714  
G01 X0.5094  Y1.2690  
G01 X0.5032  Y1.2677  
G01 X0.4968  Y1.2677  
G01 X0.4906  Y1.2690  
G01 X0.4847  Y1.2714  
G01 X0.4794  Y1.2749  
G01 X0.4749  Y1.2794  
G01 X0.4714  Y1.2847  
G01 X0.4693  Y1.2897  
G01 X0.3542  Y1.2897  
G01 X0.2602  Y1.1958  
G01 X0.2602  Y0.4487  
G01 X0.2596  Y0.4460  
G01 X0.2582  Y0.4437  
G01 X0.2563  Y0.4418  
G01 X0.2289  Y0.4144  
G01 X0.2310  Y0.4094  
G01 X0.2322  Y0.4032  
G01 X0.2322  Y0.3968  
G01 X0.2310  Y0.3906  
G01 X0.2286  Y0.3847  
G01 X0.2251  Y0.3794  
G01 X0.2206  Y0.3749  
G01 X0.2153  Y0.3714  
G01 X0.2094  Y0.3690  
G01 X0.2032  Y0.3678  
G01 X0.1968  Y0.3678  
G01 X0.1906  Y0.3690  
G01 X0.1847  Y0.3714  
G01 X0.1794  Y0.3749  
G00 Z0.3000  
G00 X0.2677  Y0.3866  
G01 Z-0.0070 F5     
G01 X0.2677  Y0.4134  F7     
G01 X0.2866  Y0.4322  
G01 X0.3134  Y0.4322  
G01 X0.3322  Y0.4134  
G01 X0.3322  Y0.3866  
G01 X0.3301  Y0.3844  
G01 X0.4042  Y0.3102  
G01 X0.4958  Y0.3102  
G01 X0.6897  Y0.5042  
G01 X0.6897  Y1.2397  
G01 X0.5542  Y1.2397  
G01 X0.5301  Y1.2156  
G01 X0.5322  Y1.2134  
G01 X0.5322  Y1.1866  
G01 X0.5134  Y1.1678  
G01 X0.4866  Y1.1678  
G01 X0.4677  Y1.1866  
G01 X0.4677  Y1.2134  
G01 X0.4866  Y1.2322  
G01 X0.5134  Y1.2322  
G01 X0.5156  Y1.2301  
G01 X0.5437  Y1.2582  
G01 X0.5460  Y1.2596  
G01 X0.5487  Y1.2602  
G01 X0.7013  Y1.2602  
G01 X0.7040  Y1.2596  
G01 X0.7063  Y1.2582  
G01 X0.7082  Y1.2563  
G01 X0.7096  Y1.2540  
G01 X0.7102  Y1.2513  
G01 X0.7102  Y0.4987  
G01 X0.7096  Y0.4960  
G01 X0.7082  Y0.4937  
G01 X0.7063  Y0.4918  
G01 X0.5063  Y0.2918  
G01 X0.5040  Y0.2904  
G01 X0.5013  Y0.2898  
G01 X0.3987  Y0.2898  
G01 X0.3960  Y0.2904  
G01 X0.3937  Y0.2918  
G01 X0.3918  Y0.2937  
G01 X0.3156  Y0.3699  
G01 X0.3134  Y0.3678  
G01 X0.2866  Y0.3678  
G01 X0.2677  Y0.3866  
G00 Z0.3000  
G00 X0.3678  Y0.3866  
G01 Z-0.0070 F5     
G01 X0.3678  Y0.4134  F7     
G01 X0.3699  Y0.4156  
G01 X0.3437  Y0.4418  
G01 X0.3418  Y0.4437  
G01 X0.3404  Y0.4460  
G01 X0.3397  Y0.4487  
G01 X0.3397  Y0.5513  
G01 X0.3404  Y0.5540  
G01 X0.3418  Y0.5563  
G01 X0.4898  Y0.7042  
G01 X0.4898  Y1.0677  
G01 X0.4866  Y1.0677  
G01 X0.4677  Y1.0866  
G01 X0.4677  Y1.1134  
G01 X0.4866  Y1.1322  
G01 X0.5134  Y1.1322  
G01 X0.5322  Y1.1134  
G01 X0.5322  Y1.0866  
G01 X0.5134  Y1.0677  
G01 X0.5102  Y1.0677  
G01 X0.5102  Y0.6987  
G01 X0.5096  Y0.6960  
G01 X0.5082  Y0.6937  
G01 X0.5063  Y0.6918  
G01 X0.3602  Y0.5458  
G01 X0.3602  Y0.4542  
G01 X0.3844  Y0.4301  
G01 X0.3866  Y0.4322  
G01 X0.4134  Y0.4322  
G01 X0.4322  Y0.4134  
G01 X0.4322  Y0.3866  
G01 X0.4134  Y0.3678  
G01 X0.3866  Y0.3678  
G01 X0.3678  Y0.3866  
G00 Z0.3000  
G00 X0.3862  Y0.3543  
G01 Z-0.0070 F5     
G01 X0.3881  Y0.3562  F7     
G01 X0.3905  Y0.3576  
G01 X0.3931  Y0.3582  
G01 X0.4173  Y0.3582  
G01 X0.4417  Y0.3827  
G01 X0.4417  Y0.4173  
G01 X0.4172  Y0.4418  
G01 X0.4153  Y0.4437  
G01 X0.4140  Y0.4460  
G01 X0.4133  Y0.4487  
G01 X0.4133  Y0.4513  
G01 X0.4140  Y0.4540  
G01 X0.4153  Y0.4563  
G01 X0.4172  Y0.4582  
G01 X0.4353  Y0.4763  
G01 X0.4372  Y0.4782  
G01 X0.4396  Y0.4796  
G01 X0.4422  Y0.4802  
G01 X0.5039  Y0.4802  
G01 X0.5112  Y0.4833  
G01 X0.5172  Y0.4893  
G01 X0.6167  Y0.5888  
G01 X0.6197  Y0.5961  
G01 X0.6197  Y1.0578  
G01 X0.6204  Y1.0604  
G01 X0.6218  Y1.0628  
G01 X0.6417  Y1.0827  
G01 X0.6417  Y1.1173  
G01 X0.6172  Y1.1418  
G01 X0.6153  Y1.1437  
G01 X0.6140  Y1.1460  
G01 X0.6133  Y1.1487  
G01 X0.6133  Y1.1513  
G01 X0.6140  Y1.1540  
G01 X0.6153  Y1.1563  
G01 X0.6417  Y1.1827  
G01 X0.6417  Y1.2213  
G01 X0.6424  Y1.2240  
G01 X0.6438  Y1.2263  
G01 X0.6457  Y1.2282  
G01 X0.6480  Y1.2296  
G01 X0.6507  Y1.2302  
G01 X0.6713  Y1.2302  
G01 X0.6740  Y1.2296  
G01 X0.6763  Y1.2282  
G01 X0.6782  Y1.2263  
G01 X0.6796  Y1.2240  
G01 X0.6802  Y1.2213  
G01 X0.6802  Y0.5111  
G01 X0.6796  Y0.5085  
G01 X0.6782  Y0.5061  
G01 X0.4958  Y0.3237  
G01 X0.4939  Y0.3218  
G01 X0.4915  Y0.3204  
G01 X0.4889  Y0.3197  
G01 X0.4111  Y0.3197  
G01 X0.4085  Y0.3204  
G01 X0.4061  Y0.3218  
G01 X0.3881  Y0.3398  
G01 X0.3862  Y0.3417  
G01 X0.3849  Y0.3440  
G01 X0.3842  Y0.3467  
G01 X0.3842  Y0.3493  
G01 X0.3849  Y0.3520  
G01 X0.3862  Y0.3543  
G00 Z0.3000  
G00 X0.3866  Y0.4677  
G01 Z-0.0070 F5     
G01 X0.3678  Y0.4866  F7     
G01 X0.3678  Y0.5134  
G01 X0.3866  Y0.5322  
G01 X0.4134  Y0.5322  
G01 X0.4322  Y0.5134  
G01 X0.4322  Y0.5102  
G01 X0.4958  Y0.5102  
G01 X0.5897  Y0.6042  
G01 X0.5897  Y1.0677  
G01 X0.5866  Y1.0677  
G01 X0.5677  Y1.0866  
G01 X0.5677  Y1.1134  
G01 X0.5866  Y1.1322  
G01 X0.6134  Y1.1322  
G01 X0.6322  Y1.1134  
G01 X0.6322  Y1.0866  
G01 X0.6134  Y1.0677  
G01 X0.6102  Y1.0677  
G01 X0.6102  Y0.5987  
G01 X0.6096  Y0.5960  
G01 X0.6082  Y0.5937  
G01 X0.5082  Y0.4937  
G01 X0.5063  Y0.4918  
G01 X0.5040  Y0.4904  
G01 X0.5013  Y0.4898  
G01 X0.4322  Y0.4898  
G01 X0.4322  Y0.4866  
G01 X0.4134  Y0.4677  
G01 X0.3866  Y0.4677  
G00 Z0.3000  
G00 X0.3134  Y0.4677  
G01 Z-0.0070 F5     
G01 X0.2866  Y0.4677  F7     
G01 X0.2677  Y0.4866  
G01 X0.2677  Y0.5134  
G01 X0.2866  Y0.5322  
G01 X0.2898  Y0.5322  
G01 X0.2898  Y1.1513  
G01 X0.2904  Y1.1540  
G01 X0.2918  Y1.1563  
G01 X0.2937  Y1.1582  
G01 X0.2960  Y1.1596  
G01 X0.2987  Y1.1602  
G01 X0.5458  Y1.1602  
G01 X0.5699  Y1.1844  
G01 X0.5677  Y1.1866  
G01 X0.5677  Y1.2134  
G01 X0.5866  Y1.2322  
G01 X0.6134  Y1.2322  
G01 X0.6322  Y1.2134  
G01 X0.6322  Y1.1866  
G01 X0.6134  Y1.1678  
G01 X0.5866  Y1.1678  
G01 X0.5844  Y1.1699  
G01 X0.5563  Y1.1418  
G01 X0.5540  Y1.1404  
G01 X0.5513  Y1.1398  
G01 X0.3102  Y1.1398  
G01 X0.3102  Y0.5322  
G01 X0.3134  Y0.5322  
G01 X0.3322  Y0.5134  
G01 X0.3322  Y0.4866  
G01 X0.3134  Y0.4677  
G00 Z0.3000  
G00 X0.2322  Y0.4866  
G01 Z-0.0070 F5     
G01 X0.2134  Y0.4677  F7     
G01 X0.1866  Y0.4677  
G01 X0.1678  Y0.4866  
G01 X0.1678  Y0.5134  
G01 X0.1866  Y0.5322  
G01 X0.1898  Y0.5322  
G01 X0.1898  Y1.2513  
G01 X0.1904  Y1.2540  
G01 X0.1918  Y1.2563  
G01 X0.3418  Y1.4063  
G01 X0.3437  Y1.4082  
G01 X0.3460  Y1.4096  
G01 X0.3487  Y1.4102  
G01 X0.6013  Y1.4102  
G01 X0.6040  Y1.4096  
G01 X0.6063  Y1.4082  
G01 X0.6082  Y1.4063  
G01 X0.6096  Y1.4040  
G01 X0.6102  Y1.4013  
G01 X0.6102  Y1.3322  
G01 X0.6134  Y1.3322  
G01 X0.6322  Y1.3134  
G01 X0.6322  Y1.2866  
G01 X0.6134  Y1.2677  
G01 X0.5866  Y1.2677  
G01 X0.5677  Y1.2866  
G01 X0.5677  Y1.3134  
G01 X0.5866  Y1.3322  
G01 X0.5897  Y1.3322  
G01 X0.5897  Y1.3898  
G01 X0.3542  Y1.3898  
G01 X0.2102  Y1.2458  
G01 X0.2102  Y0.5322  
G01 X0.2134  Y0.5322  
G01 X0.2322  Y0.5134  
G01 X0.2322  Y0.4866  
G00 Z0.3000  
G00 X0.3218  Y0.5661  
G01 Z-0.0070 F5     
G01 X0.3204  Y0.5685  F7     
G01 X0.3197  Y0.5711  
G01 X0.3197  Y1.1213  
G01 X0.3204  Y1.1240  
G01 X0.3218  Y1.1263  
G01 X0.3237  Y1.1282  
G01 X0.3260  Y1.1296  
G01 X0.3287  Y1.1302  
G01 X0.4493  Y1.1302  
G01 X0.4520  Y1.1296  
G01 X0.4543  Y1.1282  
G01 X0.4562  Y1.1263  
G01 X0.4576  Y1.1240  
G01 X0.4582  Y1.1213  
G01 X0.4582  Y1.1187  
G01 X0.4582  Y1.0827  
G01 X0.4763  Y1.0647  
G01 X0.4782  Y1.0628  
G01 X0.4796  Y1.0604  
G01 X0.4802  Y1.0578  
G01 X0.4802  Y0.7111  
G01 X0.4796  Y0.7085  
G01 X0.4782  Y0.7061  
G01 X0.3382  Y0.5661  
G01 X0.3363  Y0.5642  
G01 X0.3340  Y0.5629  
G01 X0.3313  Y0.5622  
G01 X0.3287  Y0.5622  
G01 X0.3260  Y0.5629  
G01 X0.3237  Y0.5642  
G01 X0.3218  Y0.5661  
G00 Z0.3000  
G00 X0.3862  Y0.5583  
G01 Z-0.0070 F5     
G01 X0.5088  Y0.6809  F7     
G01 X0.5167  Y0.6888  
G01 X0.5197  Y0.6961  
G01 X0.5197  Y1.0551  
G01 X0.5197  Y1.0578  
G01 X0.5204  Y1.0604  
G01 X0.5218  Y1.0628  
G01 X0.5437  Y1.0847  
G01 X0.5460  Y1.0860  
G01 X0.5487  Y1.0867  
G01 X0.5513  Y1.0867  
G01 X0.5540  Y1.0860  
G01 X0.5563  Y1.0847  
G01 X0.5582  Y1.0828  
G01 X0.5763  Y1.0647  
G01 X0.5782  Y1.0628  
G01 X0.5796  Y1.0604  
G01 X0.5802  Y1.0578  
G01 X0.5802  Y0.6111  
G01 X0.5796  Y0.6085  
G01 X0.5782  Y0.6061  
G01 X0.4958  Y0.5237  
G01 X0.4939  Y0.5218  
G01 X0.4915  Y0.5204  
G01 X0.4889  Y0.5197  
G01 X0.4422  Y0.5197  
G01 X0.4396  Y0.5204  
G01 X0.4372  Y0.5218  
G01 X0.4173  Y0.5417  
G01 X0.3931  Y0.5417  
G01 X0.3905  Y0.5424  
G01 X0.3881  Y0.5438  
G01 X0.3862  Y0.5457  
G01 X0.3849  Y0.5480  
G01 X0.3842  Y0.5507  
G01 X0.3842  Y0.5533  
G01 X0.3849  Y0.5560  
G01 X0.3862  Y0.5583  
G00 Z0.3000  
G00 X0.6641  Y0.3537  
G01 Z-0.0070 F5     
G01 X0.6463  Y0.3359  F7     
G01 X0.6367  Y0.3126  
G01 X0.6367  Y0.2874  
G01 X0.6463  Y0.2641  
G01 X0.6641  Y0.2463  
G01 X0.6874  Y0.2367  
G01 X0.7126  Y0.2367  
G01 X0.7359  Y0.2463  
G01 X0.7537  Y0.2641  
G01 X0.7633  Y0.2874  
G01 X0.7633  Y0.3126  
G01 X0.7537  Y0.3359  
G01 X0.7359  Y0.3537  
G01 X0.7126  Y0.3633  
G01 X0.6874  Y0.3633  
G01 X0.6641  Y0.3537  
G00 Z0.3000  
G00 X0.5548  Y1.2722  
G01 Z-0.0070 F5     
G01 X0.5545  Y1.2720  F7     
G01 X0.5543  Y1.2718  
G01 X0.5534  Y1.2713  
G01 X0.5525  Y1.2707  
G01 X0.5522  Y1.2706  
G01 X0.5520  Y1.2704  
G01 X0.5509  Y1.2702  
G01 X0.5500  Y1.2698  
G01 X0.5497  Y1.2698  
G01 X0.5493  Y1.2697  
G01 X0.5483  Y1.2697  
G01 X0.5473  Y1.2697  
G01 X0.5470  Y1.2697  
G01 X0.5467  Y1.2697  
G01 X0.5456  Y1.2700  
G01 X0.5446  Y1.2702  
G01 X0.5443  Y1.2704  
G01 X0.5440  Y1.2704  
G01 X0.5431  Y1.2710  
G01 X0.5422  Y1.2714  
G01 X0.5420  Y1.2716  
G01 X0.5417  Y1.2718  
G01 X0.5410  Y1.2725  
G01 X0.5402  Y1.2732  
G01 X0.5400  Y1.2735  
G01 X0.5398  Y1.2737  
G01 X0.5393  Y1.2746  
G01 X0.5387  Y1.2755  
G01 X0.5386  Y1.2758  
G01 X0.5384  Y1.2760  
G01 X0.5382  Y1.2770  
G01 X0.5378  Y1.2780  
G01 X0.5378  Y1.2783  
G01 X0.5377  Y1.2787  
G01 X0.5377  Y1.2797  
G01 X0.5377  Y1.2807  
G01 X0.5377  Y1.2810  
G01 X0.5377  Y1.2813  
G01 X0.5380  Y1.2824  
G01 X0.5382  Y1.2834  
G01 X0.5384  Y1.2837  
G01 X0.5384  Y1.2840  
G01 X0.5390  Y1.2849  
G01 X0.5394  Y1.2858  
G01 X0.5396  Y1.2860  
G01 X0.5398  Y1.2863  
G01 X0.5405  Y1.2870  
G01 X0.5412  Y1.2878  
G01 X0.5415  Y1.2880  
G01 X0.5417  Y1.2882  
G01 X0.5426  Y1.2887  
G01 X0.5435  Y1.2893  
G01 X0.5438  Y1.2894  
G01 X0.5440  Y1.2896  
G01 X0.5450  Y1.2898  
G01 X0.5460  Y1.2902  
G01 X0.5463  Y1.2902  
G01 X0.5467  Y1.2902  
G01 X0.5477  Y1.2902  
G01 X0.5487  Y1.2903  
G01 X0.5490  Y1.2902  
G01 X0.5493  Y1.2902  
G01 X0.5504  Y1.2900  
G01 X0.5514  Y1.2898  
G01 X0.5517  Y1.2896  
G01 X0.5520  Y1.2896  
G01 X0.5529  Y1.2890  
G01 X0.5538  Y1.2886  
G01 X0.5540  Y1.2884  
G01 X0.5543  Y1.2882  
G01 X0.5550  Y1.2875  
G01 X0.5558  Y1.2868  
G01 X0.5560  Y1.2865  
G01 X0.5562  Y1.2863  
G01 X0.5567  Y1.2854  
G01 X0.5573  Y1.2845  
G01 X0.5574  Y1.2842  
G01 X0.5576  Y1.2840  
G01 X0.5578  Y1.2830  
G01 X0.5582  Y1.2820  
G01 X0.5582  Y1.2817  
G01 X0.5582  Y1.2813  
G01 X0.5582  Y1.2803  
G01 X0.5583  Y1.2793  
G01 X0.5582  Y1.2790  
G01 X0.5582  Y1.2787  
G01 X0.5580  Y1.2776  
G01 X0.5578  Y1.2766  
G01 X0.5576  Y1.2763  
G01 X0.5576  Y1.2760  
G01 X0.5570  Y1.2751  
G01 X0.5566  Y1.2742  
G01 X0.5564  Y1.2740  
G01 X0.5562  Y1.2737  
G01 X0.5555  Y1.2730  
G01 X0.5548  Y1.2722  
G00 Z0.3000  
G00 X0.5543  Y1.3118  
G01 Z-0.0070 F5     
G01 X0.5537  Y1.3115  F7     
G01 X0.5532  Y1.3110  
G01 X0.5525  Y1.3108  
G01 X0.5520  Y1.3104  
G01 X0.5513  Y1.3103  
G01 X0.5507  Y1.3100  
G01 X0.5500  Y1.3099  
G01 X0.5493  Y1.3097  
G01 X0.5487  Y1.3097  
G01 X0.5480  Y1.3097  
G01 X0.5473  Y1.3097  
G01 X0.5467  Y1.3097  
G01 X0.5460  Y1.3099  
G01 X0.5453  Y1.3100  
G01 X0.5447  Y1.3103  
G01 X0.5440  Y1.3104  
G01 X0.5435  Y1.3108  
G01 X0.5428  Y1.3110  
G01 X0.5423  Y1.3115  
G01 X0.5417  Y1.3118  
G01 X0.5412  Y1.3123  
G01 X0.5407  Y1.3127  
G01 X0.5403  Y1.3132  
G01 X0.5398  Y1.3137  
G01 X0.5395  Y1.3143  
G01 X0.5390  Y1.3148  
G01 X0.5388  Y1.3155  
G01 X0.5384  Y1.3160  
G01 X0.5383  Y1.3167  
G01 X0.5354  Y1.3236  
G01 X0.5236  Y1.3354  
G01 X0.5083  Y1.3417  
G01 X0.4917  Y1.3417  
G01 X0.4764  Y1.3354  
G01 X0.4647  Y1.3237  
G01 X0.4628  Y1.3218  
G01 X0.4604  Y1.3204  
G01 X0.4578  Y1.3197  
G01 X0.3461  Y1.3197  
G01 X0.3388  Y1.3167  
G01 X0.3328  Y1.3107  
G01 X0.2382  Y1.2161  
G01 X0.2363  Y1.2142  
G01 X0.2340  Y1.2129  
G01 X0.2313  Y1.2122  
G01 X0.2287  Y1.2122  
G01 X0.2260  Y1.2129  
G01 X0.2237  Y1.2142  
G01 X0.2218  Y1.2161  
G01 X0.2204  Y1.2185  
G01 X0.2197  Y1.2211  
G01 X0.2197  Y1.2389  
G01 X0.2204  Y1.2415  
G01 X0.2218  Y1.2439  
G01 X0.3542  Y1.3763  
G01 X0.3561  Y1.3782  
G01 X0.3585  Y1.3796  
G01 X0.3611  Y1.3802  
G01 X0.5713  Y1.3802  
G01 X0.5740  Y1.3796  
G01 X0.5763  Y1.3782  
G01 X0.5782  Y1.3763  
G01 X0.5796  Y1.3740  
G01 X0.5802  Y1.3713  
G01 X0.5802  Y1.3449  
G01 X0.5802  Y1.3422  
G01 X0.5796  Y1.3396  
G01 X0.5782  Y1.3372  
G01 X0.5578  Y1.3168  
G01 X0.5577  Y1.3167  
G01 X0.5576  Y1.3160  
G01 X0.5572  Y1.3155  
G01 X0.5570  Y1.3148  
G01 X0.5565  Y1.3143  
G01 X0.5562  Y1.3137  
G01 X0.5557  Y1.3132  
G01 X0.5553  Y1.3127  
G01 X0.5548  Y1.3123  
G01 X0.5543  Y1.3118  
G00 Z0.3000  
G00 X0.4873  Y1.2593  
G01 Z-0.0070 F5     
G01 X0.4877  Y1.2588  F7     
G01 X0.4882  Y1.2583  
G01 X0.4885  Y1.2577  
G01 X0.4890  Y1.2572  
G01 X0.4892  Y1.2565  
G01 X0.4896  Y1.2560  
G01 X0.4897  Y1.2553  
G01 X0.4900  Y1.2547  
G01 X0.4901  Y1.2540  
G01 X0.4903  Y1.2533  
G01 X0.4903  Y1.2527  
G01 X0.4903  Y1.2520  
G01 X0.4903  Y1.2513  
G01 X0.4903  Y1.2507  
G01 X0.4901  Y1.2500  
G01 X0.4900  Y1.2493  
G01 X0.4897  Y1.2487  
G01 X0.4896  Y1.2480  
G01 X0.4892  Y1.2475  
G01 X0.4890  Y1.2468  
G01 X0.4885  Y1.2463  
G01 X0.4882  Y1.2457  
G01 X0.4877  Y1.2452  
G01 X0.4873  Y1.2447  
G01 X0.4868  Y1.2443  
G01 X0.4863  Y1.2438  
G01 X0.4857  Y1.2435  
G01 X0.4852  Y1.2430  
G01 X0.4845  Y1.2428  
G01 X0.4840  Y1.2424  
G01 X0.4833  Y1.2423  
G01 X0.4832  Y1.2422  
G01 X0.4582  Y1.2173  
G01 X0.4582  Y1.1787  
G01 X0.4576  Y1.1760  
G01 X0.4562  Y1.1737  
G01 X0.4543  Y1.1718  
G01 X0.4520  Y1.1704  
G01 X0.4493  Y1.1697  
G01 X0.2961  Y1.1697  
G01 X0.2888  Y1.1667  
G01 X0.2863  Y1.1642  
G01 X0.2840  Y1.1629  
G01 X0.2813  Y1.1622  
G01 X0.2787  Y1.1622  
G01 X0.2772  Y1.1626  
G01 X0.2760  Y1.1629  
G01 X0.2754  Y1.1633  
G01 X0.2737  Y1.1642  
G01 X0.2718  Y1.1661  
G01 X0.2704  Y1.1685  
G01 X0.2697  Y1.1711  
G01 X0.2697  Y1.1889  
G01 X0.2704  Y1.1915  
G01 X0.2718  Y1.1939  
G01 X0.3542  Y1.2763  
G01 X0.3561  Y1.2782  
G01 X0.3585  Y1.2796  
G01 X0.3611  Y1.2802  
G01 X0.4578  Y1.2802  
G01 X0.4604  Y1.2796  
G01 X0.4628  Y1.2782  
G01 X0.4764  Y1.2646  
G01 X0.4833  Y1.2617  
G01 X0.4840  Y1.2616  
G01 X0.4845  Y1.2612  
G01 X0.4852  Y1.2610  
G01 X0.4857  Y1.2605  
G01 X0.4863  Y1.2602  
G01 X0.4868  Y1.2597  
G01 X0.4873  Y1.2593  
G00 Z0.3000  
G00 X0.2537  Y1.3641  
G01 Z-0.0070 F5     
G01 X0.2633  Y1.3874  F7     
G01 X0.2633  Y1.4126  
G01 X0.2537  Y1.4359  
G01 X0.2359  Y1.4537  
G01 X0.2126  Y1.4633  
G01 X0.1874  Y1.4633  
G01 X0.1641  Y1.4537  
G01 X0.1463  Y1.4359  
G01 X0.1367  Y1.4126  
G01 X0.1367  Y1.3874  
G01 X0.1463  Y1.3641  
G01 X0.1641  Y1.3463  
G01 X0.1874  Y1.3367  
G01 X0.2126  Y1.3367  
G01 X0.2359  Y1.3463  
G01 X0.2537  Y1.3641  
G00 Z0.3000  
G00 X0.0378  Y0.0406  
G01 Z-0.0070 F5     
G01 X0.0358  Y0.0441  F7     
G01 X0.0348  Y0.0480  
G01 X0.0348  Y1.5410  
G01 X0.0358  Y1.5449  
G01 X0.0378  Y1.5484  
G01 X0.0406  Y1.5512  
G01 X0.0441  Y1.5532  
G01 X0.0480  Y1.5543  
G01 X0.9020  Y1.5543  
G01 X0.9059  Y1.5532  
G01 X0.9094  Y1.5512  
G01 X0.9122  Y1.5484  
G01 X0.9142  Y1.5449  
G01 X0.9152  Y1.5410  
G01 X0.9152  Y0.0520  
G01 X0.9152  Y0.0480  
G01 X0.9142  Y0.0441  
G01 X0.9122  Y0.0406  
G01 X0.9094  Y0.0378  
G01 X0.9059  Y0.0358  
G01 X0.9020  Y0.0348  
G01 X0.0480  Y0.0348  
G01 X0.0441  Y0.0358  
G01 X0.0406  Y0.0378  
G01 X0.0378  Y0.0406  
G00 Z0.3000  
G00 X0.1784  Y0.3696  
G01 Z-0.0070 F5     
G01 X0.1792  Y0.3688  F7     
G01 X0.1802  Y0.3684  
G01 X0.1784  Y0.3696  
G00 Z0.3000  
G00 X0.1696  Y0.3784  
G01 Z-0.0070 F5     
G01 X0.1684  Y0.3802  F7     
G01 X0.1688  Y0.3792  
G01 X0.1696  Y0.3784  
G00 Z0.3000  
G00 X0.1637  Y0.3916  
G01 Z-0.0070 F5     
G01 X0.1632  Y0.3938  F7     
G01 X0.1632  Y0.3927  
G01 X0.1637  Y0.3916  
G00 Z0.3000  
G00 X0.1632  Y0.4062  
G01 Z-0.0070 F5     
G01 X0.1637  Y0.4084  F7     
G01 X0.1632  Y0.4073  
G01 X0.1632  Y0.4062  
G00 Z0.3000  
G00 X0.1684  Y0.4198  
G01 Z-0.0070 F5     
G01 X0.1696  Y0.4216  F7     
G01 X0.1688  Y0.4208  
G01 X0.1684  Y0.4198  
G00 Z0.3000  
G00 X0.1784  Y0.4304  
G01 Z-0.0070 F5     
G01 X0.1802  Y0.4316  F7     
G01 X0.1792  Y0.4312  
G01 X0.1784  Y0.4304  
G00 Z0.3000  
G00 X0.1894  Y0.4359  
G01 Z-0.0070 F5     
G01 X0.1963  Y0.4372  F7     
G01 X0.2037  Y0.4372  
G01 X0.2109  Y0.4358  
G01 X0.2133  Y0.4348  
G01 X0.2347  Y0.4563  
G01 X0.2347  Y0.4821  
G01 X0.2154  Y0.4627  
G01 X0.1853  Y0.4627  
G01 X0.1858  Y0.4622  
G01 X0.1868  Y0.4617  
G01 X0.1877  Y0.4613  
G01 X0.1885  Y0.4607  
G01 X0.1894  Y0.4602  
G01 X0.1901  Y0.4595  
G01 X0.1909  Y0.4589  
G01 X0.1915  Y0.4581  
G01 X0.1922  Y0.4574  
G01 X0.1927  Y0.4565  
G01 X0.1933  Y0.4557  
G01 X0.1937  Y0.4548  
G01 X0.1942  Y0.4539  
G01 X0.1945  Y0.4529  
G01 X0.1949  Y0.4520  
G01 X0.1950  Y0.4510  
G01 X0.1953  Y0.4500  
G01 X0.1953  Y0.4490  
G01 X0.1954  Y0.4480  
G01 X0.1953  Y0.4470  
G01 X0.1953  Y0.4460  
G01 X0.1950  Y0.4450  
G01 X0.1949  Y0.4440  
G01 X0.1945  Y0.4431  
G01 X0.1942  Y0.4421  
G01 X0.1937  Y0.4412  
G01 X0.1933  Y0.4403  
G01 X0.1927  Y0.4395  
G01 X0.1922  Y0.4386  
G01 X0.1915  Y0.4379  
G01 X0.1909  Y0.4371  
G01 X0.1901  Y0.4365  
G01 X0.1894  Y0.4359  
G00 Z0.3000  
G00 X0.2348  Y0.4133  
G01 Z-0.0070 F5     
G01 X0.2358  Y0.4109  F7     
G01 X0.2372  Y0.4037  
G01 X0.2372  Y0.3963  
G01 X0.2359  Y0.3894  
G01 X0.2365  Y0.3901  
G01 X0.2371  Y0.3909  
G01 X0.2379  Y0.3915  
G01 X0.2386  Y0.3922  
G01 X0.2395  Y0.3927  
G01 X0.2403  Y0.3933  
G01 X0.2412  Y0.3937  
G01 X0.2421  Y0.3942  
G01 X0.2431  Y0.3945  
G01 X0.2440  Y0.3949  
G01 X0.2450  Y0.3950  
G01 X0.2460  Y0.3952  
G01 X0.2470  Y0.3952  
G01 X0.2480  Y0.3954  
G01 X0.2490  Y0.3952  
G01 X0.2500  Y0.3952  
G01 X0.2510  Y0.3950  
G01 X0.2520  Y0.3949  
G01 X0.2529  Y0.3945  
G01 X0.2539  Y0.3942  
G01 X0.2548  Y0.3937  
G01 X0.2557  Y0.3933  
G01 X0.2565  Y0.3927  
G01 X0.2574  Y0.3922  
G01 X0.2581  Y0.3915  
G01 X0.2589  Y0.3909  
G01 X0.2595  Y0.3901  
G01 X0.2602  Y0.3894  
G01 X0.2607  Y0.3885  
G01 X0.2613  Y0.3877  
G01 X0.2617  Y0.3868  
G01 X0.2622  Y0.3859  
G01 X0.2627  Y0.3853  
G01 X0.2627  Y0.4154  
G01 X0.2846  Y0.4372  
G01 X0.3154  Y0.4372  
G01 X0.3372  Y0.4154  
G01 X0.3372  Y0.3846  
G01 X0.3371  Y0.3844  
G01 X0.3813  Y0.3403  
G01 X0.3802  Y0.3421  
G01 X0.3792  Y0.3460  
G01 X0.3792  Y0.3500  
G01 X0.3802  Y0.3539  
G01 X0.3803  Y0.3540  
G01 X0.3822  Y0.3574  
G01 X0.3851  Y0.3602  
G01 X0.3885  Y0.3622  
G01 X0.3906  Y0.3628  
G01 X0.3846  Y0.3628  
G01 X0.3628  Y0.3846  
G01 X0.3628  Y0.4154  
G01 X0.3629  Y0.4156  
G01 X0.3406  Y0.4378  
G01 X0.3378  Y0.4406  
G01 X0.3358  Y0.4441  
G01 X0.3347  Y0.4480  
G01 X0.3347  Y0.4821  
G01 X0.3154  Y0.4627  
G01 X0.2846  Y0.4627  
G01 X0.2652  Y0.4821  
G01 X0.2652  Y0.4480  
G01 X0.2642  Y0.4441  
G01 X0.2622  Y0.4406  
G01 X0.2594  Y0.4378  
G01 X0.2348  Y0.4133  
G00 Z0.3000  
G00 X0.2316  Y0.3802  
G01 Z-0.0070 F5     
G01 X0.2304  Y0.3784  F7     
G01 X0.2312  Y0.3792  
G01 X0.2316  Y0.3802  
G00 Z0.3000  
G00 X0.2216  Y0.3696  
G01 Z-0.0070 F5     
G01 X0.2198  Y0.3684  F7     
G01 X0.2208  Y0.3688  
G01 X0.2216  Y0.3696  
G00 Z0.3000  
G00 X0.2084  Y0.3637  
G01 Z-0.0070 F5     
G01 X0.2062  Y0.3632  F7     
G01 X0.2073  Y0.3632  
G01 X0.2084  Y0.3637  
G00 Z0.3000  
G00 X0.1938  Y0.3632  
G01 Z-0.0070 F5     
G01 X0.1916  Y0.3637  F7     
G01 X0.1927  Y0.3632  
G01 X0.1938  Y0.3632  
G00 Z0.3000  
G00 X0.3134  Y0.3628  
G01 Z-0.0070 F5     
G01 X0.3155  Y0.3622  F7     
G01 X0.3173  Y0.3612  
G01 X0.3156  Y0.3629  
G01 X0.3154  Y0.3628  
G01 X0.3134  Y0.3628  
G00 Z0.3000  
G00 X0.4047  Y0.3168  
G01 Z-0.0070 F5     
G01 X0.4063  Y0.3152  F7     
G01 X0.4086  Y0.3152  
G01 X0.4065  Y0.3158  
G01 X0.4047  Y0.3168  
G00 Z0.3000  
G00 X0.4914  Y0.3152  
G01 Z-0.0070 F5     
G01 X0.4937  Y0.3152  F7     
G01 X0.4953  Y0.3168  
G01 X0.4935  Y0.3158  
G01 X0.4914  Y0.3152  
G00 Z0.3000  
G00 X0.6417  Y0.3116  
G01 Z-0.0070 F5     
G01 X0.6417  Y0.2884  F7     
G01 X0.6505  Y0.2670  
G01 X0.6670  Y0.2505  
G01 X0.6884  Y0.2417  
G01 X0.7116  Y0.2417  
G01 X0.7330  Y0.2505  
G01 X0.7495  Y0.2670  
G01 X0.7583  Y0.2884  
G01 X0.7583  Y0.3116  
G01 X0.7495  Y0.3330  
G01 X0.7330  Y0.3495  
G01 X0.7116  Y0.3583  
G01 X0.6884  Y0.3583  
G01 X0.6670  Y0.3495  
G01 X0.6505  Y0.3330  
G01 X0.6417  Y0.3116  
G00 Z0.3000  
G00 X0.6832  Y0.5047  
G01 Z-0.0070 F5     
G01 X0.6847  Y0.5063  F7     
G01 X0.6847  Y0.5086  
G01 X0.6842  Y0.5065  
G01 X0.6832  Y0.5047  
G00 Z0.3000  
G00 X0.4953  Y0.5168  
G01 Z-0.0070 F5     
G01 X0.4935  Y0.5158  F7     
G01 X0.4914  Y0.5152  
G01 X0.4937  Y0.5152  
G01 X0.4953  Y0.5168  
G00 Z0.3000  
G00 X0.4397  Y0.5152  
G01 Z-0.0070 F5     
G01 X0.4377  Y0.5158  F7     
G01 X0.4358  Y0.5168  
G01 X0.4372  Y0.5154  
G01 X0.4372  Y0.5152  
G01 X0.4397  Y0.5152  
G00 Z0.3000  
G00 X0.4397  Y0.4848  
G01 Z-0.0070 F5     
G01 X0.4372  Y0.4848  F7     
G01 X0.4372  Y0.4846  
G01 X0.4358  Y0.4832  
G01 X0.4377  Y0.4842  
G01 X0.4397  Y0.4848  
G00 Z0.3000  
G00 X0.4147  Y0.4627  
G01 Z-0.0070 F5     
G01 X0.3846  Y0.4627  F7     
G01 X0.3652  Y0.4821  
G01 X0.3652  Y0.4563  
G01 X0.3844  Y0.4371  
G01 X0.3846  Y0.4372  
G01 X0.4147  Y0.4372  
G01 X0.4142  Y0.4378  
G01 X0.4113  Y0.4406  
G01 X0.4093  Y0.4441  
G01 X0.4083  Y0.4480  
G01 X0.4083  Y0.4520  
G01 X0.4093  Y0.4559  
G01 X0.4094  Y0.4560  
G01 X0.4113  Y0.4594  
G01 X0.4147  Y0.4627  
G00 Z0.3000  
G00 X0.3906  Y0.5372  
G01 Z-0.0070 F5     
G01 X0.3885  Y0.5378  F7     
G01 X0.3851  Y0.5398  
G01 X0.3822  Y0.5426  
G01 X0.3802  Y0.5461  
G01 X0.3792  Y0.5500  
G01 X0.3792  Y0.5540  
G01 X0.3802  Y0.5579  
G01 X0.3813  Y0.5597  
G01 X0.3652  Y0.5437  
G01 X0.3652  Y0.5179  
G01 X0.3846  Y0.5372  
G01 X0.3906  Y0.5372  
G00 Z0.3000  
G00 X0.3347  Y0.5520  
G01 Z-0.0070 F5     
G01 X0.3358  Y0.5559  F7     
G01 X0.3378  Y0.5593  
G01 X0.3359  Y0.5582  
G01 X0.3357  Y0.5582  
G01 X0.3320  Y0.5572  
G01 X0.3280  Y0.5572  
G01 X0.3241  Y0.5582  
G01 X0.3206  Y0.5602  
G01 X0.3178  Y0.5630  
G01 X0.3158  Y0.5665  
G01 X0.3157  Y0.5667  
G01 X0.3152  Y0.5686  
G01 X0.3152  Y0.5372  
G01 X0.3154  Y0.5372  
G01 X0.3347  Y0.5179  
G01 X0.3347  Y0.5520  
G00 Z0.3000  
G00 X0.2848  Y0.5372  
G01 Z-0.0070 F5     
G01 X0.2848  Y1.1480  F7     
G01 X0.2848  Y1.1520  
G01 X0.2858  Y1.1559  
G01 X0.2878  Y1.1593  
G01 X0.2859  Y1.1582  
G01 X0.2851  Y1.1580  
G01 X0.2820  Y1.1572  
G01 X0.2780  Y1.1572  
G01 X0.2759  Y1.1577  
G01 X0.2741  Y1.1582  
G01 X0.2735  Y1.1586  
G01 X0.2706  Y1.1602  
G01 X0.2678  Y1.1631  
G01 X0.2658  Y1.1665  
G01 X0.2656  Y1.1673  
G01 X0.2652  Y1.1686  
G01 X0.2652  Y0.5179  
G01 X0.2846  Y0.5372  
G01 X0.2848  Y0.5372  
G00 Z0.3000  
G00 X0.2154  Y0.5372  
G01 Z-0.0070 F5     
G01 X0.2347  Y0.5179  F7     
G01 X0.2347  Y1.2020  
G01 X0.2358  Y1.2059  
G01 X0.2378  Y1.2093  
G01 X0.2359  Y1.2082  
G01 X0.2357  Y1.2082  
G01 X0.2320  Y1.2072  
G01 X0.2280  Y1.2072  
G01 X0.2241  Y1.2082  
G01 X0.2206  Y1.2102  
G01 X0.2178  Y1.2130  
G01 X0.2158  Y1.2165  
G01 X0.2157  Y1.2167  
G01 X0.2152  Y1.2186  
G01 X0.2152  Y0.5372  
G01 X0.2154  Y0.5372  
G00 Z0.3000  
G00 X0.1847  Y0.5372  
G01 Z-0.0070 F5     
G01 X0.1847  Y0.5397  F7     
G01 X0.1842  Y0.5377  
G01 X0.1832  Y0.5358  
G01 X0.1846  Y0.5372  
G01 X0.1847  Y0.5372  
G00 Z0.3000  
G00 X0.5832  Y0.6047  
G01 Z-0.0070 F5     
G01 X0.5847  Y0.6063  F7     
G01 X0.5847  Y0.6086  
G01 X0.5842  Y0.6065  
G01 X0.5832  Y0.6047  
G00 Z0.3000  
G00 X0.4832  Y0.7047  
G01 Z-0.0070 F5     
G01 X0.4848  Y0.7063  F7     
G01 X0.4848  Y0.7086  
G01 X0.4842  Y0.7065  
G01 X0.4832  Y0.7047  
G00 Z0.3000  
G00 X0.4848  Y1.0603  
G01 Z-0.0070 F5     
G01 X0.4848  Y1.0628  F7     
G01 X0.4846  Y1.0628  
G01 X0.4832  Y1.0642  
G01 X0.4842  Y1.0623  
G01 X0.4848  Y1.0603  
G00 Z0.3000  
G00 X0.5152  Y1.0603  
G01 Z-0.0070 F5     
G01 X0.5158  Y1.0623  F7     
G01 X0.5168  Y1.0642  
G01 X0.5154  Y1.0628  
G01 X0.5152  Y1.0628  
G01 X0.5152  Y1.0603  
G00 Z0.3000  
G00 X0.5372  Y1.0853  
G01 Z-0.0070 F5     
G01 X0.5406  Y1.0887  F7     
G01 X0.5441  Y1.0907  
G01 X0.5480  Y1.0917  
G01 X0.5520  Y1.0917  
G01 X0.5559  Y1.0907  
G01 X0.5594  Y1.0887  
G01 X0.5622  Y1.0858  
G01 X0.5627  Y1.0853  
G01 X0.5627  Y1.1154  
G01 X0.5846  Y1.1372  
G01 X0.6147  Y1.1372  
G01 X0.6142  Y1.1378  
G01 X0.6113  Y1.1406  
G01 X0.6093  Y1.1441  
G01 X0.6083  Y1.1480  
G01 X0.6083  Y1.1520  
G01 X0.6093  Y1.1559  
G01 X0.6113  Y1.1594  
G01 X0.6118  Y1.1599  
G01 X0.6142  Y1.1622  
G01 X0.6147  Y1.1627  
G01 X0.5846  Y1.1627  
G01 X0.5844  Y1.1629  
G01 X0.5594  Y1.1378  
G01 X0.5559  Y1.1358  
G01 X0.5520  Y1.1347  
G01 X0.5179  Y1.1347  
G01 X0.5372  Y1.1154  
G01 X0.5372  Y1.0853  
G00 Z0.3000  
G00 X0.5832  Y1.0642  
G01 Z-0.0070 F5     
G01 X0.5842  Y1.0623  F7     
G01 X0.5847  Y1.0603  
G01 X0.5847  Y1.0628  
G01 X0.5846  Y1.0628  
G01 X0.5832  Y1.0642  
G00 Z0.3000  
G00 X0.6152  Y1.0628  
G01 Z-0.0070 F5     
G01 X0.6152  Y1.0603  F7     
G01 X0.6158  Y1.0623  
G01 X0.6168  Y1.0642  
G01 X0.6154  Y1.0628  
G01 X0.6152  Y1.0628  
G00 Z0.3000  
G00 X0.5629  Y1.1844  
G01 Z-0.0070 F5     
G01 X0.5627  Y1.1846  F7     
G01 X0.5627  Y1.2154  
G01 X0.5821  Y1.2348  
G01 X0.5563  Y1.2348  
G01 X0.5371  Y1.2156  
G01 X0.5372  Y1.2154  
G01 X0.5372  Y1.1846  
G01 X0.5179  Y1.1652  
G01 X0.5437  Y1.1652  
G01 X0.5629  Y1.1844  
G00 Z0.3000  
G00 X0.5581  Y1.2684  
G01 Z-0.0070 F5     
G01 X0.5577  Y1.2681  F7     
G01 X0.5574  Y1.2678  
G01 X0.5560  Y1.2670  
G01 X0.5547  Y1.2662  
G01 X0.5543  Y1.2660  
G01 X0.5539  Y1.2658  
G01 X0.5524  Y1.2654  
G01 X0.5520  Y1.2652  
G01 X0.5821  Y1.2652  
G01 X0.5627  Y1.2846  
G01 X0.5627  Y1.3147  
G01 X0.5622  Y1.3142  
G01 X0.5617  Y1.3132  
G01 X0.5613  Y1.3123  
G01 X0.5607  Y1.3115  
G01 X0.5602  Y1.3106  
G01 X0.5595  Y1.3099  
G01 X0.5589  Y1.3091  
G01 X0.5581  Y1.3085  
G01 X0.5574  Y1.3078  
G01 X0.5565  Y1.3073  
G01 X0.5557  Y1.3067  
G01 X0.5548  Y1.3063  
G01 X0.5539  Y1.3058  
G01 X0.5529  Y1.3055  
G01 X0.5520  Y1.3051  
G01 X0.5510  Y1.3050  
G01 X0.5500  Y1.3047  
G01 X0.5490  Y1.3047  
G01 X0.5480  Y1.3046  
G01 X0.5470  Y1.3047  
G01 X0.5460  Y1.3047  
G01 X0.5450  Y1.3050  
G01 X0.5440  Y1.3051  
G01 X0.5431  Y1.3055  
G01 X0.5421  Y1.3058  
G01 X0.5412  Y1.3063  
G01 X0.5403  Y1.3067  
G01 X0.5395  Y1.3073  
G01 X0.5386  Y1.3078  
G01 X0.5379  Y1.3085  
G01 X0.5371  Y1.3091  
G01 X0.5365  Y1.3099  
G01 X0.5359  Y1.3106  
G01 X0.5372  Y1.3037  
G01 X0.5372  Y1.2963  
G01 X0.5359  Y1.2894  
G01 X0.5369  Y1.2905  
G01 X0.5379  Y1.2916  
G01 X0.5383  Y1.2919  
G01 X0.5386  Y1.2922  
G01 X0.5400  Y1.2930  
G01 X0.5413  Y1.2938  
G01 X0.5417  Y1.2940  
G01 X0.5421  Y1.2942  
G01 X0.5436  Y1.2946  
G01 X0.5451  Y1.2951  
G01 X0.5455  Y1.2951  
G01 X0.5460  Y1.2953  
G01 X0.5475  Y1.2953  
G01 X0.5491  Y1.2953  
G01 X0.5495  Y1.2953  
G01 X0.5500  Y1.2953  
G01 X0.5515  Y1.2948  
G01 X0.5530  Y1.2945  
G01 X0.5534  Y1.2943  
G01 X0.5539  Y1.2942  
G01 X0.5552  Y1.2934  
G01 X0.5566  Y1.2927  
G01 X0.5570  Y1.2924  
G01 X0.5574  Y1.2922  
G01 X0.5585  Y1.2911  
G01 X0.5596  Y1.2901  
G01 X0.5599  Y1.2897  
G01 X0.5602  Y1.2894  
G01 X0.5610  Y1.2880  
G01 X0.5618  Y1.2867  
G01 X0.5620  Y1.2863  
G01 X0.5622  Y1.2859  
G01 X0.5626  Y1.2844  
G01 X0.5631  Y1.2829  
G01 X0.5631  Y1.2825  
G01 X0.5632  Y1.2820  
G01 X0.5632  Y1.2805  
G01 X0.5633  Y1.2789  
G01 X0.5632  Y1.2785  
G01 X0.5632  Y1.2780  
G01 X0.5628  Y1.2765  
G01 X0.5625  Y1.2750  
G01 X0.5623  Y1.2746  
G01 X0.5622  Y1.2741  
G01 X0.5614  Y1.2728  
G01 X0.5607  Y1.2714  
G01 X0.5604  Y1.2710  
G01 X0.5602  Y1.2706  
G01 X0.5591  Y1.2695  
G01 X0.5581  Y1.2684  
G00 Z0.3000  
G00 X0.5461  Y1.2647  
G01 Z-0.0070 F5     
G01 X0.5460  Y1.2647  F7     
G01 X0.5445  Y1.2652  
G01 X0.5430  Y1.2655  
G01 X0.5426  Y1.2657  
G01 X0.5421  Y1.2658  
G01 X0.5408  Y1.2666  
G01 X0.5394  Y1.2673  
G01 X0.5390  Y1.2676  
G01 X0.5386  Y1.2678  
G01 X0.5375  Y1.2689  
G01 X0.5364  Y1.2699  
G01 X0.5361  Y1.2703  
G01 X0.5358  Y1.2706  
G01 X0.5350  Y1.2720  
G01 X0.5342  Y1.2733  
G01 X0.5340  Y1.2737  
G01 X0.5338  Y1.2741  
G01 X0.5334  Y1.2756  
G01 X0.5329  Y1.2771  
G01 X0.5329  Y1.2775  
G01 X0.5327  Y1.2780  
G01 X0.5327  Y1.2795  
G01 X0.5327  Y1.2811  
G01 X0.5327  Y1.2815  
G01 X0.5327  Y1.2820  
G01 X0.5289  Y1.2763  
G01 X0.5237  Y1.2711  
G01 X0.5176  Y1.2670  
G01 X0.5109  Y1.2642  
G01 X0.5037  Y1.2628  
G01 X0.4963  Y1.2628  
G01 X0.4894  Y1.2641  
G01 X0.4901  Y1.2635  
G01 X0.4909  Y1.2629  
G01 X0.4915  Y1.2621  
G01 X0.4922  Y1.2614  
G01 X0.4927  Y1.2605  
G01 X0.4933  Y1.2597  
G01 X0.4937  Y1.2588  
G01 X0.4942  Y1.2579  
G01 X0.4945  Y1.2569  
G01 X0.4949  Y1.2560  
G01 X0.4950  Y1.2550  
G01 X0.4953  Y1.2540  
G01 X0.4953  Y1.2530  
G01 X0.4954  Y1.2520  
G01 X0.4953  Y1.2510  
G01 X0.4953  Y1.2500  
G01 X0.4950  Y1.2490  
G01 X0.4949  Y1.2480  
G01 X0.4945  Y1.2471  
G01 X0.4942  Y1.2461  
G01 X0.4937  Y1.2452  
G01 X0.4933  Y1.2443  
G01 X0.4927  Y1.2435  
G01 X0.4922  Y1.2426  
G01 X0.4915  Y1.2419  
G01 X0.4909  Y1.2411  
G01 X0.4901  Y1.2405  
G01 X0.4894  Y1.2398  
G01 X0.4885  Y1.2393  
G01 X0.4877  Y1.2387  
G01 X0.4868  Y1.2383  
G01 X0.4859  Y1.2378  
G01 X0.4853  Y1.2372  
G01 X0.5154  Y1.2372  
G01 X0.5156  Y1.2371  
G01 X0.5406  Y1.2622  
G01 X0.5441  Y1.2642  
G01 X0.5461  Y1.2647  
G00 Z0.3000  
G00 X0.4802  Y1.2684  
G01 Z-0.0070 F5     
G01 X0.4784  Y1.2696  F7     
G01 X0.4792  Y1.2688  
G01 X0.4802  Y1.2684  
G00 Z0.3000  
G00 X0.4696  Y1.2784  
G01 Z-0.0070 F5     
G01 X0.4670  Y1.2824  F7     
G01 X0.4660  Y1.2848  
G01 X0.4603  Y1.2848  
G01 X0.4623  Y1.2842  
G01 X0.4658  Y1.2822  
G01 X0.4661  Y1.2819  
G01 X0.4687  Y1.2794  
G01 X0.4696  Y1.2784  
G00 Z0.3000  
G00 X0.4660  Y1.3152  
G01 Z-0.0070 F5     
G01 X0.4670  Y1.3176  F7     
G01 X0.4696  Y1.3216  
G01 X0.4687  Y1.3206  
G01 X0.4658  Y1.3178  
G01 X0.4623  Y1.3158  
G01 X0.4603  Y1.3152  
G01 X0.4660  Y1.3152  
G00 Z0.3000  
G00 X0.4784  Y1.3304  
G01 Z-0.0070 F5     
G01 X0.4802  Y1.3316  F7     
G01 X0.4792  Y1.3312  
G01 X0.4784  Y1.3304  
G00 Z0.3000  
G00 X0.4916  Y1.3363  
G01 Z-0.0070 F5     
G01 X0.4938  Y1.3367  F7     
G01 X0.4927  Y1.3367  
G01 X0.4916  Y1.3363  
G00 Z0.3000  
G00 X0.5062  Y1.3367  
G01 Z-0.0070 F5     
G01 X0.5084  Y1.3363  F7     
G01 X0.5073  Y1.3367  
G01 X0.5062  Y1.3367  
G00 Z0.3000  
G00 X0.5198  Y1.3316  
G01 Z-0.0070 F5     
G01 X0.5216  Y1.3304  F7     
G01 X0.5208  Y1.3312  
G01 X0.5198  Y1.3316  
G00 Z0.3000  
G00 X0.5304  Y1.3216  
G01 Z-0.0070 F5     
G01 X0.5316  Y1.3198  F7     
G01 X0.5312  Y1.3208  
G01 X0.5304  Y1.3216  
G00 Z0.3000  
G00 X0.5832  Y1.3358  
G01 Z-0.0070 F5     
G01 X0.5846  Y1.3372  F7     
G01 X0.5847  Y1.3372  
G01 X0.5847  Y1.3397  
G01 X0.5842  Y1.3377  
G01 X0.5832  Y1.3358  
G00 Z0.3000  
G00 X0.6152  Y1.3372  
G01 Z-0.0070 F5     
G01 X0.6154  Y1.3372  F7     
G01 X0.6168  Y1.3358  
G01 X0.6158  Y1.3377  
G01 X0.6152  Y1.3397  
G01 X0.6152  Y1.3372  
G00 Z0.3000  
G00 X0.5847  Y1.3739  
G01 Z-0.0070 F5     
G01 X0.5847  Y1.3847  F7     
G01 X0.5739  Y1.3847  
G01 X0.5759  Y1.3842  
G01 X0.5794  Y1.3822  
G01 X0.5822  Y1.3794  
G01 X0.5842  Y1.3759  
G01 X0.5847  Y1.3739  
G00 Z0.3000  
G00 X0.6179  Y1.2652  
G01 Z-0.0070 F5     
G01 X0.6481  Y1.2652  F7     
G01 X0.6461  Y1.2658  
G01 X0.6426  Y1.2678  
G01 X0.6398  Y1.2706  
G01 X0.6378  Y1.2741  
G01 X0.6367  Y1.2780  
G01 X0.6367  Y1.2841  
G01 X0.6179  Y1.2652  
G00 Z0.3000  
G00 X0.6179  Y1.2348  
G01 Z-0.0070 F5     
G01 X0.6367  Y1.2159  F7     
G01 X0.6367  Y1.2220  
G01 X0.6378  Y1.2259  
G01 X0.6398  Y1.2294  
G01 X0.6426  Y1.2322  
G01 X0.6461  Y1.2342  
G01 X0.6481  Y1.2348  
G01 X0.6179  Y1.2348  
G00 Z0.3000  
G00 X0.6739  Y1.2348  
G01 Z-0.0070 F5     
G01 X0.6759  Y1.2342  F7     
G01 X0.6794  Y1.2322  
G01 X0.6822  Y1.2294  
G01 X0.6842  Y1.2259  
G01 X0.6847  Y1.2239  
G01 X0.6847  Y1.2348  
G01 X0.6739  Y1.2348  
G00 Z0.3000  
G00 X0.4821  Y1.1652  
G01 Z-0.0070 F5     
G01 X0.4632  Y1.1841  F7     
G01 X0.4632  Y1.1780  
G01 X0.4622  Y1.1741  
G01 X0.4602  Y1.1706  
G01 X0.4574  Y1.1678  
G01 X0.4539  Y1.1658  
G01 X0.4519  Y1.1652  
G01 X0.4821  Y1.1652  
G00 Z0.3000  
G00 X0.4821  Y1.1347  
G01 Z-0.0070 F5     
G01 X0.4519  Y1.1347  F7     
G01 X0.4539  Y1.1342  
G01 X0.4574  Y1.1322  
G01 X0.4602  Y1.1294  
G01 X0.4622  Y1.1259  
G01 X0.4632  Y1.1220  
G01 X0.4632  Y1.1180  
G01 X0.4632  Y1.1159  
G01 X0.4821  Y1.1347  
G00 Z0.3000  
G00 X0.3261  Y1.1347  
G01 Z-0.0070 F5     
G01 X0.3152  Y1.1347  F7     
G01 X0.3152  Y1.1239  
G01 X0.3158  Y1.1259  
G01 X0.3178  Y1.1294  
G01 X0.3206  Y1.1322  
G01 X0.3241  Y1.1342  
G01 X0.3261  Y1.1347  
G00 Z0.3000  
G00 X0.2652  Y1.1914  
G01 Z-0.0070 F5     
G01 X0.2658  Y1.1935  F7     
G01 X0.2668  Y1.1953  
G01 X0.2652  Y1.1937  
G01 X0.2652  Y1.1914  
G00 Z0.3000  
G00 X0.2152  Y1.2414  
G01 Z-0.0070 F5     
G01 X0.2158  Y1.2435  F7     
G01 X0.2168  Y1.2453  
G01 X0.2152  Y1.2437  
G01 X0.2152  Y1.2414  
G00 Z0.3000  
G00 X0.2116  Y1.3417  
G01 Z-0.0070 F5     
G01 X0.2330  Y1.3505  F7     
G01 X0.2495  Y1.3670  
G01 X0.2583  Y1.3884  
G01 X0.2583  Y1.4116  
G01 X0.2495  Y1.4330  
G01 X0.2330  Y1.4495  
G01 X0.2116  Y1.4583  
G01 X0.1884  Y1.4583  
G01 X0.1670  Y1.4495  
G01 X0.1505  Y1.4330  
G01 X0.1417  Y1.4116  
G01 X0.1417  Y1.3884  
G01 X0.1505  Y1.3670  
G01 X0.1670  Y1.3505  
G01 X0.1884  Y1.3417  
G01 X0.2116  Y1.3417  
G00 Z0.3000  
G00 X0.3547  Y1.3832  
G01 Z-0.0070 F5     
G01 X0.3565  Y1.3842  F7     
G01 X0.3586  Y1.3847  
G01 X0.3563  Y1.3847  
G01 X0.3547  Y1.3832  
G00 Z0.3000  
G00 X0.3547  Y1.2832  
G01 Z-0.0070 F5     
G01 X0.3565  Y1.2842  F7     
G01 X0.3586  Y1.2848  
G01 X0.3563  Y1.2848  
G01 X0.3547  Y1.2832  
G00 Z0.3000  
G00 X0.0338  Y0.0376  
G01 Z-0.0070 F5     
G01 X0.0311  Y0.0422  F7     
G01 X0.0297  Y0.0473  
G01 X0.0297  Y1.5417  
G01 X0.0311  Y1.5468  
G01 X0.0338  Y1.5514  
G01 X0.0376  Y1.5552  
G01 X0.0422  Y1.5579  
G01 X0.0473  Y1.5593  
G01 X0.9027  Y1.5593  
G01 X0.9078  Y1.5579  
G01 X0.9124  Y1.5552  
G01 X0.9162  Y1.5514  
G01 X0.9189  Y1.5468  
G01 X0.9202  Y1.5417  
G01 X0.9202  Y0.0527  
G01 X0.9202  Y0.0473  
G01 X0.9189  Y0.0422  
G01 X0.9162  Y0.0376  
G01 X0.9124  Y0.0338  
G01 X0.9078  Y0.0311  
G01 X0.9027  Y0.0297  
G01 X0.0473  Y0.0297  
G01 X0.0422  Y0.0311  
G01 X0.0376  Y0.0338  
G01 X0.0338  Y0.0376  
G00 Z0.3000  
G00 X0.1995  Y0.4422  
G01 Z-0.0070 F5     
G01 X0.2033  Y0.4422  F7     
G01 X0.2099  Y0.4412  
G01 X0.2119  Y0.4406  
G01 X0.2298  Y0.4584  
G01 X0.2298  Y0.4700  
G01 X0.2175  Y0.4577  
G01 X0.1979  Y0.4577  
G01 X0.1982  Y0.4570  
G01 X0.1989  Y0.4558  
G01 X0.1992  Y0.4545  
G01 X0.1997  Y0.4533  
G01 X0.1999  Y0.4520  
G01 X0.2003  Y0.4507  
G01 X0.2003  Y0.4493  
G01 X0.2004  Y0.4480  
G01 X0.2003  Y0.4467  
G01 X0.2003  Y0.4453  
G01 X0.1999  Y0.4440  
G01 X0.1997  Y0.4427  
G01 X0.1995  Y0.4422  
G00 Z0.3000  
G00 X0.2689  Y0.4422  
G01 Z-0.0070 F5     
G01 X0.2662  Y0.4376  F7     
G01 X0.2624  Y0.4338  
G01 X0.2406  Y0.4119  
G01 X0.2412  Y0.4099  
G01 X0.2422  Y0.4033  
G01 X0.2422  Y0.3995  
G01 X0.2427  Y0.3997  
G01 X0.2440  Y0.3999  
G01 X0.2453  Y0.4002  
G01 X0.2467  Y0.4002  
G01 X0.2480  Y0.4004  
G01 X0.2493  Y0.4002  
G01 X0.2507  Y0.4002  
G01 X0.2520  Y0.3999  
G01 X0.2533  Y0.3997  
G01 X0.2545  Y0.3992  
G01 X0.2558  Y0.3989  
G01 X0.2570  Y0.3982  
G01 X0.2577  Y0.3979  
G01 X0.2577  Y0.4175  
G01 X0.2825  Y0.4422  
G01 X0.3175  Y0.4422  
G01 X0.3422  Y0.4175  
G01 X0.3422  Y0.3864  
G01 X0.3750  Y0.3537  
G01 X0.3756  Y0.3558  
G01 X0.3781  Y0.3603  
G01 X0.3782  Y0.3604  
G01 X0.3790  Y0.3612  
G01 X0.3578  Y0.3825  
G01 X0.3578  Y0.4136  
G01 X0.3376  Y0.4338  
G01 X0.3338  Y0.4376  
G01 X0.3311  Y0.4422  
G01 X0.3297  Y0.4473  
G01 X0.3297  Y0.4700  
G01 X0.3175  Y0.4577  
G01 X0.2825  Y0.4577  
G01 X0.2702  Y0.4700  
G01 X0.2702  Y0.4473  
G01 X0.2689  Y0.4422  
G00 Z0.3000  
G00 X0.2702  Y0.5300  
G01 Z-0.0070 F5     
G01 X0.2797  Y0.5395  F7     
G01 X0.2797  Y1.1473  
G01 X0.2797  Y1.1522  
G01 X0.2773  Y1.1522  
G01 X0.2749  Y1.1528  
G01 X0.2722  Y1.1536  
G01 X0.2702  Y1.1547  
G01 X0.2702  Y0.5300  
G00 Z0.3000  
G00 X0.2298  Y0.5300  
G01 Z-0.0070 F5     
G01 X0.2298  Y1.1973  F7     
G01 X0.2298  Y1.2022  
G01 X0.2273  Y1.2022  
G01 X0.2222  Y1.2036  
G01 X0.2202  Y1.2047  
G01 X0.2202  Y0.5395  
G01 X0.2298  Y0.5300  
G00 Z0.3000  
G00 X0.3297  Y0.5300  
G01 Z-0.0070 F5     
G01 X0.3297  Y0.5473  F7     
G01 X0.3297  Y0.5522  
G01 X0.3273  Y0.5522  
G01 X0.3222  Y0.5536  
G01 X0.3202  Y0.5547  
G01 X0.3202  Y0.5395  
G01 X0.3297  Y0.5300  
G00 Z0.3000  
G00 X0.3702  Y0.5300  
G01 Z-0.0070 F5     
G01 X0.3790  Y0.5388  F7     
G01 X0.3782  Y0.5396  
G01 X0.3756  Y0.5442  
G01 X0.3750  Y0.5463  
G01 X0.3702  Y0.5416  
G01 X0.3702  Y0.5300  
G00 Z0.3000  
G00 X0.3702  Y0.4700  
G01 Z-0.0070 F5     
G01 X0.3702  Y0.4584  F7     
G01 X0.3864  Y0.4422  
G01 X0.4047  Y0.4422  
G01 X0.4033  Y0.4473  
G01 X0.4033  Y0.4527  
G01 X0.4037  Y0.4541  
G01 X0.4047  Y0.4577  
G01 X0.3825  Y0.4577  
G01 X0.3702  Y0.4700  
G00 Z0.3000  
G00 X0.6548  Y0.3302  
G01 Z-0.0070 F5     
G01 X0.6467  Y0.3106  F7     
G01 X0.6467  Y0.2894  
G01 X0.6548  Y0.2698  
G01 X0.6698  Y0.2548  
G01 X0.6894  Y0.2467  
G01 X0.7106  Y0.2467  
G01 X0.7302  Y0.2548  
G01 X0.7452  Y0.2698  
G01 X0.7533  Y0.2894  
G01 X0.7533  Y0.3106  
G01 X0.7452  Y0.3302  
G01 X0.7302  Y0.3452  
G01 X0.7106  Y0.3533  
G01 X0.6894  Y0.3533  
G01 X0.6698  Y0.3452  
G01 X0.6548  Y0.3302  
G00 Z0.3000  
G00 X0.5577  Y1.0953  
G01 Z-0.0070 F5     
G01 X0.5577  Y1.1175  F7     
G01 X0.5825  Y1.1422  
G01 X0.6047  Y1.1422  
G01 X0.6036  Y1.1460  
G01 X0.6033  Y1.1473  
G01 X0.6033  Y1.1527  
G01 X0.6047  Y1.1578  
G01 X0.5864  Y1.1578  
G01 X0.5624  Y1.1338  
G01 X0.5578  Y1.1311  
G01 X0.5527  Y1.1298  
G01 X0.5300  Y1.1298  
G01 X0.5422  Y1.1175  
G01 X0.5422  Y1.0953  
G01 X0.5473  Y1.0967  
G01 X0.5527  Y1.0967  
G01 X0.5577  Y1.0953  
G00 Z0.3000  
G00 X0.5577  Y1.1864  
G01 Z-0.0070 F5     
G01 X0.5577  Y1.2175  F7     
G01 X0.5700  Y1.2297  
G01 X0.5584  Y1.2297  
G01 X0.5422  Y1.2136  
G01 X0.5422  Y1.1825  
G01 X0.5300  Y1.1702  
G01 X0.5416  Y1.1702  
G01 X0.5577  Y1.1864  
G00 Z0.3000  
G00 X0.5658  Y1.2702  
G01 Z-0.0070 F5     
G01 X0.5700  Y1.2702  F7     
G01 X0.5672  Y1.2731  
G01 X0.5670  Y1.2728  
G01 X0.5669  Y1.2722  
G01 X0.5658  Y1.2704  
G01 X0.5658  Y1.2702  
G00 Z0.3000  
G00 X0.5577  Y1.2978  
G01 Z-0.0070 F5     
G01 X0.5577  Y1.3021  F7     
G01 X0.5570  Y1.3018  
G01 X0.5558  Y1.3011  
G01 X0.5545  Y1.3008  
G01 X0.5533  Y1.3003  
G01 X0.5520  Y1.3001  
G01 X0.5516  Y1.3000  
G01 X0.5527  Y1.2997  
G01 X0.5547  Y1.2993  
G01 X0.5552  Y1.2990  
G01 X0.5558  Y1.2989  
G01 X0.5576  Y1.2978  
G01 X0.5577  Y1.2978  
G00 Z0.3000  
G00 X0.5442  Y1.3001  
G01 Z-0.0070 F5     
G01 X0.5440  Y1.3001  F7     
G01 X0.5427  Y1.3003  
G01 X0.5422  Y1.3005  
G01 X0.5422  Y1.2994  
G01 X0.5441  Y1.3001  
G00 Z0.3000  
G00 X0.5301  Y1.2704  
G01 Z-0.0070 F5     
G01 X0.5275  Y1.2678  F7     
G01 X0.5221  Y1.2639  
G01 X0.5162  Y1.2608  
G01 X0.5099  Y1.2588  
G01 X0.5033  Y1.2577  
G01 X0.4995  Y1.2577  
G01 X0.4997  Y1.2573  
G01 X0.4999  Y1.2560  
G01 X0.5002  Y1.2547  
G01 X0.5002  Y1.2533  
G01 X0.5004  Y1.2520  
G01 X0.5002  Y1.2507  
G01 X0.5002  Y1.2493  
G01 X0.4999  Y1.2480  
G01 X0.4997  Y1.2467  
G01 X0.4992  Y1.2455  
G01 X0.4989  Y1.2442  
G01 X0.4982  Y1.2430  
G01 X0.4979  Y1.2422  
G01 X0.5136  Y1.2422  
G01 X0.5354  Y1.2640  
G01 X0.5341  Y1.2653  
G01 X0.5326  Y1.2666  
G01 X0.5322  Y1.2671  
G01 X0.5318  Y1.2676  
G01 X0.5308  Y1.2693  
G01 X0.5301  Y1.2704  
G00 Z0.3000  
G00 X0.6300  Y1.2702  
G01 Z-0.0070 F5     
G01 X0.6342  Y1.2702  F7     
G01 X0.6331  Y1.2722  
G01 X0.6329  Y1.2731  
G01 X0.6300  Y1.2702  
G00 Z0.3000  
G00 X0.6300  Y1.2297  
G01 Z-0.0070 F5     
G01 X0.6329  Y1.2269  F7     
G01 X0.6331  Y1.2278  
G01 X0.6342  Y1.2297  
G01 X0.6300  Y1.2297  
G00 Z0.3000  
G00 X0.4700  Y1.1702  
G01 Z-0.0070 F5     
G01 X0.4671  Y1.1731  F7     
G01 X0.4669  Y1.1722  
G01 X0.4658  Y1.1702  
G01 X0.4700  Y1.1702  
G00 Z0.3000  
G00 X0.4700  Y1.1298  
G01 Z-0.0070 F5     
G01 X0.4658  Y1.1298  F7     
G01 X0.4669  Y1.1278  
G01 X0.4671  Y1.1269  
G01 X0.4700  Y1.1298  
G00 Z0.3000  
G00 X0.2452  Y1.3698  
G01 Z-0.0070 F5     
G01 X0.2533  Y1.3894  F7     
G01 X0.2533  Y1.4106  
G01 X0.2452  Y1.4302  
G01 X0.2302  Y1.4452  
G01 X0.2106  Y1.4533  
G01 X0.1894  Y1.4533  
G01 X0.1698  Y1.4452  
G01 X0.1548  Y1.4302  
G01 X0.1467  Y1.4106  
G01 X0.1467  Y1.3894  
G01 X0.1548  Y1.3698  
G01 X0.1698  Y1.3548  
G01 X0.1894  Y1.3467  
G01 X0.2106  Y1.3467  
G01 X0.2302  Y1.3548  
G01 X0.2452  Y1.3698  
G00 Z0.3000  
G00 X0.0304  Y0.0339  
G01 Z-0.0070 F5     
G01 X0.0276  Y0.0380  F7     
G01 X0.0257  Y0.0426  
G01 X0.0248  Y0.0475  
G01 X0.0248  Y1.5415  
G01 X0.0257  Y1.5464  
G01 X0.0276  Y1.5510  
G01 X0.0304  Y1.5551  
G01 X0.0339  Y1.5586  
G01 X0.0380  Y1.5614  
G01 X0.0426  Y1.5633  
G01 X0.0475  Y1.5643  
G01 X0.9025  Y1.5643  
G01 X0.9074  Y1.5633  
G01 X0.9120  Y1.5614  
G01 X0.9161  Y1.5586  
G01 X0.9196  Y1.5551  
G01 X0.9224  Y1.5510  
G01 X0.9243  Y1.5464  
G01 X0.9252  Y1.5415  
G01 X0.9252  Y0.0525  
G01 X0.9252  Y0.0475  
G01 X0.9243  Y0.0426  
G01 X0.9224  Y0.0380  
G01 X0.9196  Y0.0339  
G01 X0.9161  Y0.0304  
G01 X0.9120  Y0.0276  
G01 X0.9074  Y0.0257  
G01 X0.9071  Y0.0257  
G01 X0.9025  Y0.0248  
G01 X0.0475  Y0.0248  
G01 X0.0426  Y0.0257  
G01 X0.0380  Y0.0276  
G01 X0.0339  Y0.0304  
G01 X0.0304  Y0.0339  
G00 Z0.3000  
G00 X0.2052  Y0.4470  
G01 Z-0.0070 F5     
G01 X0.2105  Y0.4462  F7     
G01 X0.2170  Y0.4527  
G01 X0.2048  Y0.4527  
G01 X0.2052  Y0.4505  
G01 X0.2052  Y0.4470  
G00 Z0.3000  
G00 X0.2752  Y0.4475  
G01 Z-0.0070 F5     
G01 X0.2743  Y0.4426  F7     
G01 X0.2732  Y0.4400  
G01 X0.2804  Y0.4472  
G01 X0.3196  Y0.4472  
G01 X0.3268  Y0.4400  
G01 X0.3257  Y0.4426  
G01 X0.3247  Y0.4475  
G01 X0.3247  Y0.4579  
G01 X0.3196  Y0.4527  
G01 X0.2804  Y0.4527  
G01 X0.2752  Y0.4579  
G01 X0.2752  Y0.4475  
G00 Z0.3000  
G00 X0.2527  Y0.4170  
G01 Z-0.0070 F5     
G01 X0.2462  Y0.4105  F7     
G01 X0.2470  Y0.4052  
G01 X0.2505  Y0.4052  
G01 X0.2527  Y0.4048  
G01 X0.2527  Y0.4170  
G00 Z0.3000  
G00 X0.3472  Y0.4170  
G01 Z-0.0070 F5     
G01 X0.3472  Y0.3885  F7     
G01 X0.3528  Y0.3830  
G01 X0.3528  Y0.4115  
G01 X0.3472  Y0.4170  
G00 Z0.3000  
G00 X0.3830  Y0.4527  
G01 Z-0.0070 F5     
G01 X0.3885  Y0.4472  F7     
G01 X0.3983  Y0.4472  
G01 X0.3983  Y0.4475  
G01 X0.3983  Y0.4525  
G01 X0.3983  Y0.4527  
G01 X0.3830  Y0.4527  
G00 Z0.3000  
G00 X0.6590  Y0.3274  
G01 Z-0.0070 F5     
G01 X0.6517  Y0.3096  F7     
G01 X0.6517  Y0.2904  
G01 X0.6590  Y0.2726  
G01 X0.6726  Y0.2590  
G01 X0.6904  Y0.2517  
G01 X0.7096  Y0.2517  
G01 X0.7274  Y0.2590  
G01 X0.7410  Y0.2726  
G01 X0.7483  Y0.2904  
G01 X0.7483  Y0.3096  
G01 X0.7410  Y0.3274  
G01 X0.7274  Y0.3410  
G01 X0.7096  Y0.3483  
G01 X0.6904  Y0.3483  
G01 X0.6726  Y0.3410  
G01 X0.6590  Y0.3274  
G00 Z0.3000  
G00 X0.5527  Y1.1017  
G01 Z-0.0070 F5     
G01 X0.5527  Y1.1196  F7     
G01 X0.5600  Y1.1268  
G01 X0.5574  Y1.1257  
G01 X0.5525  Y1.1247  
G01 X0.5421  Y1.1247  
G01 X0.5472  Y1.1196  
G01 X0.5472  Y1.1017  
G01 X0.5475  Y1.1017  
G01 X0.5525  Y1.1017  
G01 X0.5527  Y1.1017  
G00 Z0.3000  
G00 X0.5830  Y1.1472  
G01 Z-0.0070 F5     
G01 X0.5983  Y1.1472  F7     
G01 X0.5983  Y1.1475  
G01 X0.5983  Y1.1525  
G01 X0.5983  Y1.1527  
G01 X0.5885  Y1.1527  
G01 X0.5830  Y1.1472  
G00 Z0.3000  
G00 X0.5472  Y1.1830  
G01 Z-0.0070 F5     
G01 X0.5527  Y1.1885  F7     
G01 X0.5527  Y1.2170  
G01 X0.5472  Y1.2115  
G01 X0.5472  Y1.1830  
G00 Z0.3000  
G00 X0.5230  Y1.2587  
G01 Z-0.0070 F5     
G01 X0.5181  Y1.2562  F7     
G01 X0.5111  Y1.2539  
G01 X0.5052  Y1.2530  
G01 X0.5052  Y1.2495  
G01 X0.5048  Y1.2472  
G01 X0.5115  Y1.2472  
G01 X0.5230  Y1.2587  
G00 Z0.3000  
G00 X0.2410  Y1.3726  
G01 Z-0.0070 F5     
G01 X0.2483  Y1.3904  F7     
G01 X0.2483  Y1.4096  
G01 X0.2410  Y1.4274  
G01 X0.2274  Y1.4410  
G01 X0.2096  Y1.4483  
G01 X0.1904  Y1.4483  
G01 X0.1726  Y1.4410  
G01 X0.1590  Y1.4274  
G01 X0.1517  Y1.4096  
G01 X0.1517  Y1.3904  
G01 X0.1590  Y1.3726  
G01 X0.1726  Y1.3590  
G01 X0.1904  Y1.3517  
G01 X0.2096  Y1.3517  
G01 X0.2274  Y1.3590  
G01 X0.2410  Y1.3726  
G00 Z0.3000  
G00 X0.0265  Y0.0307  
G01 Z-0.0070 F5     
G01 X0.0232  Y0.0357  F7     
G01 X0.0209  Y0.0412  
G01 X0.0198  Y0.0470  
G01 X0.0198  Y1.5420  
G01 X0.0209  Y1.5478  
G01 X0.0232  Y1.5533  
G01 X0.0265  Y1.5583  
G01 X0.0307  Y1.5625  
G01 X0.0357  Y1.5658  
G01 X0.0412  Y1.5681  
G01 X0.0470  Y1.5693  
G01 X0.9030  Y1.5693  
G01 X0.9088  Y1.5681  
G01 X0.9143  Y1.5658  
G01 X0.9193  Y1.5625  
G01 X0.9235  Y1.5583  
G01 X0.9268  Y1.5533  
G01 X0.9291  Y1.5478  
G01 X0.9302  Y1.5420  
G01 X0.9302  Y0.0530  
G01 X0.9302  Y0.0470  
G01 X0.9291  Y0.0412  
G01 X0.9268  Y0.0357  
G01 X0.9235  Y0.0307  
G01 X0.9193  Y0.0265  
G01 X0.9143  Y0.0232  
G01 X0.9088  Y0.0209  
G01 X0.9030  Y0.0198  
G01 X0.0470  Y0.0198  
G01 X0.0412  Y0.0209  
G01 X0.0357  Y0.0232  
G01 X0.0307  Y0.0265  
G01 X0.0265  Y0.0307  
G00 Z0.3000  
G00 X0.6754  Y0.2633  
G01 Z-0.0070 F5     
G01 X0.6914  Y0.2567  F7     
G01 X0.7086  Y0.2567  
G01 X0.7246  Y0.2633  
G01 X0.7367  Y0.2754  
G01 X0.7433  Y0.2914  
G01 X0.7433  Y0.3086  
G01 X0.7367  Y0.3246  
G01 X0.7246  Y0.3367  
G01 X0.7086  Y0.3433  
G01 X0.6914  Y0.3433  
G01 X0.6754  Y0.3367  
G01 X0.6633  Y0.3246  
G01 X0.6567  Y0.3086  
G01 X0.6567  Y0.2914  
G01 X0.6633  Y0.2754  
G01 X0.6754  Y0.2633  
G00 Z0.3000  
G00 X0.2367  Y1.3754  
G01 Z-0.0070 F5     
G01 X0.2433  Y1.3914  F7     
G01 X0.2433  Y1.4086  
G01 X0.2367  Y1.4246  
G01 X0.2246  Y1.4367  
G01 X0.2086  Y1.4433  
G01 X0.1914  Y1.4433  
G01 X0.1754  Y1.4367  
G01 X0.1633  Y1.4246  
G01 X0.1567  Y1.4086  
G01 X0.1567  Y1.3914  
G01 X0.1633  Y1.3754  
G01 X0.1754  Y1.3633  
G01 X0.1914  Y1.3567  
G01 X0.2086  Y1.3567  
G01 X0.2246  Y1.3633  
G01 X0.2367  Y1.3754  
G00 Z0.3000  
G82 X0.7000  Y0.3000  Z-0.0110 F20    R0.3000  P1.000000
G82 X0.2000  Y1.4000  
G82 X0.2000  Y0.4000  
G82 X0.2000  Y0.5000  
G82 X0.3000  Y0.4000  
G82 X0.3000  Y0.5000  
G82 X0.4000  Y0.4000  
G82 X0.4000  Y0.5000  
G82 X0.5000  Y1.3000  
G82 X0.6000  Y1.3000  
G82 X0.5000  Y1.2000  
G82 X0.6000  Y1.2000  
G82 X0.5000  Y1.1000  
G82 X0.6000  Y1.1000  
G00 Z0.5000  
M05
M02
