(.../EagleCAD.Playground/PCB-GCODE/pcb-gcode.ulp)
(Copyright 2005 - 2012 by John Johnson)
(See readme.txt for licensing terms.)
(This file generated from the board:)
(.../IDers Test/SMM Test Jig/LPC_probe.brd)
(Current profile is .../EagleCAD.Playground/PCB-GCODE/profiles/mach.pp  )
(This file generated 5/24/2015 6:35:23 PM)
(Settings from pcb-machine.h)
(spindle on time = 3.0000)
(  Tool Size)
(0.0025  )
(spindle speed = 30000.0000)
(tool change at 0.0000  0.0000  1.0000  )
(feed rate xy = F7     )
(feed rate z  = F5     )
(Z Axis Settings)
(  High     Up        Down     Drill)
(0.5000  	0.3000  	-0.0070 	-0.0630 )
(Settings from pcb-defaults.h)
(isolate min = 0.0010)
(isolate max = 0.0200)
(isolate step = 0.0050)
(Generated top outlines, top drill, )
(Unit of measure: inch)
(Inch Mode)
G20
(Absolute Coordinates)
G90
S30000
G00 Z0.5000  
G00 X0.0000  Y0.0000  
M03
G04 P3.000000
G00 Z0.3000  
G00 X0.0424  Y0.0417  
G01 Z-0.0070 F5     
G01 X0.0410  Y0.0440  F7     
G01 X0.0403  Y0.0467  
G01 X0.0403  Y1.3377  
G01 X0.0403  Y1.3404  
G01 X0.0410  Y1.3430  
G01 X0.0424  Y1.3453  
G01 X0.0443  Y1.3472  
G01 X0.0466  Y1.3486  
G01 X0.0492  Y1.3493  
G01 X0.6500  Y1.3493  
G01 X0.6526  Y1.3486  
G01 X0.6549  Y1.3472  
G01 X0.6569  Y1.3453  
G01 X0.6582  Y1.3430  
G01 X0.6589  Y1.3404  
G01 X0.6589  Y0.0467  
G01 X0.6582  Y0.0440  
G01 X0.6569  Y0.0417  
G01 X0.6549  Y0.0398  
G01 X0.6526  Y0.0384  
G01 X0.6500  Y0.0377  
G01 X0.0492  Y0.0377  
G01 X0.0466  Y0.0384  
G01 X0.0443  Y0.0398  
G01 X0.0424  Y0.0417  
G00 Z0.3000  
G00 X0.1854  Y0.1381  
G01 Z-0.0070 F5     
G01 X0.1923  Y0.1352  F7     
G01 X0.4237  Y0.1352  
G01 X0.4306  Y0.1381  
G01 X0.4364  Y0.1439  
G01 X0.4779  Y0.1854  
G01 X0.4807  Y0.1923  
G01 X0.4807  Y0.2277  
G01 X0.4777  Y0.2350  
G01 X0.4774  Y0.2356  
G01 X0.4772  Y0.2362  
G01 X0.4770  Y0.2368  
G01 X0.4769  Y0.2375  
G01 X0.4767  Y0.2382  
G01 X0.4767  Y0.2388  
G01 X0.4766  Y0.2395  
G01 X0.4767  Y0.2402  
G01 X0.4767  Y0.3360  
G01 X0.4700  Y0.3427  
G01 X0.4687  Y0.3450  
G01 X0.4686  Y0.3452  
G01 X0.4679  Y0.3477  
G01 X0.4679  Y0.3503  
G01 X0.4686  Y0.3530  
G01 X0.4700  Y0.3553  
G01 X0.4719  Y0.3572  
G01 X0.4742  Y0.3585  
G01 X0.4743  Y0.3586  
G01 X0.4768  Y0.3592  
G01 X0.4937  Y0.3592  
G01 X0.5006  Y0.3621  
G01 X0.6102  Y0.4717  
G01 X0.6179  Y0.4794  
G01 X0.6207  Y0.4863  
G01 X0.6207  Y1.0957  
G01 X0.6179  Y1.1026  
G01 X0.5083  Y1.2122  
G01 X0.5006  Y1.2199  
G01 X0.4937  Y1.2227  
G01 X0.2903  Y1.2227  
G01 X0.2834  Y1.2199  
G01 X0.2298  Y1.1663  
G01 X0.2221  Y1.1586  
G01 X0.2192  Y1.1517  
G01 X0.2192  Y1.1163  
G01 X0.2223  Y1.1090  
G01 X0.2226  Y1.1084  
G01 X0.2228  Y1.1078  
G01 X0.2230  Y1.1072  
G01 X0.2231  Y1.1065  
G01 X0.2233  Y1.1058  
G01 X0.2233  Y1.1052  
G01 X0.2234  Y1.1045  
G01 X0.2233  Y1.1038  
G01 X0.2233  Y1.0140  
G01 X0.2302  Y1.0071  
G01 X0.2706  Y1.0071  
G01 X0.2710  Y1.0074  
G01 X0.2724  Y1.0077  
G01 X0.2736  Y1.0081  
G01 X0.2750  Y1.0081  
G01 X0.2763  Y1.0081  
G01 X0.2768  Y1.0080  
G01 X0.2790  Y1.0074  
G01 X0.2794  Y1.0071  
G01 X0.2805  Y1.0069  
G01 X0.2820  Y1.0064  
G01 X0.2844  Y1.0051  
G01 X0.2863  Y1.0032  
G01 X0.2882  Y1.0013  
G01 X0.2895  Y0.9990  
G01 X0.2898  Y0.9980  
G01 X0.2902  Y0.9963  
G01 X0.2902  Y0.9937  
G01 X0.2900  Y0.9926  
G01 X0.2895  Y0.9910  
G01 X0.2882  Y0.9887  
G01 X0.2863  Y0.9868  
G01 X0.2839  Y0.9854  
G01 X0.2830  Y0.9852  
G01 X0.2813  Y0.9847  
G01 X0.1923  Y0.9847  
G01 X0.1854  Y0.9819  
G01 X0.1796  Y0.9761  
G01 X0.0821  Y0.8786  
G01 X0.0792  Y0.8717  
G01 X0.0792  Y0.2483  
G01 X0.0821  Y0.2414  
G01 X0.0879  Y0.2356  
G01 X0.1854  Y0.1381  
G00 Z0.3000  
G00 X0.1908  Y0.1462  
G01 Z-0.0070 F5     
G01 X0.0928  Y0.2442  F7     
G01 X0.0902  Y0.2468  
G01 X0.0887  Y0.2502  
G01 X0.0887  Y0.8698  
G01 X0.0902  Y0.8732  
G01 X0.1882  Y0.9712  
G01 X0.1908  Y0.9738  
G01 X0.1942  Y0.9752  
G01 X0.3098  Y0.9752  
G01 X0.3132  Y0.9738  
G01 X0.3398  Y0.9472  
G01 X0.3798  Y0.9472  
G01 X0.3832  Y0.9458  
G01 X0.4098  Y0.9192  
G01 X0.4218  Y0.9192  
G01 X0.4252  Y0.9178  
G01 X0.4532  Y0.8898  
G01 X0.4558  Y0.8872  
G01 X0.4572  Y0.8838  
G01 X0.4572  Y0.8834  
G01 X0.4659  Y0.8834  
G01 X0.4672  Y0.8820  
G01 X0.4672  Y0.7857  
G01 X0.4659  Y0.7844  
G01 X0.4341  Y0.7844  
G01 X0.4328  Y0.7857  
G01 X0.4328  Y0.8820  
G01 X0.4338  Y0.8831  
G01 X0.4162  Y0.9008  
G01 X0.4042  Y0.9008  
G01 X0.4008  Y0.9022  
G01 X0.3982  Y0.9048  
G01 X0.3742  Y0.9287  
G01 X0.3342  Y0.9287  
G01 X0.3308  Y0.9302  
G01 X0.3282  Y0.9328  
G01 X0.3042  Y0.9567  
G01 X0.1998  Y0.9567  
G01 X0.1072  Y0.8642  
G01 X0.1072  Y0.2558  
G01 X0.1998  Y0.1632  
G01 X0.4162  Y0.1632  
G01 X0.4527  Y0.1998  
G01 X0.4527  Y0.2202  
G01 X0.4402  Y0.2328  
G01 X0.4395  Y0.2344  
G01 X0.4341  Y0.2344  
G01 X0.4328  Y0.2357  
G01 X0.4328  Y0.3320  
G01 X0.4341  Y0.3334  
G01 X0.4659  Y0.3334  
G01 X0.4672  Y0.3320  
G01 X0.4672  Y0.2357  
G01 X0.4659  Y0.2344  
G01 X0.4647  Y0.2344  
G01 X0.4672  Y0.2318  
G01 X0.4698  Y0.2292  
G01 X0.4712  Y0.2258  
G01 X0.4712  Y0.1942  
G01 X0.4698  Y0.1908  
G01 X0.4278  Y0.1488  
G01 X0.4252  Y0.1462  
G01 X0.4218  Y0.1447  
G01 X0.1942  Y0.1447  
G01 X0.1908  Y0.1462  
G00 Z0.3000  
G00 X0.2048  Y0.1742  
G01 Z-0.0070 F5     
G01 X0.1208  Y0.2582  F7     
G01 X0.1182  Y0.2608  
G01 X0.1168  Y0.2642  
G01 X0.1168  Y0.8558  
G01 X0.1182  Y0.8592  
G01 X0.2022  Y0.9432  
G01 X0.2048  Y0.9458  
G01 X0.2082  Y0.9472  
G01 X0.2398  Y0.9472  
G01 X0.2432  Y0.9458  
G01 X0.2992  Y0.8898  
G01 X0.3018  Y0.8872  
G01 X0.3032  Y0.8838  
G01 X0.3032  Y0.8834  
G01 X0.3159  Y0.8834  
G01 X0.3172  Y0.8820  
G01 X0.3172  Y0.7857  
G01 X0.3159  Y0.7844  
G01 X0.2841  Y0.7844  
G01 X0.2828  Y0.7857  
G01 X0.2828  Y0.8801  
G01 X0.2342  Y0.9287  
G01 X0.2138  Y0.9287  
G01 X0.1352  Y0.8502  
G01 X0.1352  Y0.2698  
G01 X0.2138  Y0.1912  
G01 X0.2762  Y0.1912  
G01 X0.2848  Y0.1998  
G01 X0.2848  Y0.2344  
G01 X0.2841  Y0.2344  
G01 X0.2828  Y0.2357  
G01 X0.2828  Y0.3320  
G01 X0.2841  Y0.3334  
G01 X0.3159  Y0.3334  
G01 X0.3172  Y0.3320  
G01 X0.3172  Y0.2357  
G01 X0.3159  Y0.2344  
G01 X0.3032  Y0.2344  
G01 X0.3032  Y0.1942  
G01 X0.3018  Y0.1908  
G01 X0.2878  Y0.1768  
G01 X0.2852  Y0.1742  
G01 X0.2818  Y0.1727  
G01 X0.2082  Y0.1727  
G01 X0.2048  Y0.1742  
G00 Z0.3000  
G00 X0.2157  Y0.2028  
G01 Z-0.0070 F5     
G01 X0.1487  Y0.2698  F7     
G01 X0.1468  Y0.2717  
G01 X0.1454  Y0.2741  
G01 X0.1447  Y0.2767  
G01 X0.1447  Y0.3093  
G01 X0.1454  Y0.3119  
G01 X0.1468  Y0.3143  
G01 X0.1487  Y0.3162  
G01 X0.1510  Y0.3175  
G01 X0.1537  Y0.3182  
G01 X0.1563  Y0.3182  
G01 X0.1590  Y0.3175  
G01 X0.1613  Y0.3162  
G01 X0.1619  Y0.3156  
G01 X0.1632  Y0.3143  
G01 X0.1994  Y0.2781  
G01 X0.2063  Y0.2752  
G01 X0.2144  Y0.2752  
G01 X0.2170  Y0.2746  
G01 X0.2193  Y0.2732  
G01 X0.2212  Y0.2713  
G01 X0.2226  Y0.2690  
G01 X0.2233  Y0.2663  
G01 X0.2233  Y0.2317  
G01 X0.2302  Y0.2249  
G01 X0.2663  Y0.2249  
G01 X0.2690  Y0.2242  
G01 X0.2713  Y0.2228  
G01 X0.2732  Y0.2209  
G01 X0.2746  Y0.2186  
G01 X0.2752  Y0.2160  
G01 X0.2752  Y0.2097  
G01 X0.2746  Y0.2070  
G01 X0.2732  Y0.2047  
G01 X0.2713  Y0.2028  
G01 X0.2690  Y0.2014  
G01 X0.2663  Y0.2007  
G01 X0.2207  Y0.2007  
G01 X0.2181  Y0.2014  
G01 X0.2157  Y0.2028  
G00 Z0.3000  
G00 X0.2328  Y0.2357  
G01 Z-0.0070 F5     
G01 X0.2328  Y0.2848  F7     
G01 X0.2082  Y0.2848  
G01 X0.2048  Y0.2862  
G01 X0.1488  Y0.3422  
G01 X0.1462  Y0.3448  
G01 X0.1447  Y0.3482  
G01 X0.1447  Y0.7578  
G01 X0.1462  Y0.7612  
G01 X0.2304  Y0.8455  
G01 X0.2306  Y0.8459  
G01 X0.2317  Y0.8468  
G01 X0.2328  Y0.8478  
G01 X0.2328  Y0.8820  
G01 X0.2341  Y0.8834  
G01 X0.2659  Y0.8834  
G01 X0.2672  Y0.8820  
G01 X0.2672  Y0.7857  
G01 X0.2659  Y0.7844  
G01 X0.2341  Y0.7844  
G01 X0.2328  Y0.7857  
G01 X0.2328  Y0.8217  
G01 X0.1632  Y0.7522  
G01 X0.1632  Y0.3538  
G01 X0.2138  Y0.3032  
G01 X0.2328  Y0.3032  
G01 X0.2328  Y0.3320  
G01 X0.2341  Y0.3334  
G01 X0.2659  Y0.3334  
G01 X0.2672  Y0.3320  
G01 X0.2672  Y0.2357  
G01 X0.2659  Y0.2344  
G01 X0.2341  Y0.2344  
G01 X0.2328  Y0.2357  
G00 Z0.3000  
G00 X0.3167  Y0.2228  
G01 Z-0.0070 F5     
G01 X0.3190  Y0.2242  F7     
G01 X0.3198  Y0.2244  
G01 X0.3210  Y0.2251  
G01 X0.3224  Y0.2255  
G01 X0.3236  Y0.2258  
G01 X0.3250  Y0.2258  
G01 X0.3263  Y0.2258  
G01 X0.3268  Y0.2257  
G01 X0.3290  Y0.2251  
G01 X0.3294  Y0.2249  
G01 X0.3706  Y0.2249  
G01 X0.3710  Y0.2251  
G01 X0.3724  Y0.2255  
G01 X0.3736  Y0.2258  
G01 X0.3750  Y0.2258  
G01 X0.3763  Y0.2258  
G01 X0.3768  Y0.2257  
G01 X0.3790  Y0.2251  
G01 X0.3794  Y0.2249  
G01 X0.4206  Y0.2249  
G01 X0.4210  Y0.2251  
G01 X0.4224  Y0.2255  
G01 X0.4236  Y0.2258  
G01 X0.4250  Y0.2258  
G01 X0.4263  Y0.2258  
G01 X0.4268  Y0.2257  
G01 X0.4290  Y0.2251  
G01 X0.4294  Y0.2249  
G01 X0.4317  Y0.2249  
G01 X0.4343  Y0.2242  
G01 X0.4367  Y0.2228  
G01 X0.4393  Y0.2202  
G01 X0.4412  Y0.2183  
G01 X0.4426  Y0.2159  
G01 X0.4432  Y0.2133  
G01 X0.4432  Y0.2067  
G01 X0.4426  Y0.2041  
G01 X0.4412  Y0.2017  
G01 X0.4162  Y0.1767  
G01 X0.4143  Y0.1748  
G01 X0.4119  Y0.1734  
G01 X0.4093  Y0.1727  
G01 X0.3207  Y0.1727  
G01 X0.3200  Y0.1727  
G01 X0.3193  Y0.1727  
G01 X0.3187  Y0.1727  
G01 X0.3180  Y0.1729  
G01 X0.3173  Y0.1730  
G01 X0.3167  Y0.1733  
G01 X0.3160  Y0.1734  
G01 X0.3155  Y0.1738  
G01 X0.3148  Y0.1740  
G01 X0.3143  Y0.1745  
G01 X0.3137  Y0.1748  
G01 X0.3132  Y0.1753  
G01 X0.3127  Y0.1757  
G01 X0.3123  Y0.1762  
G01 X0.3118  Y0.1767  
G01 X0.3115  Y0.1773  
G01 X0.3111  Y0.1778  
G01 X0.3108  Y0.1785  
G01 X0.3105  Y0.1790  
G01 X0.3103  Y0.1797  
G01 X0.3100  Y0.1803  
G01 X0.3099  Y0.1810  
G01 X0.3098  Y0.1817  
G01 X0.3098  Y0.1823  
G01 X0.3097  Y0.1830  
G01 X0.3098  Y0.1837  
G01 X0.3098  Y0.1843  
G01 X0.3099  Y0.1850  
G01 X0.3100  Y0.1857  
G01 X0.3103  Y0.1863  
G01 X0.3105  Y0.1870  
G01 X0.3108  Y0.1875  
G01 X0.3127  Y0.1923  
G01 X0.3127  Y0.2160  
G01 X0.3134  Y0.2186  
G01 X0.3148  Y0.2209  
G01 X0.3167  Y0.2228  
G00 Z0.3000  
G00 X0.3328  Y0.2357  
G01 Z-0.0070 F5     
G01 X0.3328  Y0.3320  F7     
G01 X0.3341  Y0.3334  
G01 X0.3396  Y0.3334  
G01 X0.3042  Y0.3688  
G01 X0.2502  Y0.3688  
G01 X0.2468  Y0.3702  
G01 X0.1768  Y0.4402  
G01 X0.1742  Y0.4428  
G01 X0.1727  Y0.4462  
G01 X0.1727  Y0.6178  
G01 X0.1742  Y0.6212  
G01 X0.3373  Y0.7844  
G01 X0.3341  Y0.7844  
G01 X0.3328  Y0.7857  
G01 X0.3328  Y0.8820  
G01 X0.3341  Y0.8834  
G01 X0.3659  Y0.8834  
G01 X0.3672  Y0.8820  
G01 X0.3672  Y0.7857  
G01 X0.3659  Y0.7844  
G01 X0.3592  Y0.7844  
G01 X0.3592  Y0.7822  
G01 X0.3578  Y0.7788  
G01 X0.3552  Y0.7762  
G01 X0.1912  Y0.6122  
G01 X0.1912  Y0.4518  
G01 X0.2558  Y0.3872  
G01 X0.3098  Y0.3872  
G01 X0.3132  Y0.3858  
G01 X0.3158  Y0.3832  
G01 X0.3578  Y0.3412  
G01 X0.3592  Y0.3378  
G01 X0.3592  Y0.3334  
G01 X0.3659  Y0.3334  
G01 X0.3672  Y0.3320  
G01 X0.3672  Y0.2357  
G01 X0.3659  Y0.2344  
G01 X0.3341  Y0.2344  
G01 X0.3328  Y0.2357  
G00 Z0.3000  
G00 X0.3828  Y0.2357  
G01 Z-0.0070 F5     
G01 X0.3828  Y0.2921  F7     
G01 X0.3827  Y0.2927  
G01 X0.3826  Y0.2933  
G01 X0.3827  Y0.2945  
G01 X0.3827  Y0.3322  
G01 X0.3182  Y0.3967  
G01 X0.2642  Y0.3967  
G01 X0.2608  Y0.3982  
G01 X0.2048  Y0.4542  
G01 X0.2022  Y0.4568  
G01 X0.2008  Y0.4602  
G01 X0.2008  Y0.6038  
G01 X0.2022  Y0.6072  
G01 X0.3282  Y0.7332  
G01 X0.3308  Y0.7358  
G01 X0.3342  Y0.7372  
G01 X0.3462  Y0.7372  
G01 X0.3933  Y0.7844  
G01 X0.3841  Y0.7844  
G01 X0.3828  Y0.7857  
G01 X0.3828  Y0.8820  
G01 X0.3841  Y0.8834  
G01 X0.4159  Y0.8834  
G01 X0.4172  Y0.8820  
G01 X0.4172  Y0.7857  
G01 X0.4159  Y0.7844  
G01 X0.4152  Y0.7844  
G01 X0.4152  Y0.7822  
G01 X0.4138  Y0.7788  
G01 X0.4112  Y0.7762  
G01 X0.3552  Y0.7202  
G01 X0.3518  Y0.7188  
G01 X0.3398  Y0.7188  
G01 X0.2192  Y0.5982  
G01 X0.2192  Y0.4658  
G01 X0.2698  Y0.4152  
G01 X0.3238  Y0.4152  
G01 X0.3272  Y0.4138  
G01 X0.3298  Y0.4112  
G01 X0.3998  Y0.3412  
G01 X0.4012  Y0.3378  
G01 X0.4012  Y0.3334  
G01 X0.4159  Y0.3334  
G01 X0.4172  Y0.3320  
G01 X0.4172  Y0.2357  
G01 X0.4159  Y0.2344  
G01 X0.3841  Y0.2344  
G01 X0.3828  Y0.2357  
G00 Z0.3000  
G00 X0.3842  Y0.3728  
G01 Z-0.0070 F5     
G01 X0.3842  Y0.3728  F7     
G01 X0.3322  Y0.4248  
G01 X0.2782  Y0.4248  
G01 X0.2748  Y0.4262  
G01 X0.2722  Y0.4288  
G01 X0.2468  Y0.4542  
G01 X0.2442  Y0.4568  
G01 X0.2427  Y0.4602  
G01 X0.2427  Y0.4666  
G01 X0.2341  Y0.4666  
G01 X0.2328  Y0.4680  
G01 X0.2328  Y0.5643  
G01 X0.2341  Y0.5656  
G01 X0.2659  Y0.5656  
G01 X0.2672  Y0.5643  
G01 X0.2672  Y0.4680  
G01 X0.2659  Y0.4666  
G01 X0.2612  Y0.4666  
G01 X0.2612  Y0.4658  
G01 X0.2838  Y0.4432  
G01 X0.3378  Y0.4432  
G01 X0.3412  Y0.4418  
G01 X0.3958  Y0.3872  
G01 X0.4862  Y0.3872  
G01 X0.5927  Y0.4938  
G01 X0.5927  Y1.0882  
G01 X0.4862  Y1.1947  
G01 X0.2978  Y1.1947  
G01 X0.2472  Y1.1442  
G01 X0.2472  Y1.1238  
G01 X0.2554  Y1.1156  
G01 X0.2659  Y1.1156  
G01 X0.2672  Y1.1143  
G01 X0.2672  Y1.0180  
G01 X0.2659  Y1.0166  
G01 X0.2341  Y1.0166  
G01 X0.2328  Y1.0180  
G01 X0.2328  Y1.1121  
G01 X0.2302  Y1.1148  
G01 X0.2288  Y1.1182  
G01 X0.2288  Y1.1498  
G01 X0.2302  Y1.1532  
G01 X0.2328  Y1.1558  
G01 X0.2888  Y1.2118  
G01 X0.2922  Y1.2132  
G01 X0.4918  Y1.2132  
G01 X0.4952  Y1.2118  
G01 X0.4978  Y1.2092  
G01 X0.6098  Y1.0972  
G01 X0.6112  Y1.0938  
G01 X0.6112  Y0.4882  
G01 X0.6098  Y0.4848  
G01 X0.6072  Y0.4822  
G01 X0.4952  Y0.3702  
G01 X0.4918  Y0.3688  
G01 X0.3902  Y0.3688  
G01 X0.3868  Y0.3702  
G01 X0.3842  Y0.3728  
G00 Z0.3000  
G00 X0.3982  Y0.4008  
G01 Z-0.0070 F5     
G01 X0.3562  Y0.4428  F7     
G01 X0.3548  Y0.4462  
G01 X0.3548  Y0.4582  
G01 X0.3463  Y0.4666  
G01 X0.3341  Y0.4666  
G01 X0.3328  Y0.4680  
G01 X0.3328  Y0.5643  
G01 X0.3341  Y0.5656  
G01 X0.3659  Y0.5656  
G01 X0.3672  Y0.5643  
G01 X0.3672  Y0.4719  
G01 X0.3692  Y0.4698  
G01 X0.3718  Y0.4672  
G01 X0.3732  Y0.4638  
G01 X0.3732  Y0.4518  
G01 X0.4098  Y0.4152  
G01 X0.4722  Y0.4152  
G01 X0.5647  Y0.5078  
G01 X0.5647  Y1.0742  
G01 X0.4722  Y1.1667  
G01 X0.4098  Y1.1667  
G01 X0.3732  Y1.1302  
G01 X0.3732  Y1.0902  
G01 X0.3718  Y1.0868  
G01 X0.3672  Y1.0821  
G01 X0.3672  Y1.0180  
G01 X0.3659  Y1.0166  
G01 X0.3341  Y1.0166  
G01 X0.3328  Y1.0180  
G01 X0.3328  Y1.1143  
G01 X0.3341  Y1.1156  
G01 X0.3548  Y1.1156  
G01 X0.3548  Y1.1358  
G01 X0.3562  Y1.1392  
G01 X0.3588  Y1.1418  
G01 X0.3982  Y1.1812  
G01 X0.4008  Y1.1838  
G01 X0.4042  Y1.1852  
G01 X0.4778  Y1.1852  
G01 X0.4812  Y1.1838  
G01 X0.4838  Y1.1812  
G01 X0.5818  Y1.0832  
G01 X0.5832  Y1.0798  
G01 X0.5832  Y0.5022  
G01 X0.5818  Y0.4988  
G01 X0.5792  Y0.4962  
G01 X0.4812  Y0.3982  
G01 X0.4778  Y0.3967  
G01 X0.4042  Y0.3967  
G01 X0.4008  Y0.3982  
G01 X0.3982  Y0.4008  
G00 Z0.3000  
G00 X0.3998  Y0.4387  
G01 Z-0.0070 F5     
G01 X0.3979  Y0.4406  F7     
G01 X0.3966  Y0.4429  
G01 X0.3959  Y0.4455  
G01 X0.3959  Y0.4482  
G01 X0.3966  Y0.4509  
G01 X0.3979  Y0.4532  
G01 X0.3998  Y0.4551  
G01 X0.4022  Y0.4564  
G01 X0.4048  Y0.4571  
G01 X0.4206  Y0.4571  
G01 X0.4210  Y0.4574  
G01 X0.4224  Y0.4577  
G01 X0.4236  Y0.4581  
G01 X0.4250  Y0.4581  
G01 X0.4263  Y0.4581  
G01 X0.4268  Y0.4580  
G01 X0.4290  Y0.4574  
G01 X0.4294  Y0.4571  
G01 X0.4698  Y0.4571  
G01 X0.4767  Y0.4640  
G01 X0.4767  Y0.4905  
G01 X0.4766  Y0.4912  
G01 X0.4767  Y0.4918  
G01 X0.4767  Y0.4925  
G01 X0.4769  Y0.4932  
G01 X0.4770  Y0.4938  
G01 X0.4772  Y0.4945  
G01 X0.4774  Y0.4951  
G01 X0.4777  Y0.4957  
G01 X0.4780  Y0.4963  
G01 X0.4784  Y0.4969  
G01 X0.4788  Y0.4974  
G01 X0.4792  Y0.4979  
G01 X0.4797  Y0.4985  
G01 X0.4802  Y0.4989  
G01 X0.4807  Y0.4994  
G01 X0.4813  Y0.4997  
G01 X0.4818  Y0.5001  
G01 X0.4824  Y0.5004  
G01 X0.4830  Y0.5007  
G01 X0.4837  Y0.5009  
G01 X0.4866  Y0.5021  
G01 X0.5368  Y0.5523  
G01 X0.5387  Y0.5542  
G01 X0.5410  Y0.5555  
G01 X0.5437  Y0.5562  
G01 X0.5463  Y0.5562  
G01 X0.5490  Y0.5555  
G01 X0.5513  Y0.5542  
G01 X0.5532  Y0.5523  
G01 X0.5546  Y0.5499  
G01 X0.5552  Y0.5473  
G01 X0.5552  Y0.5147  
G01 X0.5546  Y0.5121  
G01 X0.5532  Y0.5097  
G01 X0.5513  Y0.5078  
G01 X0.4722  Y0.4287  
G01 X0.4703  Y0.4268  
G01 X0.4679  Y0.4254  
G01 X0.4653  Y0.4247  
G01 X0.4167  Y0.4247  
G01 X0.4141  Y0.4254  
G01 X0.4117  Y0.4268  
G01 X0.3998  Y0.4387  
G00 Z0.3000  
G00 X0.3841  Y0.4666  
G01 Z-0.0070 F5     
G01 X0.3828  Y0.4680  F7     
G01 X0.3828  Y0.5643  
G01 X0.3841  Y0.5656  
G01 X0.3967  Y0.5656  
G01 X0.3967  Y0.6458  
G01 X0.3982  Y0.6492  
G01 X0.5088  Y0.7598  
G01 X0.5088  Y0.9062  
G01 X0.4582  Y0.9567  
G01 X0.4462  Y0.9567  
G01 X0.4428  Y0.9582  
G01 X0.3868  Y1.0142  
G01 X0.3843  Y1.0166  
G01 X0.3841  Y1.0166  
G01 X0.3828  Y1.0180  
G01 X0.3828  Y1.0201  
G01 X0.3827  Y1.0628  
G01 X0.3826  Y1.0634  
G01 X0.3827  Y1.0646  
G01 X0.3827  Y1.0658  
G01 X0.3828  Y1.1143  
G01 X0.3841  Y1.1156  
G01 X0.4159  Y1.1156  
G01 X0.4172  Y1.1143  
G01 X0.4172  Y1.0180  
G01 X0.4159  Y1.0166  
G01 X0.4104  Y1.0166  
G01 X0.4518  Y0.9752  
G01 X0.4638  Y0.9752  
G01 X0.4672  Y0.9738  
G01 X0.4698  Y0.9712  
G01 X0.5258  Y0.9152  
G01 X0.5272  Y0.9118  
G01 X0.5272  Y0.7542  
G01 X0.5258  Y0.7508  
G01 X0.5232  Y0.7482  
G01 X0.4152  Y0.6402  
G01 X0.4152  Y0.5656  
G01 X0.4159  Y0.5656  
G01 X0.4172  Y0.5643  
G01 X0.4172  Y0.4680  
G01 X0.4159  Y0.4666  
G01 X0.3841  Y0.4666  
G00 Z0.3000  
G00 X0.4328  Y0.4680  
G01 Z-0.0070 F5     
G01 X0.4328  Y0.5643  F7     
G01 X0.4341  Y0.5656  
G01 X0.4659  Y0.5656  
G01 X0.4672  Y0.5643  
G01 X0.4672  Y0.5272  
G01 X0.4722  Y0.5272  
G01 X0.5367  Y0.5918  
G01 X0.5367  Y0.9902  
G01 X0.4672  Y1.0597  
G01 X0.4672  Y1.0180  
G01 X0.4659  Y1.0166  
G01 X0.4341  Y1.0166  
G01 X0.4328  Y1.0180  
G01 X0.4328  Y1.1143  
G01 X0.4341  Y1.1156  
G01 X0.4659  Y1.1156  
G01 X0.4672  Y1.1143  
G01 X0.4672  Y1.0859  
G01 X0.4686  Y1.0845  
G01 X0.5538  Y0.9992  
G01 X0.5552  Y0.9958  
G01 X0.5552  Y0.5862  
G01 X0.5538  Y0.5828  
G01 X0.5512  Y0.5802  
G01 X0.4812  Y0.5102  
G01 X0.4778  Y0.5088  
G01 X0.4672  Y0.5088  
G01 X0.4672  Y0.4680  
G01 X0.4659  Y0.4666  
G01 X0.4341  Y0.4666  
G01 X0.4328  Y0.4680  
G00 Z0.3000  
G00 X0.4337  Y0.5751  
G01 Z-0.0070 F5     
G01 X0.4310  Y0.5758  F7     
G01 X0.4287  Y0.5772  
G01 X0.4268  Y0.5791  
G01 X0.4254  Y0.5814  
G01 X0.4247  Y0.5840  
G01 X0.4247  Y0.6333  
G01 X0.4254  Y0.6359  
G01 X0.4268  Y0.6383  
G01 X0.5088  Y0.7203  
G01 X0.5107  Y0.7222  
G01 X0.5130  Y0.7235  
G01 X0.5157  Y0.7242  
G01 X0.5183  Y0.7242  
G01 X0.5210  Y0.7235  
G01 X0.5233  Y0.7222  
G01 X0.5252  Y0.7203  
G01 X0.5266  Y0.7179  
G01 X0.5272  Y0.7153  
G01 X0.5272  Y0.6014  
G01 X0.5272  Y0.5987  
G01 X0.5266  Y0.5961  
G01 X0.5252  Y0.5937  
G01 X0.4952  Y0.5637  
G01 X0.4933  Y0.5618  
G01 X0.4909  Y0.5604  
G01 X0.4883  Y0.5597  
G01 X0.4856  Y0.5597  
G01 X0.4830  Y0.5604  
G01 X0.4807  Y0.5618  
G01 X0.4788  Y0.5637  
G01 X0.4774  Y0.5660  
G01 X0.4768  Y0.5681  
G01 X0.4698  Y0.5751  
G01 X0.4337  Y0.5751  
G00 Z0.3000  
G00 X0.3833  Y0.5772  
G01 Z-0.0070 F5     
G01 X0.3810  Y0.5758  F7     
G01 X0.3802  Y0.5756  
G01 X0.3790  Y0.5749  
G01 X0.3768  Y0.5743  
G01 X0.3763  Y0.5742  
G01 X0.3750  Y0.5742  
G01 X0.3737  Y0.5742  
G01 X0.3724  Y0.5746  
G01 X0.3710  Y0.5749  
G01 X0.3706  Y0.5751  
G01 X0.3357  Y0.5751  
G01 X0.3330  Y0.5758  
G01 X0.3307  Y0.5772  
G01 X0.3288  Y0.5791  
G01 X0.3274  Y0.5814  
G01 X0.3267  Y0.5840  
G01 X0.3267  Y0.5913  
G01 X0.3274  Y0.5939  
G01 X0.3288  Y0.5963  
G01 X0.3688  Y0.6363  
G01 X0.3707  Y0.6382  
G01 X0.3730  Y0.6395  
G01 X0.3757  Y0.6402  
G01 X0.3783  Y0.6402  
G01 X0.3810  Y0.6395  
G01 X0.3833  Y0.6382  
G01 X0.3852  Y0.6363  
G01 X0.3866  Y0.6339  
G01 X0.3872  Y0.6313  
G01 X0.3872  Y0.5840  
G01 X0.3866  Y0.5814  
G01 X0.3852  Y0.5791  
G01 X0.3833  Y0.5772  
G00 Z0.3000  
G00 X0.3172  Y0.5982  
G01 Z-0.0070 F5     
G01 X0.3172  Y0.5191  F7     
G01 X0.3174  Y0.5183  
G01 X0.3172  Y0.5172  
G01 X0.3172  Y0.5162  
G01 X0.3172  Y0.4680  
G01 X0.3159  Y0.4666  
G01 X0.2841  Y0.4666  
G01 X0.2828  Y0.4680  
G01 X0.2828  Y0.5643  
G01 X0.2841  Y0.5656  
G01 X0.2988  Y0.5656  
G01 X0.2988  Y0.6038  
G01 X0.3002  Y0.6072  
G01 X0.4262  Y0.7332  
G01 X0.4288  Y0.7358  
G01 X0.4322  Y0.7372  
G01 X0.4442  Y0.7372  
G01 X0.4808  Y0.7738  
G01 X0.4808  Y0.8922  
G01 X0.4442  Y0.9287  
G01 X0.4182  Y0.9287  
G01 X0.4148  Y0.9302  
G01 X0.3882  Y0.9567  
G01 X0.3482  Y0.9567  
G01 X0.3448  Y0.9582  
G01 X0.2888  Y1.0142  
G01 X0.2863  Y1.0166  
G01 X0.2841  Y1.0166  
G01 X0.2828  Y1.0180  
G01 X0.2828  Y1.1143  
G01 X0.2841  Y1.1156  
G01 X0.3159  Y1.1156  
G01 X0.3172  Y1.1143  
G01 X0.3172  Y1.0180  
G01 X0.3159  Y1.0166  
G01 X0.3124  Y1.0166  
G01 X0.3538  Y0.9752  
G01 X0.3938  Y0.9752  
G01 X0.3972  Y0.9738  
G01 X0.3998  Y0.9712  
G01 X0.4238  Y0.9472  
G01 X0.4498  Y0.9472  
G01 X0.4532  Y0.9458  
G01 X0.4558  Y0.9432  
G01 X0.4978  Y0.9012  
G01 X0.4992  Y0.8978  
G01 X0.4992  Y0.7682  
G01 X0.4978  Y0.7648  
G01 X0.4952  Y0.7622  
G01 X0.4532  Y0.7202  
G01 X0.4498  Y0.7188  
G01 X0.4378  Y0.7188  
G01 X0.3172  Y0.5982  
G00 Z0.3000  
G00 X0.2892  Y0.6057  
G01 Z-0.0070 F5     
G01 X0.2892  Y0.5840  F7     
G01 X0.2886  Y0.5814  
G01 X0.2872  Y0.5791  
G01 X0.2853  Y0.5772  
G01 X0.2830  Y0.5758  
G01 X0.2803  Y0.5751  
G01 X0.2794  Y0.5751  
G01 X0.2790  Y0.5749  
G01 X0.2768  Y0.5743  
G01 X0.2763  Y0.5742  
G01 X0.2750  Y0.5742  
G01 X0.2737  Y0.5742  
G01 X0.2724  Y0.5746  
G01 X0.2710  Y0.5749  
G01 X0.2706  Y0.5751  
G01 X0.2377  Y0.5751  
G01 X0.2350  Y0.5758  
G01 X0.2327  Y0.5772  
G01 X0.2308  Y0.5791  
G01 X0.2294  Y0.5814  
G01 X0.2287  Y0.5840  
G01 X0.2287  Y0.5913  
G01 X0.2294  Y0.5939  
G01 X0.2308  Y0.5963  
G01 X0.3398  Y0.7053  
G01 X0.3417  Y0.7072  
G01 X0.3441  Y0.7086  
G01 X0.3467  Y0.7092  
G01 X0.3537  Y0.7092  
G01 X0.3606  Y0.7121  
G01 X0.4142  Y0.7657  
G01 X0.4194  Y0.7709  
G01 X0.4213  Y0.7728  
G01 X0.4237  Y0.7742  
G01 X0.4263  Y0.7749  
G01 X0.4450  Y0.7749  
G01 X0.4476  Y0.7742  
G01 X0.4499  Y0.7728  
G01 X0.4518  Y0.7709  
G01 X0.4532  Y0.7686  
G01 X0.4537  Y0.7666  
G01 X0.4539  Y0.7660  
G01 X0.4539  Y0.7633  
G01 X0.4532  Y0.7607  
G01 X0.4518  Y0.7583  
G01 X0.4423  Y0.7488  
G01 X0.4399  Y0.7474  
G01 X0.4381  Y0.7469  
G01 X0.4373  Y0.7467  
G01 X0.4303  Y0.7467  
G01 X0.4234  Y0.7439  
G01 X0.4176  Y0.7381  
G01 X0.2921  Y0.6126  
G01 X0.2892  Y0.6057  
G00 Z0.3000  
G00 X0.1893  Y0.6498  
G01 Z-0.0070 F5     
G01 X0.1870  Y0.6485  F7     
G01 X0.1843  Y0.6478  
G01 X0.1817  Y0.6478  
G01 X0.1790  Y0.6485  
G01 X0.1767  Y0.6498  
G01 X0.1748  Y0.6517  
G01 X0.1734  Y0.6541  
G01 X0.1727  Y0.6567  
G01 X0.1727  Y0.7453  
G01 X0.1734  Y0.7479  
G01 X0.1748  Y0.7503  
G01 X0.2066  Y0.7821  
G01 X0.2085  Y0.7840  
G01 X0.2108  Y0.7853  
G01 X0.2134  Y0.7860  
G01 X0.2161  Y0.7860  
G01 X0.2167  Y0.7859  
G01 X0.2187  Y0.7853  
G01 X0.2202  Y0.7845  
G01 X0.2211  Y0.7840  
G01 X0.2302  Y0.7749  
G01 X0.2706  Y0.7749  
G01 X0.2710  Y0.7751  
G01 X0.2724  Y0.7755  
G01 X0.2736  Y0.7758  
G01 X0.2750  Y0.7758  
G01 X0.2763  Y0.7758  
G01 X0.2768  Y0.7757  
G01 X0.2790  Y0.7751  
G01 X0.2794  Y0.7749  
G01 X0.2910  Y0.7749  
G01 X0.2936  Y0.7742  
G01 X0.2959  Y0.7728  
G01 X0.2978  Y0.7709  
G01 X0.2992  Y0.7686  
G01 X0.2999  Y0.7660  
G01 X0.2999  Y0.7633  
G01 X0.2992  Y0.7607  
G01 X0.2978  Y0.7583  
G01 X0.1912  Y0.6517  
G01 X0.1893  Y0.6498  
G00 Z0.3000  
G00 X0.1613  Y0.7898  
G01 Z-0.0070 F5     
G01 X0.1590  Y0.7885  F7     
G01 X0.1563  Y0.7878  
G01 X0.1537  Y0.7878  
G01 X0.1510  Y0.7885  
G01 X0.1487  Y0.7898  
G01 X0.1468  Y0.7917  
G01 X0.1454  Y0.7941  
G01 X0.1447  Y0.7967  
G01 X0.1447  Y0.8433  
G01 X0.1454  Y0.8459  
G01 X0.1468  Y0.8483  
G01 X0.2138  Y0.9153  
G01 X0.2157  Y0.9172  
G01 X0.2181  Y0.9186  
G01 X0.2207  Y0.9192  
G01 X0.2273  Y0.9192  
G01 X0.2280  Y0.9191  
G01 X0.2299  Y0.9186  
G01 X0.2323  Y0.9172  
G01 X0.2401  Y0.9094  
G01 X0.2414  Y0.9071  
G01 X0.2421  Y0.9045  
G01 X0.2421  Y0.9018  
G01 X0.2419  Y0.9010  
G01 X0.2414  Y0.8991  
G01 X0.2401  Y0.8968  
G01 X0.2382  Y0.8949  
G01 X0.2358  Y0.8936  
G01 X0.2332  Y0.8929  
G01 X0.2302  Y0.8929  
G01 X0.2233  Y0.8860  
G01 X0.2233  Y0.8547  
G01 X0.2226  Y0.8521  
G01 X0.2212  Y0.8498  
G01 X0.1632  Y0.7917  
G01 X0.1613  Y0.7898  
G00 Z0.3000  
G00 X0.2718  Y0.9307  
G01 Z-0.0070 F5     
G01 X0.2705  Y0.9330  F7     
G01 X0.2698  Y0.9357  
G01 X0.2698  Y0.9383  
G01 X0.2705  Y0.9410  
G01 X0.2718  Y0.9433  
G01 X0.2737  Y0.9452  
G01 X0.2761  Y0.9466  
G01 X0.2787  Y0.9472  
G01 X0.2973  Y0.9472  
G01 X0.2999  Y0.9466  
G01 X0.3023  Y0.9452  
G01 X0.3177  Y0.9298  
G01 X0.3254  Y0.9221  
G01 X0.3323  Y0.9192  
G01 X0.3673  Y0.9192  
G01 X0.3680  Y0.9191  
G01 X0.3699  Y0.9186  
G01 X0.3723  Y0.9172  
G01 X0.3801  Y0.9094  
G01 X0.3814  Y0.9071  
G01 X0.3821  Y0.9045  
G01 X0.3821  Y0.9018  
G01 X0.3819  Y0.9010  
G01 X0.3814  Y0.8991  
G01 X0.3801  Y0.8968  
G01 X0.3782  Y0.8949  
G01 X0.3758  Y0.8936  
G01 X0.3732  Y0.8929  
G01 X0.3294  Y0.8929  
G01 X0.3290  Y0.8926  
G01 X0.3268  Y0.8920  
G01 X0.3263  Y0.8919  
G01 X0.3250  Y0.8919  
G01 X0.3237  Y0.8919  
G01 X0.3224  Y0.8923  
G01 X0.3210  Y0.8926  
G01 X0.3206  Y0.8929  
G01 X0.3126  Y0.8929  
G01 X0.3100  Y0.8936  
G01 X0.3086  Y0.8943  
G01 X0.3076  Y0.8949  
G01 X0.3057  Y0.8968  
G01 X0.3041  Y0.8984  
G01 X0.2737  Y0.9288  
G01 X0.2718  Y0.9307  
G00 Z0.3000  
G00 X0.3519  Y0.9906  
G01 Z-0.0070 F5     
G01 X0.3506  Y0.9929  F7     
G01 X0.3503  Y0.9939  
G01 X0.3499  Y0.9955  
G01 X0.3499  Y0.9982  
G01 X0.3501  Y0.9993  
G01 X0.3506  Y1.0009  
G01 X0.3519  Y1.0032  
G01 X0.3538  Y1.0051  
G01 X0.3562  Y1.0064  
G01 X0.3571  Y1.0067  
G01 X0.3588  Y1.0071  
G01 X0.3706  Y1.0071  
G01 X0.3710  Y1.0074  
G01 X0.3724  Y1.0077  
G01 X0.3736  Y1.0081  
G01 X0.3750  Y1.0081  
G01 X0.3763  Y1.0081  
G01 X0.3768  Y1.0080  
G01 X0.3790  Y1.0074  
G01 X0.3813  Y1.0060  
G01 X0.3820  Y1.0053  
G01 X0.3824  Y1.0051  
G01 X0.3843  Y1.0032  
G01 X0.3862  Y1.0013  
G01 X0.3875  Y0.9990  
G01 X0.3878  Y0.9980  
G01 X0.3882  Y0.9963  
G01 X0.3882  Y0.9937  
G01 X0.3880  Y0.9926  
G01 X0.3875  Y0.9910  
G01 X0.3862  Y0.9887  
G01 X0.3843  Y0.9868  
G01 X0.3819  Y0.9854  
G01 X0.3810  Y0.9852  
G01 X0.3793  Y0.9847  
G01 X0.3607  Y0.9847  
G01 X0.3596  Y0.9850  
G01 X0.3581  Y0.9854  
G01 X0.3557  Y0.9868  
G01 X0.3538  Y0.9887  
G01 X0.3519  Y0.9906  
G00 Z0.3000  
G00 X0.4499  Y0.9906  
G01 Z-0.0070 F5     
G01 X0.4486  Y0.9929  F7     
G01 X0.4483  Y0.9939  
G01 X0.4479  Y0.9955  
G01 X0.4479  Y0.9982  
G01 X0.4481  Y0.9993  
G01 X0.4486  Y1.0009  
G01 X0.4499  Y1.0032  
G01 X0.4518  Y1.0051  
G01 X0.4542  Y1.0064  
G01 X0.4551  Y1.0067  
G01 X0.4568  Y1.0071  
G01 X0.4698  Y1.0071  
G01 X0.4769  Y1.0143  
G01 X0.4774  Y1.0160  
G01 X0.4788  Y1.0183  
G01 X0.4807  Y1.0202  
G01 X0.4830  Y1.0216  
G01 X0.4856  Y1.0223  
G01 X0.4883  Y1.0223  
G01 X0.4909  Y1.0216  
G01 X0.4933  Y1.0202  
G01 X0.4938  Y1.0197  
G01 X0.4952  Y1.0183  
G01 X0.5247  Y0.9888  
G01 X0.5252  Y0.9883  
G01 X0.5266  Y0.9859  
G01 X0.5272  Y0.9834  
G01 X0.5272  Y0.9507  
G01 X0.5266  Y0.9481  
G01 X0.5252  Y0.9457  
G01 X0.5233  Y0.9438  
G01 X0.5210  Y0.9425  
G01 X0.5183  Y0.9418  
G01 X0.5157  Y0.9418  
G01 X0.5130  Y0.9425  
G01 X0.5107  Y0.9438  
G01 X0.5102  Y0.9443  
G01 X0.5088  Y0.9457  
G01 X0.4789  Y0.9756  
G01 X0.4726  Y0.9819  
G01 X0.4657  Y0.9847  
G01 X0.4587  Y0.9847  
G01 X0.4576  Y0.9850  
G01 X0.4561  Y0.9854  
G01 X0.4537  Y0.9868  
G01 X0.4518  Y0.9887  
G01 X0.4499  Y0.9906  
G00 Z0.3000  
G00 X0.5368  Y1.0297  
G01 Z-0.0070 F5     
G01 X0.4797  Y1.0868  F7     
G01 X0.4788  Y1.0878  
G01 X0.4774  Y1.0901  
G01 X0.4767  Y1.0927  
G01 X0.4767  Y1.1183  
G01 X0.4698  Y1.1251  
G01 X0.4294  Y1.1251  
G01 X0.4290  Y1.1249  
G01 X0.4268  Y1.1243  
G01 X0.4263  Y1.1242  
G01 X0.4250  Y1.1242  
G01 X0.4237  Y1.1242  
G01 X0.4224  Y1.1246  
G01 X0.4210  Y1.1249  
G01 X0.4206  Y1.1251  
G01 X0.4050  Y1.1251  
G01 X0.4024  Y1.1258  
G01 X0.4001  Y1.1272  
G01 X0.3982  Y1.1291  
G01 X0.3968  Y1.1314  
G01 X0.3961  Y1.1340  
G01 X0.3961  Y1.1367  
G01 X0.3968  Y1.1393  
G01 X0.3982  Y1.1417  
G01 X0.4117  Y1.1552  
G01 X0.4141  Y1.1566  
G01 X0.4166  Y1.1572  
G01 X0.4653  Y1.1572  
G01 X0.4679  Y1.1566  
G01 X0.4703  Y1.1552  
G01 X0.5513  Y1.0742  
G01 X0.5532  Y1.0723  
G01 X0.5546  Y1.0699  
G01 X0.5552  Y1.0673  
G01 X0.5552  Y1.0347  
G01 X0.5546  Y1.0321  
G01 X0.5532  Y1.0297  
G01 X0.5513  Y1.0278  
G01 X0.5490  Y1.0265  
G01 X0.5463  Y1.0258  
G01 X0.5437  Y1.0258  
G01 X0.5410  Y1.0265  
G01 X0.5387  Y1.0278  
G01 X0.5378  Y1.0287  
G01 X0.5368  Y1.0297  
G00 Z0.3000  
G00 X0.3413  Y1.1272  
G01 Z-0.0070 F5     
G01 X0.3390  Y1.1258  F7     
G01 X0.3363  Y1.1251  
G01 X0.3294  Y1.1251  
G01 X0.3290  Y1.1249  
G01 X0.3268  Y1.1243  
G01 X0.3263  Y1.1242  
G01 X0.3250  Y1.1242  
G01 X0.3237  Y1.1242  
G01 X0.3224  Y1.1246  
G01 X0.3210  Y1.1249  
G01 X0.3206  Y1.1251  
G01 X0.2794  Y1.1251  
G01 X0.2790  Y1.1249  
G01 X0.2768  Y1.1243  
G01 X0.2763  Y1.1242  
G01 X0.2750  Y1.1242  
G01 X0.2737  Y1.1242  
G01 X0.2724  Y1.1246  
G01 X0.2710  Y1.1249  
G01 X0.2706  Y1.1251  
G01 X0.2657  Y1.1251  
G01 X0.2630  Y1.1258  
G01 X0.2607  Y1.1272  
G01 X0.2588  Y1.1291  
G01 X0.2574  Y1.1314  
G01 X0.2567  Y1.1340  
G01 X0.2567  Y1.1373  
G01 X0.2574  Y1.1399  
G01 X0.2588  Y1.1423  
G01 X0.2978  Y1.1813  
G01 X0.2997  Y1.1832  
G01 X0.3021  Y1.1846  
G01 X0.3047  Y1.1852  
G01 X0.3653  Y1.1852  
G01 X0.3679  Y1.1846  
G01 X0.3703  Y1.1832  
G01 X0.3722  Y1.1813  
G01 X0.3735  Y1.1790  
G01 X0.3742  Y1.1763  
G01 X0.3742  Y1.1737  
G01 X0.3735  Y1.1710  
G01 X0.3722  Y1.1687  
G01 X0.3539  Y1.1504  
G01 X0.3481  Y1.1446  
G01 X0.3452  Y1.1377  
G01 X0.3452  Y1.1340  
G01 X0.3446  Y1.1314  
G01 X0.3432  Y1.1291  
G01 X0.3413  Y1.1272  
G00 Z0.3000  
G00 X0.1836  Y1.1496  
G01 Z-0.0070 F5     
G01 X0.2004  Y1.1664  F7     
G01 X0.2094  Y1.1882  
G01 X0.2094  Y1.2118  
G01 X0.2004  Y1.2336  
G01 X0.1836  Y1.2504  
G01 X0.1618  Y1.2594  
G01 X0.1382  Y1.2594  
G01 X0.1164  Y1.2504  
G01 X0.0996  Y1.2336  
G01 X0.0906  Y1.2118  
G01 X0.0906  Y1.1882  
G01 X0.0996  Y1.1664  
G01 X0.1164  Y1.1496  
G01 X0.1382  Y1.1406  
G01 X0.1618  Y1.1406  
G01 X0.1836  Y1.1496  
G00 Z0.3000  
G00 X0.1843  Y0.4162  
G01 Z-0.0070 F5     
G01 X0.1870  Y0.4155  F7     
G01 X0.1893  Y0.4142  
G01 X0.1901  Y0.4133  
G01 X0.1912  Y0.4123  
G01 X0.2414  Y0.3621  
G01 X0.2415  Y0.3621  
G01 X0.2420  Y0.3616  
G01 X0.2426  Y0.3613  
G01 X0.2431  Y0.3608  
G01 X0.2436  Y0.3604  
G01 X0.2441  Y0.3599  
G01 X0.2445  Y0.3594  
G01 X0.2449  Y0.3588  
G01 X0.2453  Y0.3583  
G01 X0.2455  Y0.3576  
G01 X0.2459  Y0.3571  
G01 X0.2461  Y0.3564  
G01 X0.2463  Y0.3558  
G01 X0.2464  Y0.3551  
G01 X0.2466  Y0.3545  
G01 X0.2466  Y0.3538  
G01 X0.2467  Y0.3531  
G01 X0.2466  Y0.3524  
G01 X0.2466  Y0.3518  
G01 X0.2464  Y0.3511  
G01 X0.2463  Y0.3504  
G01 X0.2461  Y0.3498  
G01 X0.2459  Y0.3491  
G01 X0.2455  Y0.3486  
G01 X0.2453  Y0.3479  
G01 X0.2449  Y0.3474  
G01 X0.2445  Y0.3468  
G01 X0.2441  Y0.3463  
G01 X0.2436  Y0.3458  
G01 X0.2431  Y0.3454  
G01 X0.2426  Y0.3449  
G01 X0.2420  Y0.3446  
G01 X0.2415  Y0.3441  
G01 X0.2409  Y0.3439  
G01 X0.2403  Y0.3436  
G01 X0.2396  Y0.3434  
G01 X0.2390  Y0.3431  
G01 X0.2383  Y0.3430  
G01 X0.2377  Y0.3429  
G01 X0.2370  Y0.3429  
G01 X0.2363  Y0.3428  
G01 X0.2357  Y0.3429  
G01 X0.2302  Y0.3429  
G01 X0.2233  Y0.3360  
G01 X0.2233  Y0.3306  
G01 X0.2226  Y0.3280  
G01 X0.2212  Y0.3257  
G01 X0.2193  Y0.3238  
G01 X0.2170  Y0.3224  
G01 X0.2144  Y0.3217  
G01 X0.2117  Y0.3217  
G01 X0.2091  Y0.3224  
G01 X0.2067  Y0.3238  
G01 X0.2062  Y0.3243  
G01 X0.2048  Y0.3257  
G01 X0.1753  Y0.3552  
G01 X0.1748  Y0.3557  
G01 X0.1734  Y0.3581  
G01 X0.1728  Y0.3606  
G01 X0.1727  Y0.4073  
G01 X0.1734  Y0.4099  
G01 X0.1748  Y0.4123  
G01 X0.1767  Y0.4142  
G01 X0.1790  Y0.4155  
G01 X0.1817  Y0.4162  
G01 X0.1843  Y0.4162  
G00 Z0.3000  
G00 X0.4996  Y0.1836  
G01 Z-0.0070 F5     
G01 X0.4906  Y0.1618  F7     
G01 X0.4906  Y0.1382  
G01 X0.4996  Y0.1164  
G01 X0.5164  Y0.0996  
G01 X0.5382  Y0.0906  
G01 X0.5618  Y0.0906  
G01 X0.5836  Y0.0996  
G01 X0.6004  Y0.1164  
G01 X0.6094  Y0.1382  
G01 X0.6094  Y0.1618  
G01 X0.6004  Y0.1836  
G01 X0.5836  Y0.2004  
G01 X0.5618  Y0.2094  
G01 X0.5382  Y0.2094  
G01 X0.5164  Y0.2004  
G01 X0.4996  Y0.1836  
G00 Z0.3000  
G00 X0.0384  Y0.0386  
G01 Z-0.0070 F5     
G01 X0.0363  Y0.0421  F7     
G01 X0.0353  Y0.0460  
G01 X0.0353  Y1.3370  
G01 X0.0353  Y1.3410  
G01 X0.0363  Y1.3449  
G01 X0.0384  Y1.3484  
G01 X0.0412  Y1.3512  
G01 X0.0447  Y1.3532  
G01 X0.0486  Y1.3543  
G01 X0.6507  Y1.3543  
G01 X0.6545  Y1.3532  
G01 X0.6580  Y1.3512  
G01 X0.6609  Y1.3484  
G01 X0.6629  Y1.3449  
G01 X0.6639  Y1.3410  
G01 X0.6639  Y0.0460  
G01 X0.6629  Y0.0421  
G01 X0.6609  Y0.0386  
G01 X0.6580  Y0.0358  
G01 X0.6545  Y0.0338  
G01 X0.6507  Y0.0327  
G01 X0.0486  Y0.0327  
G01 X0.0447  Y0.0338  
G01 X0.0412  Y0.0358  
G01 X0.0384  Y0.0386  
G00 Z0.3000  
G00 X0.2019  Y0.1682  
G01 Z-0.0070 F5     
G01 X0.2063  Y0.1682  F7     
G01 X0.2045  Y0.1687  
G01 X0.2013  Y0.1706  
G01 X0.1173  Y0.2546  
G01 X0.1146  Y0.2573  
G01 X0.1127  Y0.2605  
G01 X0.1122  Y0.2623  
G01 X0.1122  Y0.2579  
G01 X0.2019  Y0.1682  
G00 Z0.3000  
G00 X0.2143  Y0.1978  
G01 Z-0.0070 F5     
G01 X0.2159  Y0.1962  F7     
G01 X0.2181  Y0.1962  
G01 X0.2161  Y0.1968  
G01 X0.2143  Y0.1978  
G00 Z0.3000  
G00 X0.2284  Y0.2337  
G01 Z-0.0070 F5     
G01 X0.2283  Y0.2340  F7     
G01 X0.2283  Y0.2338  
G01 X0.2284  Y0.2337  
G00 Z0.3000  
G00 X0.2321  Y0.2300  
G01 Z-0.0070 F5     
G01 X0.2322  Y0.2299  F7     
G01 X0.2324  Y0.2299  
G01 X0.2321  Y0.2300  
G00 Z0.3000  
G00 X0.2674  Y0.2298  
G01 Z-0.0070 F5     
G01 X0.2709  Y0.2288  F7     
G01 X0.2744  Y0.2268  
G01 X0.2772  Y0.2240  
G01 X0.2792  Y0.2205  
G01 X0.2797  Y0.2185  
G01 X0.2797  Y0.2317  
G01 X0.2789  Y0.2325  
G01 X0.2778  Y0.2352  
G01 X0.2778  Y0.3325  
G01 X0.2789  Y0.3352  
G01 X0.2809  Y0.3372  
G01 X0.2836  Y0.3384  
G01 X0.3164  Y0.3384  
G01 X0.3191  Y0.3372  
G01 X0.3211  Y0.3352  
G01 X0.3222  Y0.3325  
G01 X0.3222  Y0.2352  
G01 X0.3211  Y0.2325  
G01 X0.3191  Y0.2305  
G01 X0.3164  Y0.2294  
G01 X0.3082  Y0.2294  
G01 X0.3082  Y0.2185  
G01 X0.3088  Y0.2205  
G01 X0.3108  Y0.2240  
G01 X0.3136  Y0.2268  
G01 X0.3171  Y0.2288  
G01 X0.3179  Y0.2290  
G01 X0.3191  Y0.2298  
G01 X0.3206  Y0.2301  
G01 X0.3230  Y0.2308  
G01 X0.3250  Y0.2308  
G01 X0.3270  Y0.2308  
G01 X0.3290  Y0.2303  
G01 X0.3305  Y0.2299  
G01 X0.3324  Y0.2299  
G01 X0.3309  Y0.2305  
G01 X0.3289  Y0.2325  
G01 X0.3278  Y0.2352  
G01 X0.3278  Y0.3325  
G01 X0.3289  Y0.3352  
G01 X0.3298  Y0.3361  
G01 X0.3021  Y0.3638  
G01 X0.2501  Y0.3638  
G01 X0.2465  Y0.3647  
G01 X0.2460  Y0.3650  
G01 X0.2464  Y0.3646  
G01 X0.2472  Y0.3640  
G01 X0.2478  Y0.3632  
G01 X0.2485  Y0.3625  
G01 X0.2490  Y0.3616  
G01 X0.2496  Y0.3608  
G01 X0.2500  Y0.3599  
G01 X0.2505  Y0.3590  
G01 X0.2508  Y0.3580  
G01 X0.2512  Y0.3571  
G01 X0.2513  Y0.3561  
G01 X0.2516  Y0.3551  
G01 X0.2516  Y0.3541  
G01 X0.2517  Y0.3531  
G01 X0.2516  Y0.3521  
G01 X0.2516  Y0.3511  
G01 X0.2513  Y0.3501  
G01 X0.2512  Y0.3491  
G01 X0.2508  Y0.3482  
G01 X0.2505  Y0.3472  
G01 X0.2500  Y0.3463  
G01 X0.2496  Y0.3454  
G01 X0.2490  Y0.3446  
G01 X0.2485  Y0.3437  
G01 X0.2478  Y0.3430  
G01 X0.2472  Y0.3422  
G01 X0.2464  Y0.3416  
G01 X0.2457  Y0.3409  
G01 X0.2448  Y0.3404  
G01 X0.2440  Y0.3398  
G01 X0.2431  Y0.3394  
G01 X0.2422  Y0.3389  
G01 X0.2412  Y0.3386  
G01 X0.2406  Y0.3384  
G01 X0.2664  Y0.3384  
G01 X0.2691  Y0.3372  
G01 X0.2711  Y0.3352  
G01 X0.2722  Y0.3325  
G01 X0.2722  Y0.2352  
G01 X0.2711  Y0.2325  
G01 X0.2691  Y0.2305  
G01 X0.2674  Y0.2298  
G00 Z0.3000  
G00 X0.2797  Y0.2071  
G01 Z-0.0070 F5     
G01 X0.2792  Y0.2051  F7     
G01 X0.2772  Y0.2016  
G01 X0.2744  Y0.1988  
G01 X0.2709  Y0.1968  
G01 X0.2689  Y0.1962  
G01 X0.2741  Y0.1962  
G01 X0.2797  Y0.2019  
G01 X0.2797  Y0.2071  
G00 Z0.3000  
G00 X0.2837  Y0.1682  
G01 Z-0.0070 F5     
G01 X0.3158  Y0.1682  F7     
G01 X0.3151  Y0.1685  
G01 X0.3141  Y0.1688  
G01 X0.3132  Y0.1693  
G01 X0.3123  Y0.1697  
G01 X0.3115  Y0.1703  
G01 X0.3106  Y0.1708  
G01 X0.3099  Y0.1715  
G01 X0.3091  Y0.1721  
G01 X0.3085  Y0.1729  
G01 X0.3078  Y0.1736  
G01 X0.3073  Y0.1745  
G01 X0.3067  Y0.1753  
G01 X0.3063  Y0.1762  
G01 X0.3058  Y0.1771  
G01 X0.3055  Y0.1781  
G01 X0.3051  Y0.1790  
G01 X0.3050  Y0.1800  
G01 X0.3048  Y0.1810  
G01 X0.3048  Y0.1820  
G01 X0.3046  Y0.1830  
G01 X0.3048  Y0.1840  
G01 X0.3048  Y0.1850  
G01 X0.3050  Y0.1860  
G01 X0.3051  Y0.1870  
G01 X0.2914  Y0.1733  
G01 X0.2887  Y0.1706  
G01 X0.2855  Y0.1687  
G01 X0.2837  Y0.1682  
G00 Z0.3000  
G00 X0.4119  Y0.1682  
G01 Z-0.0070 F5     
G01 X0.4141  Y0.1682  F7     
G01 X0.4157  Y0.1698  
G01 X0.4139  Y0.1688  
G01 X0.4119  Y0.1682  
G00 Z0.3000  
G00 X0.4462  Y0.2003  
G01 Z-0.0070 F5     
G01 X0.4477  Y0.2019  F7     
G01 X0.4477  Y0.2041  
G01 X0.4472  Y0.2021  
G01 X0.4462  Y0.2003  
G00 Z0.3000  
G00 X0.4477  Y0.2159  
G01 Z-0.0070 F5     
G01 X0.4477  Y0.2181  F7     
G01 X0.4462  Y0.2197  
G01 X0.4472  Y0.2179  
G01 X0.4477  Y0.2159  
G00 Z0.3000  
G00 X0.4381  Y0.2278  
G01 Z-0.0070 F5     
G01 X0.4366  Y0.2293  F7     
G01 X0.4365  Y0.2294  
G01 X0.4342  Y0.2294  
G01 X0.4363  Y0.2288  
G01 X0.4381  Y0.2278  
G00 Z0.3000  
G00 X0.4324  Y0.2299  
G01 Z-0.0070 F5     
G01 X0.4309  Y0.2305  F7     
G01 X0.4289  Y0.2325  
G01 X0.4278  Y0.2352  
G01 X0.4278  Y0.3325  
G01 X0.4289  Y0.3352  
G01 X0.4309  Y0.3372  
G01 X0.4336  Y0.3384  
G01 X0.4664  Y0.3384  
G01 X0.4679  Y0.3377  
G01 X0.4660  Y0.3396  
G01 X0.4640  Y0.3431  
G01 X0.4629  Y0.3470  
G01 X0.4629  Y0.3510  
G01 X0.4640  Y0.3549  
G01 X0.4651  Y0.3569  
G01 X0.4660  Y0.3584  
G01 X0.4688  Y0.3612  
G01 X0.4723  Y0.3632  
G01 X0.4743  Y0.3638  
G01 X0.3901  Y0.3638  
G01 X0.3865  Y0.3647  
G01 X0.3833  Y0.3666  
G01 X0.3806  Y0.3693  
G01 X0.3301  Y0.4198  
G01 X0.3257  Y0.4198  
G01 X0.3275  Y0.4193  
G01 X0.3307  Y0.4174  
G01 X0.3334  Y0.4147  
G01 X0.4034  Y0.3447  
G01 X0.4053  Y0.3415  
G01 X0.4061  Y0.3384  
G01 X0.4164  Y0.3384  
G01 X0.4191  Y0.3372  
G01 X0.4211  Y0.3352  
G01 X0.4222  Y0.3325  
G01 X0.4222  Y0.2352  
G01 X0.4211  Y0.2325  
G01 X0.4191  Y0.2305  
G01 X0.4176  Y0.2299  
G01 X0.4195  Y0.2299  
G01 X0.4206  Y0.2301  
G01 X0.4230  Y0.2308  
G01 X0.4250  Y0.2308  
G01 X0.4270  Y0.2308  
G01 X0.4290  Y0.2303  
G01 X0.4305  Y0.2299  
G01 X0.4324  Y0.2299  
G00 Z0.3000  
G00 X0.4731  Y0.2331  
G01 Z-0.0070 F5     
G01 X0.4727  Y0.2336  F7     
G01 X0.4725  Y0.2346  
G01 X0.4722  Y0.2353  
G01 X0.4722  Y0.2352  
G01 X0.4719  Y0.2343  
G01 X0.4731  Y0.2331  
G00 Z0.3000  
G00 X0.5039  Y0.1808  
G01 Z-0.0070 F5     
G01 X0.4956  Y0.1608  F7     
G01 X0.4956  Y0.1392  
G01 X0.5039  Y0.1192  
G01 X0.5192  Y0.1039  
G01 X0.5392  Y0.0956  
G01 X0.5608  Y0.0956  
G01 X0.5808  Y0.1039  
G01 X0.5961  Y0.1192  
G01 X0.6044  Y0.1392  
G01 X0.6044  Y0.1608  
G01 X0.5961  Y0.1808  
G01 X0.5808  Y0.1961  
G01 X0.5608  Y0.2044  
G01 X0.5392  Y0.2044  
G01 X0.5192  Y0.1961  
G01 X0.5039  Y0.1808  
G00 Z0.3000  
G00 X0.3824  Y0.2299  
G01 Z-0.0070 F5     
G01 X0.3809  Y0.2305  F7     
G01 X0.3789  Y0.2325  
G01 X0.3778  Y0.2352  
G01 X0.3778  Y0.2920  
G01 X0.3777  Y0.2921  
G01 X0.3777  Y0.2930  
G01 X0.3776  Y0.2938  
G01 X0.3777  Y0.2948  
G01 X0.3777  Y0.3301  
G01 X0.3161  Y0.3917  
G01 X0.3117  Y0.3917  
G01 X0.3135  Y0.3913  
G01 X0.3167  Y0.3894  
G01 X0.3194  Y0.3867  
G01 X0.3614  Y0.3447  
G01 X0.3633  Y0.3415  
G01 X0.3641  Y0.3384  
G01 X0.3664  Y0.3384  
G01 X0.3691  Y0.3372  
G01 X0.3711  Y0.3352  
G01 X0.3722  Y0.3325  
G01 X0.3722  Y0.2352  
G01 X0.3711  Y0.2325  
G01 X0.3691  Y0.2305  
G01 X0.3676  Y0.2299  
G01 X0.3695  Y0.2299  
G01 X0.3706  Y0.2301  
G01 X0.3730  Y0.2308  
G01 X0.3750  Y0.2308  
G01 X0.3770  Y0.2308  
G01 X0.3790  Y0.2303  
G01 X0.3805  Y0.2299  
G01 X0.3824  Y0.2299  
G00 Z0.3000  
G00 X0.3979  Y0.3922  
G01 Z-0.0070 F5     
G01 X0.4023  Y0.3922  F7     
G01 X0.4005  Y0.3927  
G01 X0.3973  Y0.3946  
G01 X0.3946  Y0.3973  
G01 X0.3526  Y0.4393  
G01 X0.3507  Y0.4425  
G01 X0.3498  Y0.4461  
G01 X0.3498  Y0.4561  
G01 X0.3442  Y0.4616  
G01 X0.3336  Y0.4616  
G01 X0.3309  Y0.4628  
G01 X0.3289  Y0.4648  
G01 X0.3278  Y0.4675  
G01 X0.3278  Y0.5648  
G01 X0.3289  Y0.5675  
G01 X0.3309  Y0.5695  
G01 X0.3334  Y0.5706  
G01 X0.3311  Y0.5712  
G01 X0.3276  Y0.5732  
G01 X0.3248  Y0.5760  
G01 X0.3228  Y0.5795  
G01 X0.3222  Y0.5815  
G01 X0.3222  Y0.5196  
G01 X0.3223  Y0.5194  
G01 X0.3222  Y0.5178  
G01 X0.3222  Y0.5161  
G01 X0.3222  Y0.5160  
G01 X0.3222  Y0.4675  
G01 X0.3211  Y0.4648  
G01 X0.3191  Y0.4628  
G01 X0.3164  Y0.4616  
G01 X0.2836  Y0.4616  
G01 X0.2809  Y0.4628  
G01 X0.2789  Y0.4648  
G01 X0.2778  Y0.4675  
G01 X0.2778  Y0.5648  
G01 X0.2789  Y0.5675  
G01 X0.2809  Y0.5695  
G01 X0.2836  Y0.5706  
G01 X0.2938  Y0.5706  
G01 X0.2938  Y0.5815  
G01 X0.2932  Y0.5795  
G01 X0.2912  Y0.5760  
G01 X0.2884  Y0.5732  
G01 X0.2849  Y0.5712  
G01 X0.2810  Y0.5701  
G01 X0.2805  Y0.5701  
G01 X0.2789  Y0.5697  
G01 X0.2770  Y0.5692  
G01 X0.2750  Y0.5692  
G01 X0.2730  Y0.5692  
G01 X0.2706  Y0.5699  
G01 X0.2695  Y0.5701  
G01 X0.2676  Y0.5701  
G01 X0.2691  Y0.5695  
G01 X0.2711  Y0.5675  
G01 X0.2722  Y0.5648  
G01 X0.2722  Y0.4675  
G01 X0.2711  Y0.4648  
G01 X0.2702  Y0.4639  
G01 X0.2859  Y0.4482  
G01 X0.3379  Y0.4482  
G01 X0.3415  Y0.4473  
G01 X0.3447  Y0.4454  
G01 X0.3979  Y0.3922  
G00 Z0.3000  
G00 X0.4103  Y0.4218  
G01 Z-0.0070 F5     
G01 X0.4119  Y0.4202  F7     
G01 X0.4141  Y0.4202  
G01 X0.4121  Y0.4208  
G01 X0.4103  Y0.4218  
G00 Z0.3000  
G00 X0.3929  Y0.4392  
G01 Z-0.0070 F5     
G01 X0.3919  Y0.4410  F7     
G01 X0.3909  Y0.4449  
G01 X0.3909  Y0.4489  
G01 X0.3919  Y0.4528  
G01 X0.3939  Y0.4563  
G01 X0.3968  Y0.4591  
G01 X0.4002  Y0.4611  
G01 X0.4022  Y0.4616  
G01 X0.3836  Y0.4616  
G01 X0.3809  Y0.4628  
G01 X0.3789  Y0.4648  
G01 X0.3778  Y0.4675  
G01 X0.3778  Y0.5648  
G01 X0.3789  Y0.5675  
G01 X0.3809  Y0.5695  
G01 X0.3836  Y0.5706  
G01 X0.3917  Y0.5706  
G01 X0.3917  Y0.5815  
G01 X0.3912  Y0.5795  
G01 X0.3892  Y0.5760  
G01 X0.3864  Y0.5732  
G01 X0.3829  Y0.5712  
G01 X0.3821  Y0.5710  
G01 X0.3809  Y0.5702  
G01 X0.3789  Y0.5697  
G01 X0.3770  Y0.5692  
G01 X0.3750  Y0.5692  
G01 X0.3730  Y0.5692  
G01 X0.3706  Y0.5699  
G01 X0.3695  Y0.5701  
G01 X0.3676  Y0.5701  
G01 X0.3691  Y0.5695  
G01 X0.3711  Y0.5675  
G01 X0.3722  Y0.5648  
G01 X0.3722  Y0.4739  
G01 X0.3727  Y0.4734  
G01 X0.3754  Y0.4707  
G01 X0.3773  Y0.4675  
G01 X0.3782  Y0.4639  
G01 X0.3782  Y0.4539  
G01 X0.3929  Y0.4392  
G00 Z0.3000  
G00 X0.4176  Y0.4621  
G01 Z-0.0070 F5     
G01 X0.4195  Y0.4621  F7     
G01 X0.4206  Y0.4624  
G01 X0.4230  Y0.4631  
G01 X0.4250  Y0.4631  
G01 X0.4270  Y0.4631  
G01 X0.4290  Y0.4625  
G01 X0.4305  Y0.4621  
G01 X0.4324  Y0.4621  
G01 X0.4309  Y0.4628  
G01 X0.4289  Y0.4648  
G01 X0.4278  Y0.4675  
G01 X0.4278  Y0.5648  
G01 X0.4289  Y0.5675  
G01 X0.4309  Y0.5695  
G01 X0.4326  Y0.5702  
G01 X0.4291  Y0.5712  
G01 X0.4256  Y0.5732  
G01 X0.4228  Y0.5760  
G01 X0.4208  Y0.5795  
G01 X0.4202  Y0.5815  
G01 X0.4202  Y0.5683  
G01 X0.4211  Y0.5675  
G01 X0.4222  Y0.5648  
G01 X0.4222  Y0.4675  
G01 X0.4211  Y0.4648  
G01 X0.4191  Y0.4628  
G01 X0.4176  Y0.4621  
G00 Z0.3000  
G00 X0.4676  Y0.4621  
G01 Z-0.0070 F5     
G01 X0.4678  Y0.4621  F7     
G01 X0.4679  Y0.4623  
G01 X0.4676  Y0.4621  
G00 Z0.3000  
G00 X0.4716  Y0.4660  
G01 Z-0.0070 F5     
G01 X0.4717  Y0.4661  F7     
G01 X0.4717  Y0.4662  
G01 X0.4716  Y0.4660  
G00 Z0.3000  
G00 X0.4722  Y0.4954  
G01 Z-0.0070 F5     
G01 X0.4725  Y0.4961  F7     
G01 X0.4727  Y0.4970  
G01 X0.4733  Y0.4979  
G01 X0.4736  Y0.4988  
G01 X0.4743  Y0.4996  
G01 X0.4748  Y0.5005  
G01 X0.4755  Y0.5012  
G01 X0.4761  Y0.5020  
G01 X0.4769  Y0.5026  
G01 X0.4776  Y0.5034  
G01 X0.4785  Y0.5039  
G01 X0.4786  Y0.5039  
G01 X0.4779  Y0.5038  
G01 X0.4722  Y0.5038  
G01 X0.4722  Y0.4954  
G00 Z0.3000  
G00 X0.4722  Y0.5344  
G01 Z-0.0070 F5     
G01 X0.4947  Y0.5568  F7     
G01 X0.4928  Y0.5558  
G01 X0.4890  Y0.5547  
G01 X0.4850  Y0.5547  
G01 X0.4811  Y0.5558  
G01 X0.4810  Y0.5558  
G01 X0.4776  Y0.5578  
G01 X0.4748  Y0.5606  
G01 X0.4727  Y0.5641  
G01 X0.4724  Y0.5655  
G01 X0.4716  Y0.5663  
G01 X0.4722  Y0.5648  
G01 X0.4722  Y0.5344  
G00 Z0.3000  
G00 X0.4679  Y0.5700  
G01 Z-0.0070 F5     
G01 X0.4678  Y0.5701  F7     
G01 X0.4676  Y0.5701  
G01 X0.4679  Y0.5700  
G00 Z0.3000  
G00 X0.5373  Y0.5592  
G01 Z-0.0070 F5     
G01 X0.5391  Y0.5602  F7     
G01 X0.5393  Y0.5602  
G01 X0.5430  Y0.5612  
G01 X0.5470  Y0.5612  
G01 X0.5509  Y0.5602  
G01 X0.5544  Y0.5582  
G01 X0.5572  Y0.5554  
G01 X0.5592  Y0.5519  
G01 X0.5593  Y0.5517  
G01 X0.5597  Y0.5499  
G01 X0.5597  Y0.5843  
G01 X0.5593  Y0.5825  
G01 X0.5574  Y0.5793  
G01 X0.5547  Y0.5766  
G01 X0.5373  Y0.5592  
G00 Z0.3000  
G00 X0.5302  Y0.5923  
G01 Z-0.0070 F5     
G01 X0.5317  Y0.5939  F7     
G01 X0.5317  Y0.5961  
G01 X0.5312  Y0.5941  
G01 X0.5302  Y0.5923  
G00 Z0.3000  
G00 X0.5597  Y0.5121  
G01 Z-0.0070 F5     
G01 X0.5592  Y0.5101  F7     
G01 X0.5582  Y0.5083  
G01 X0.5597  Y0.5099  
G01 X0.5597  Y0.5121  
G00 Z0.3000  
G00 X0.5877  Y0.5003  
G01 Z-0.0070 F5     
G01 X0.5873  Y0.4985  F7     
G01 X0.5854  Y0.4953  
G01 X0.5827  Y0.4926  
G01 X0.4847  Y0.3946  
G01 X0.4815  Y0.3927  
G01 X0.4797  Y0.3922  
G01 X0.4841  Y0.3922  
G01 X0.5877  Y0.4959  
G01 X0.5877  Y0.5003  
G00 Z0.3000  
G00 X0.4717  Y0.4218  
G01 Z-0.0070 F5     
G01 X0.4699  Y0.4208  F7     
G01 X0.4679  Y0.4202  
G01 X0.4701  Y0.4202  
G01 X0.4717  Y0.4218  
G00 Z0.3000  
G00 X0.4716  Y0.3340  
G01 Z-0.0070 F5     
G01 X0.4717  Y0.3338  F7     
G01 X0.4717  Y0.3339  
G01 X0.4716  Y0.3340  
G00 Z0.3000  
G00 X0.2324  Y0.3379  
G01 Z-0.0070 F5     
G01 X0.2322  Y0.3379  F7     
G01 X0.2321  Y0.3377  
G01 X0.2324  Y0.3379  
G00 Z0.3000  
G00 X0.2284  Y0.3340  
G01 Z-0.0070 F5     
G01 X0.2283  Y0.3339  F7     
G01 X0.2283  Y0.3338  
G01 X0.2284  Y0.3340  
G00 Z0.3000  
G00 X0.2278  Y0.3281  
G01 Z-0.0070 F5     
G01 X0.2273  Y0.3261  F7     
G01 X0.2252  Y0.3226  
G01 X0.2224  Y0.3198  
G01 X0.2189  Y0.3178  
G01 X0.2150  Y0.3167  
G01 X0.2110  Y0.3167  
G01 X0.2072  Y0.3178  
G01 X0.2053  Y0.3188  
G01 X0.2159  Y0.3082  
G01 X0.2278  Y0.3082  
G01 X0.2278  Y0.3281  
G00 Z0.3000  
G00 X0.2278  Y0.2797  
G01 Z-0.0070 F5     
G01 X0.2169  Y0.2797  F7     
G01 X0.2189  Y0.2792  
G01 X0.2224  Y0.2772  
G01 X0.2252  Y0.2744  
G01 X0.2273  Y0.2709  
G01 X0.2278  Y0.2689  
G01 X0.2278  Y0.2797  
G00 Z0.3000  
G00 X0.1402  Y0.2741  
G01 Z-0.0070 F5     
G01 X0.1402  Y0.2719  F7     
G01 X0.1418  Y0.2703  
G01 X0.1408  Y0.2721  
G01 X0.1402  Y0.2741  
G00 Z0.3000  
G00 X0.1402  Y0.3119  
G01 Z-0.0070 F5     
G01 X0.1408  Y0.3139  F7     
G01 X0.1428  Y0.3174  
G01 X0.1456  Y0.3202  
G01 X0.1491  Y0.3222  
G01 X0.1530  Y0.3232  
G01 X0.1570  Y0.3232  
G01 X0.1609  Y0.3222  
G01 X0.1627  Y0.3212  
G01 X0.1453  Y0.3386  
G01 X0.1426  Y0.3413  
G01 X0.1407  Y0.3445  
G01 X0.1402  Y0.3463  
G01 X0.1402  Y0.3119  
G00 Z0.3000  
G00 X0.1682  Y0.3559  
G01 Z-0.0070 F5     
G01 X0.1698  Y0.3543  F7     
G01 X0.1688  Y0.3560  
G01 X0.1688  Y0.3561  
G01 X0.1682  Y0.3581  
G01 X0.1682  Y0.3559  
G00 Z0.3000  
G00 X0.1682  Y0.4099  
G01 Z-0.0070 F5     
G01 X0.1688  Y0.4119  F7     
G01 X0.1708  Y0.4154  
G01 X0.1736  Y0.4182  
G01 X0.1771  Y0.4202  
G01 X0.1810  Y0.4212  
G01 X0.1850  Y0.4212  
G01 X0.1889  Y0.4202  
G01 X0.1907  Y0.4192  
G01 X0.1733  Y0.4366  
G01 X0.1706  Y0.4393  
G01 X0.1687  Y0.4425  
G01 X0.1682  Y0.4443  
G01 X0.1682  Y0.4099  
G00 Z0.3000  
G00 X0.1962  Y0.4539  
G01 Z-0.0070 F5     
G01 X0.2579  Y0.3922  F7     
G01 X0.2623  Y0.3922  
G01 X0.2605  Y0.3927  
G01 X0.2573  Y0.3946  
G01 X0.2013  Y0.4506  
G01 X0.1986  Y0.4533  
G01 X0.1967  Y0.4565  
G01 X0.1962  Y0.4583  
G01 X0.1962  Y0.4539  
G00 Z0.3000  
G00 X0.2242  Y0.4679  
G01 Z-0.0070 F5     
G01 X0.2719  Y0.4202  F7     
G01 X0.2763  Y0.4202  
G01 X0.2745  Y0.4207  
G01 X0.2713  Y0.4226  
G01 X0.2686  Y0.4253  
G01 X0.2433  Y0.4506  
G01 X0.2406  Y0.4533  
G01 X0.2387  Y0.4565  
G01 X0.2377  Y0.4601  
G01 X0.2377  Y0.4616  
G01 X0.2336  Y0.4616  
G01 X0.2309  Y0.4628  
G01 X0.2289  Y0.4648  
G01 X0.2278  Y0.4675  
G01 X0.2278  Y0.5648  
G01 X0.2289  Y0.5675  
G01 X0.2309  Y0.5695  
G01 X0.2336  Y0.5706  
G01 X0.2351  Y0.5706  
G01 X0.2331  Y0.5712  
G01 X0.2296  Y0.5732  
G01 X0.2268  Y0.5760  
G01 X0.2248  Y0.5795  
G01 X0.2242  Y0.5815  
G01 X0.2242  Y0.4679  
G00 Z0.3000  
G00 X0.2242  Y0.5939  
G01 Z-0.0070 F5     
G01 X0.2248  Y0.5959  F7     
G01 X0.2258  Y0.5977  
G01 X0.2242  Y0.5961  
G01 X0.2242  Y0.5939  
G00 Z0.3000  
G00 X0.1962  Y0.6057  
G01 Z-0.0070 F5     
G01 X0.1967  Y0.6075  F7     
G01 X0.1986  Y0.6107  
G01 X0.3246  Y0.7367  
G01 X0.3273  Y0.7394  
G01 X0.3305  Y0.7413  
G01 X0.3341  Y0.7422  
G01 X0.3441  Y0.7422  
G01 X0.3819  Y0.7801  
G01 X0.3809  Y0.7805  
G01 X0.3789  Y0.7825  
G01 X0.3778  Y0.7852  
G01 X0.3778  Y0.8825  
G01 X0.3789  Y0.8852  
G01 X0.3809  Y0.8872  
G01 X0.3836  Y0.8884  
G01 X0.4164  Y0.8884  
G01 X0.4191  Y0.8872  
G01 X0.4211  Y0.8852  
G01 X0.4222  Y0.8825  
G01 X0.4222  Y0.7852  
G01 X0.4211  Y0.7825  
G01 X0.4201  Y0.7815  
G01 X0.4193  Y0.7785  
G01 X0.4183  Y0.7769  
G01 X0.4217  Y0.7788  
G01 X0.4256  Y0.7799  
G01 X0.4324  Y0.7799  
G01 X0.4309  Y0.7805  
G01 X0.4289  Y0.7825  
G01 X0.4278  Y0.7852  
G01 X0.4278  Y0.8821  
G01 X0.4141  Y0.8958  
G01 X0.4041  Y0.8958  
G01 X0.4005  Y0.8967  
G01 X0.3973  Y0.8986  
G01 X0.3946  Y0.9013  
G01 X0.3851  Y0.9108  
G01 X0.3861  Y0.9090  
G01 X0.3866  Y0.9071  
G01 X0.3871  Y0.9051  
G01 X0.3871  Y0.9011  
G01 X0.3861  Y0.8972  
G01 X0.3849  Y0.8952  
G01 X0.3841  Y0.8937  
G01 X0.3812  Y0.8909  
G01 X0.3778  Y0.8889  
G01 X0.3759  Y0.8884  
G01 X0.3739  Y0.8879  
G01 X0.3676  Y0.8879  
G01 X0.3691  Y0.8872  
G01 X0.3711  Y0.8852  
G01 X0.3722  Y0.8825  
G01 X0.3722  Y0.7852  
G01 X0.3711  Y0.7825  
G01 X0.3691  Y0.7805  
G01 X0.3664  Y0.7794  
G01 X0.3635  Y0.7794  
G01 X0.3633  Y0.7785  
G01 X0.3614  Y0.7753  
G01 X0.3587  Y0.7726  
G01 X0.1962  Y0.6101  
G01 X0.1962  Y0.6057  
G00 Z0.3000  
G00 X0.1682  Y0.6197  
G01 Z-0.0070 F5     
G01 X0.1687  Y0.6215  F7     
G01 X0.1706  Y0.6247  
G01 X0.1907  Y0.6448  
G01 X0.1889  Y0.6438  
G01 X0.1850  Y0.6428  
G01 X0.1810  Y0.6428  
G01 X0.1771  Y0.6438  
G01 X0.1736  Y0.6458  
G01 X0.1708  Y0.6486  
G01 X0.1688  Y0.6521  
G01 X0.1682  Y0.6541  
G01 X0.1682  Y0.6197  
G00 Z0.3000  
G00 X0.1682  Y0.7479  
G01 Z-0.0070 F5     
G01 X0.1688  Y0.7499  F7     
G01 X0.1698  Y0.7517  
G01 X0.1682  Y0.7501  
G01 X0.1682  Y0.7479  
G00 Z0.3000  
G00 X0.1402  Y0.7597  
G01 Z-0.0070 F5     
G01 X0.1407  Y0.7615  F7     
G01 X0.1426  Y0.7647  
G01 X0.1627  Y0.7848  
G01 X0.1609  Y0.7838  
G01 X0.1607  Y0.7838  
G01 X0.1570  Y0.7828  
G01 X0.1530  Y0.7828  
G01 X0.1491  Y0.7838  
G01 X0.1456  Y0.7858  
G01 X0.1428  Y0.7886  
G01 X0.1408  Y0.7921  
G01 X0.1407  Y0.7923  
G01 X0.1402  Y0.7941  
G01 X0.1402  Y0.7597  
G00 Z0.3000  
G00 X0.1402  Y0.8459  
G01 Z-0.0070 F5     
G01 X0.1408  Y0.8479  F7     
G01 X0.1418  Y0.8497  
G01 X0.1402  Y0.8481  
G01 X0.1402  Y0.8459  
G00 Z0.3000  
G00 X0.1122  Y0.8577  
G01 Z-0.0070 F5     
G01 X0.1127  Y0.8595  F7     
G01 X0.1146  Y0.8627  
G01 X0.1986  Y0.9467  
G01 X0.2013  Y0.9494  
G01 X0.2045  Y0.9513  
G01 X0.2063  Y0.9517  
G01 X0.2019  Y0.9517  
G01 X0.1122  Y0.8621  
G01 X0.1122  Y0.8577  
G00 Z0.3000  
G00 X0.2278  Y0.8522  
G01 Z-0.0070 F5     
G01 X0.2273  Y0.8502  F7     
G01 X0.2262  Y0.8484  
G01 X0.2277  Y0.8498  
G01 X0.2278  Y0.8500  
G01 X0.2278  Y0.8522  
G00 Z0.3000  
G00 X0.2283  Y0.8838  
G01 Z-0.0070 F5     
G01 X0.2284  Y0.8840  F7     
G01 X0.2283  Y0.8839  
G01 X0.2283  Y0.8838  
G00 Z0.3000  
G00 X0.2321  Y0.8877  
G01 Z-0.0070 F5     
G01 X0.2324  Y0.8879  F7     
G01 X0.2322  Y0.8879  
G01 X0.2321  Y0.8877  
G00 Z0.3000  
G00 X0.2358  Y0.8884  
G01 Z-0.0070 F5     
G01 X0.2664  Y0.8884  F7     
G01 X0.2683  Y0.8876  
G01 X0.2451  Y0.9108  
G01 X0.2461  Y0.9090  
G01 X0.2466  Y0.9071  
G01 X0.2471  Y0.9051  
G01 X0.2471  Y0.9011  
G01 X0.2461  Y0.8972  
G01 X0.2449  Y0.8952  
G01 X0.2441  Y0.8937  
G01 X0.2412  Y0.8909  
G01 X0.2378  Y0.8889  
G01 X0.2359  Y0.8884  
G01 X0.2358  Y0.8884  
G00 Z0.3000  
G00 X0.2337  Y0.9222  
G01 Z-0.0070 F5     
G01 X0.2321  Y0.9237  F7     
G01 X0.2299  Y0.9237  
G01 X0.2319  Y0.9232  
G01 X0.2337  Y0.9222  
G00 Z0.3000  
G00 X0.2181  Y0.9237  
G01 Z-0.0070 F5     
G01 X0.2159  Y0.9237  F7     
G01 X0.2143  Y0.9222  
G01 X0.2161  Y0.9232  
G01 X0.2181  Y0.9237  
G00 Z0.3000  
G00 X0.2417  Y0.9517  
G01 Z-0.0070 F5     
G01 X0.2435  Y0.9513  F7     
G01 X0.2467  Y0.9494  
G01 X0.2668  Y0.9293  
G01 X0.2658  Y0.9311  
G01 X0.2648  Y0.9350  
G01 X0.2648  Y0.9390  
G01 X0.2658  Y0.9429  
G01 X0.2678  Y0.9464  
G01 X0.2706  Y0.9492  
G01 X0.2741  Y0.9512  
G01 X0.2761  Y0.9517  
G01 X0.2417  Y0.9517  
G00 Z0.3000  
G00 X0.2999  Y0.9517  
G01 Z-0.0070 F5     
G01 X0.3019  Y0.9512  F7     
G01 X0.3037  Y0.9502  
G01 X0.3021  Y0.9517  
G01 X0.2999  Y0.9517  
G00 Z0.3000  
G00 X0.3099  Y0.9802  
G01 Z-0.0070 F5     
G01 X0.3135  Y0.9793  F7     
G01 X0.3167  Y0.9774  
G01 X0.3419  Y0.9522  
G01 X0.3463  Y0.9522  
G01 X0.3445  Y0.9527  
G01 X0.3413  Y0.9546  
G01 X0.2932  Y1.0027  
G01 X0.2942  Y1.0009  
G01 X0.2952  Y0.9972  
G01 X0.2952  Y0.9970  
G01 X0.2952  Y0.9950  
G01 X0.2952  Y0.9930  
G01 X0.2949  Y0.9918  
G01 X0.2942  Y0.9891  
G01 X0.2931  Y0.9873  
G01 X0.2922  Y0.9856  
G01 X0.2907  Y0.9842  
G01 X0.2894  Y0.9828  
G01 X0.2877  Y0.9818  
G01 X0.2859  Y0.9808  
G01 X0.2839  Y0.9802  
G01 X0.3099  Y0.9802  
G00 Z0.3000  
G00 X0.3469  Y0.9892  
G01 Z-0.0070 F5     
G01 X0.3469  Y0.9892  F7     
G01 X0.3459  Y0.9910  
G01 X0.3449  Y0.9947  
G01 X0.3449  Y0.9949  
G01 X0.3449  Y0.9969  
G01 X0.3449  Y0.9989  
G01 X0.3452  Y1.0001  
G01 X0.3459  Y1.0028  
G01 X0.3470  Y1.0046  
G01 X0.3479  Y1.0063  
G01 X0.3494  Y1.0077  
G01 X0.3508  Y1.0091  
G01 X0.3524  Y1.0101  
G01 X0.3542  Y1.0111  
G01 X0.3562  Y1.0116  
G01 X0.3336  Y1.0116  
G01 X0.3309  Y1.0128  
G01 X0.3289  Y1.0148  
G01 X0.3278  Y1.0175  
G01 X0.3278  Y1.1148  
G01 X0.3289  Y1.1175  
G01 X0.3309  Y1.1195  
G01 X0.3324  Y1.1201  
G01 X0.3305  Y1.1201  
G01 X0.3289  Y1.1197  
G01 X0.3270  Y1.1192  
G01 X0.3250  Y1.1192  
G01 X0.3230  Y1.1192  
G01 X0.3206  Y1.1199  
G01 X0.3195  Y1.1201  
G01 X0.3176  Y1.1201  
G01 X0.3191  Y1.1195  
G01 X0.3211  Y1.1175  
G01 X0.3222  Y1.1148  
G01 X0.3222  Y1.0175  
G01 X0.3212  Y1.0150  
G01 X0.3469  Y0.9892  
G00 Z0.3000  
G00 X0.3543  Y0.9818  
G01 Z-0.0070 F5     
G01 X0.3559  Y0.9802  F7     
G01 X0.3581  Y0.9802  
G01 X0.3561  Y0.9808  
G01 X0.3544  Y0.9818  
G00 Z0.3000  
G00 X0.3819  Y0.9802  
G01 Z-0.0070 F5     
G01 X0.3939  Y0.9802  F7     
G01 X0.3975  Y0.9793  
G01 X0.4007  Y0.9774  
G01 X0.4034  Y0.9747  
G01 X0.4259  Y0.9522  
G01 X0.4443  Y0.9522  
G01 X0.4425  Y0.9527  
G01 X0.4393  Y0.9546  
G01 X0.3912  Y1.0027  
G01 X0.3922  Y1.0009  
G01 X0.3932  Y0.9972  
G01 X0.3932  Y0.9970  
G01 X0.3932  Y0.9950  
G01 X0.3932  Y0.9930  
G01 X0.3929  Y0.9918  
G01 X0.3922  Y0.9891  
G01 X0.3911  Y0.9873  
G01 X0.3902  Y0.9856  
G01 X0.3887  Y0.9842  
G01 X0.3874  Y0.9828  
G01 X0.3857  Y0.9818  
G01 X0.3839  Y0.9808  
G01 X0.3819  Y0.9802  
G00 Z0.3000  
G00 X0.3817  Y0.9517  
G01 Z-0.0070 F5     
G01 X0.3835  Y0.9513  F7     
G01 X0.3867  Y0.9494  
G01 X0.4119  Y0.9242  
G01 X0.4163  Y0.9242  
G01 X0.4145  Y0.9247  
G01 X0.4113  Y0.9266  
G01 X0.3861  Y0.9517  
G01 X0.3817  Y0.9517  
G00 Z0.3000  
G00 X0.3737  Y0.9222  
G01 Z-0.0070 F5     
G01 X0.3721  Y0.9237  F7     
G01 X0.3699  Y0.9237  
G01 X0.3719  Y0.9232  
G01 X0.3737  Y0.9222  
G00 Z0.3000  
G00 X0.4237  Y0.9237  
G01 Z-0.0070 F5     
G01 X0.4255  Y0.9233  F7     
G01 X0.4287  Y0.9214  
G01 X0.4567  Y0.8934  
G01 X0.4594  Y0.8907  
G01 X0.4608  Y0.8884  
G01 X0.4664  Y0.8884  
G01 X0.4691  Y0.8872  
G01 X0.4711  Y0.8852  
G01 X0.4722  Y0.8825  
G01 X0.4722  Y0.7852  
G01 X0.4711  Y0.7825  
G01 X0.4691  Y0.7805  
G01 X0.4664  Y0.7794  
G01 X0.4475  Y0.7794  
G01 X0.4495  Y0.7788  
G01 X0.4530  Y0.7768  
G01 X0.4558  Y0.7740  
G01 X0.4567  Y0.7725  
G01 X0.4578  Y0.7705  
G01 X0.4589  Y0.7666  
G01 X0.4589  Y0.7626  
G01 X0.4578  Y0.7587  
G01 X0.4568  Y0.7569  
G01 X0.4758  Y0.7759  
G01 X0.4758  Y0.8901  
G01 X0.4421  Y0.9237  
G01 X0.4237  Y0.9237  
G00 Z0.3000  
G00 X0.4517  Y0.9517  
G01 Z-0.0070 F5     
G01 X0.4535  Y0.9513  F7     
G01 X0.4567  Y0.9494  
G01 X0.4594  Y0.9467  
G01 X0.5014  Y0.9047  
G01 X0.5033  Y0.9015  
G01 X0.5038  Y0.8997  
G01 X0.5038  Y0.9041  
G01 X0.4561  Y0.9517  
G01 X0.4517  Y0.9517  
G00 Z0.3000  
G00 X0.4523  Y0.9818  
G01 Z-0.0070 F5     
G01 X0.4539  Y0.9802  F7     
G01 X0.4561  Y0.9802  
G01 X0.4541  Y0.9808  
G01 X0.4524  Y0.9818  
G00 Z0.3000  
G00 X0.4449  Y0.9892  
G01 Z-0.0070 F5     
G01 X0.4449  Y0.9892  F7     
G01 X0.4439  Y0.9910  
G01 X0.4429  Y0.9947  
G01 X0.4429  Y0.9949  
G01 X0.4429  Y0.9969  
G01 X0.4429  Y0.9989  
G01 X0.4432  Y1.0001  
G01 X0.4439  Y1.0028  
G01 X0.4450  Y1.0046  
G01 X0.4459  Y1.0063  
G01 X0.4474  Y1.0077  
G01 X0.4488  Y1.0091  
G01 X0.4504  Y1.0101  
G01 X0.4522  Y1.0111  
G01 X0.4542  Y1.0116  
G01 X0.4336  Y1.0116  
G01 X0.4309  Y1.0128  
G01 X0.4289  Y1.0148  
G01 X0.4278  Y1.0175  
G01 X0.4278  Y1.1148  
G01 X0.4289  Y1.1175  
G01 X0.4309  Y1.1195  
G01 X0.4324  Y1.1201  
G01 X0.4305  Y1.1201  
G01 X0.4289  Y1.1197  
G01 X0.4270  Y1.1192  
G01 X0.4250  Y1.1192  
G01 X0.4230  Y1.1192  
G01 X0.4206  Y1.1199  
G01 X0.4195  Y1.1201  
G01 X0.4176  Y1.1201  
G01 X0.4191  Y1.1195  
G01 X0.4211  Y1.1175  
G01 X0.4222  Y1.1148  
G01 X0.4222  Y1.0175  
G01 X0.4211  Y1.0148  
G01 X0.4202  Y1.0139  
G01 X0.4449  Y0.9892  
G00 Z0.3000  
G00 X0.4676  Y1.0121  
G01 Z-0.0070 F5     
G01 X0.4678  Y1.0121  F7     
G01 X0.4679  Y1.0123  
G01 X0.4676  Y1.0121  
G00 Z0.3000  
G00 X0.4716  Y1.0160  
G01 Z-0.0070 F5     
G01 X0.4725  Y1.0169  F7     
G01 X0.4727  Y1.0179  
G01 X0.4748  Y1.0214  
G01 X0.4776  Y1.0242  
G01 X0.4811  Y1.0262  
G01 X0.4850  Y1.0273  
G01 X0.4890  Y1.0273  
G01 X0.4928  Y1.0262  
G01 X0.4947  Y1.0252  
G01 X0.4722  Y1.0476  
G01 X0.4722  Y1.0175  
G01 X0.4716  Y1.0160  
G00 Z0.3000  
G00 X0.4738  Y1.0864  
G01 Z-0.0070 F5     
G01 X0.4728  Y1.0881  F7     
G01 X0.4722  Y1.0902  
G01 X0.4722  Y1.0879  
G01 X0.4738  Y1.0864  
G00 Z0.3000  
G00 X0.4717  Y1.1160  
G01 Z-0.0070 F5     
G01 X0.4717  Y1.1162  F7     
G01 X0.4716  Y1.1163  
G01 X0.4717  Y1.1160  
G00 Z0.3000  
G00 X0.4679  Y1.1200  
G01 Z-0.0070 F5     
G01 X0.4678  Y1.1201  F7     
G01 X0.4676  Y1.1201  
G01 X0.4679  Y1.1200  
G00 Z0.3000  
G00 X0.4679  Y1.1618  
G01 Z-0.0070 F5     
G01 X0.4699  Y1.1612  F7     
G01 X0.4717  Y1.1602  
G01 X0.4701  Y1.1618  
G01 X0.4679  Y1.1618  
G00 Z0.3000  
G00 X0.4797  Y1.1898  
G01 Z-0.0070 F5     
G01 X0.4815  Y1.1893  F7     
G01 X0.4847  Y1.1874  
G01 X0.4874  Y1.1847  
G01 X0.5854  Y1.0867  
G01 X0.5873  Y1.0835  
G01 X0.5877  Y1.0817  
G01 X0.5877  Y1.0861  
G01 X0.4841  Y1.1898  
G01 X0.4797  Y1.1898  
G00 Z0.3000  
G00 X0.4023  Y1.1898  
G01 Z-0.0070 F5     
G01 X0.3679  Y1.1898  F7     
G01 X0.3699  Y1.1892  
G01 X0.3734  Y1.1872  
G01 X0.3762  Y1.1844  
G01 X0.3782  Y1.1809  
G01 X0.3792  Y1.1770  
G01 X0.3792  Y1.1730  
G01 X0.3782  Y1.1691  
G01 X0.3772  Y1.1673  
G01 X0.3946  Y1.1847  
G01 X0.3973  Y1.1874  
G01 X0.4005  Y1.1893  
G01 X0.4023  Y1.1898  
G00 Z0.3000  
G00 X0.4119  Y1.1618  
G01 Z-0.0070 F5     
G01 X0.4103  Y1.1602  F7     
G01 X0.4120  Y1.1612  
G01 X0.4121  Y1.1612  
G01 X0.4141  Y1.1618  
G01 X0.4119  Y1.1618  
G00 Z0.3000  
G00 X0.3932  Y1.1431  
G01 Z-0.0070 F5     
G01 X0.3782  Y1.1281  F7     
G01 X0.3782  Y1.1159  
G01 X0.3789  Y1.1175  
G01 X0.3809  Y1.1195  
G01 X0.3836  Y1.1206  
G01 X0.4025  Y1.1206  
G01 X0.4005  Y1.1212  
G01 X0.3970  Y1.1232  
G01 X0.3942  Y1.1260  
G01 X0.3922  Y1.1295  
G01 X0.3911  Y1.1334  
G01 X0.3911  Y1.1374  
G01 X0.3922  Y1.1413  
G01 X0.3932  Y1.1431  
G00 Z0.3000  
G00 X0.3498  Y1.1315  
G01 Z-0.0070 F5     
G01 X0.3492  Y1.1295  F7     
G01 X0.3472  Y1.1260  
G01 X0.3444  Y1.1232  
G01 X0.3409  Y1.1212  
G01 X0.3389  Y1.1206  
G01 X0.3498  Y1.1206  
G01 X0.3498  Y1.1315  
G00 Z0.3000  
G00 X0.3778  Y1.0884  
G01 Z-0.0070 F5     
G01 X0.3773  Y1.0865  F7     
G01 X0.3754  Y1.0833  
G01 X0.3722  Y1.0801  
G01 X0.3722  Y1.0175  
G01 X0.3711  Y1.0148  
G01 X0.3691  Y1.0128  
G01 X0.3676  Y1.0121  
G01 X0.3695  Y1.0121  
G01 X0.3706  Y1.0124  
G01 X0.3730  Y1.0131  
G01 X0.3750  Y1.0131  
G01 X0.3770  Y1.0131  
G01 X0.3790  Y1.0125  
G01 X0.3809  Y1.0120  
G01 X0.3821  Y1.0113  
G01 X0.3831  Y1.0108  
G01 X0.3812  Y1.0126  
G01 X0.3809  Y1.0128  
G01 X0.3789  Y1.0148  
G01 X0.3778  Y1.0175  
G01 X0.3778  Y1.0200  
G01 X0.3777  Y1.0201  
G01 X0.3777  Y1.0621  
G01 X0.3777  Y1.0640  
G01 X0.3777  Y1.0659  
G01 X0.3778  Y1.0660  
G01 X0.3778  Y1.0884  
G00 Z0.3000  
G00 X0.2778  Y1.1148  
G01 Z-0.0070 F5     
G01 X0.2789  Y1.1175  F7     
G01 X0.2809  Y1.1195  
G01 X0.2824  Y1.1201  
G01 X0.2805  Y1.1201  
G01 X0.2789  Y1.1197  
G01 X0.2770  Y1.1192  
G01 X0.2750  Y1.1192  
G01 X0.2730  Y1.1192  
G01 X0.2706  Y1.1199  
G01 X0.2695  Y1.1201  
G01 X0.2676  Y1.1201  
G01 X0.2691  Y1.1195  
G01 X0.2711  Y1.1175  
G01 X0.2722  Y1.1148  
G01 X0.2722  Y1.0175  
G01 X0.2711  Y1.0148  
G01 X0.2691  Y1.0128  
G01 X0.2676  Y1.0121  
G01 X0.2695  Y1.0121  
G01 X0.2706  Y1.0124  
G01 X0.2730  Y1.0131  
G01 X0.2750  Y1.0131  
G01 X0.2770  Y1.0131  
G01 X0.2790  Y1.0125  
G01 X0.2809  Y1.0120  
G01 X0.2812  Y1.0119  
G01 X0.2840  Y1.0111  
G01 X0.2857  Y1.0101  
G01 X0.2853  Y1.0106  
G01 X0.2842  Y1.0116  
G01 X0.2836  Y1.0116  
G01 X0.2809  Y1.0128  
G01 X0.2789  Y1.0148  
G01 X0.2778  Y1.0175  
G01 X0.2778  Y1.1148  
G00 Z0.3000  
G00 X0.2631  Y1.1206  
G01 Z-0.0070 F5     
G01 X0.2611  Y1.1212  F7     
G01 X0.2576  Y1.1232  
G01 X0.2548  Y1.1260  
G01 X0.2528  Y1.1295  
G01 X0.2522  Y1.1315  
G01 X0.2522  Y1.1259  
G01 X0.2575  Y1.1206  
G01 X0.2631  Y1.1206  
G00 Z0.3000  
G00 X0.2522  Y1.1399  
G01 Z-0.0070 F5     
G01 X0.2528  Y1.1419  F7     
G01 X0.2538  Y1.1437  
G01 X0.2522  Y1.1421  
G01 X0.2522  Y1.1399  
G00 Z0.3000  
G00 X0.2278  Y1.1101  
G01 Z-0.0070 F5     
G01 X0.2269  Y1.1109  F7     
G01 X0.2273  Y1.1104  
G01 X0.2275  Y1.1094  
G01 X0.2278  Y1.1087  
G01 X0.2278  Y1.1101  
G00 Z0.3000  
G00 X0.1808  Y1.1539  
G01 Z-0.0070 F5     
G01 X0.1961  Y1.1692  F7     
G01 X0.2044  Y1.1892  
G01 X0.2044  Y1.2108  
G01 X0.1961  Y1.2308  
G01 X0.1808  Y1.2461  
G01 X0.1608  Y1.2544  
G01 X0.1392  Y1.2544  
G01 X0.1192  Y1.2461  
G01 X0.1039  Y1.2308  
G01 X0.0956  Y1.2108  
G01 X0.0956  Y1.1892  
G01 X0.1039  Y1.1692  
G01 X0.1192  Y1.1539  
G01 X0.1392  Y1.1456  
G01 X0.1608  Y1.1456  
G01 X0.1808  Y1.1539  
G00 Z0.3000  
G00 X0.2983  Y1.1882  
G01 Z-0.0070 F5     
G01 X0.3001  Y1.1892  F7     
G01 X0.3021  Y1.1898  
G01 X0.2999  Y1.1898  
G01 X0.2983  Y1.1882  
G00 Z0.3000  
G00 X0.2283  Y1.0162  
G01 Z-0.0070 F5     
G01 X0.2283  Y1.0161  F7     
G01 X0.2284  Y1.0160  
G01 X0.2283  Y1.0162  
G00 Z0.3000  
G00 X0.2321  Y1.0123  
G01 Z-0.0070 F5     
G01 X0.2322  Y1.0121  F7     
G01 X0.2324  Y1.0121  
G01 X0.2321  Y1.0123  
G00 Z0.3000  
G00 X0.2714  Y0.8844  
G01 Z-0.0070 F5     
G01 X0.2722  Y0.8825  F7     
G01 X0.2722  Y0.7852  
G01 X0.2711  Y0.7825  
G01 X0.2691  Y0.7805  
G01 X0.2676  Y0.7799  
G01 X0.2695  Y0.7799  
G01 X0.2706  Y0.7801  
G01 X0.2730  Y0.7808  
G01 X0.2750  Y0.7808  
G01 X0.2770  Y0.7808  
G01 X0.2790  Y0.7803  
G01 X0.2805  Y0.7799  
G01 X0.2824  Y0.7799  
G01 X0.2809  Y0.7805  
G01 X0.2789  Y0.7825  
G01 X0.2778  Y0.7852  
G01 X0.2778  Y0.8781  
G01 X0.2714  Y0.8844  
G00 Z0.3000  
G00 X0.3068  Y0.8884  
G01 Z-0.0070 F5     
G01 X0.3100  Y0.8884  F7     
G01 X0.3094  Y0.8885  
G01 X0.3080  Y0.8889  
G01 X0.3070  Y0.8895  
G01 X0.3057  Y0.8902  
G01 X0.3068  Y0.8884  
G00 Z0.3000  
G00 X0.3176  Y0.8879  
G01 Z-0.0070 F5     
G01 X0.3191  Y0.8872  F7     
G01 X0.3211  Y0.8852  
G01 X0.3222  Y0.8825  
G01 X0.3222  Y0.7852  
G01 X0.3211  Y0.7825  
G01 X0.3191  Y0.7805  
G01 X0.3164  Y0.7794  
G01 X0.2935  Y0.7794  
G01 X0.2955  Y0.7788  
G01 X0.2990  Y0.7768  
G01 X0.3018  Y0.7740  
G01 X0.3038  Y0.7705  
G01 X0.3049  Y0.7666  
G01 X0.3049  Y0.7626  
G01 X0.3038  Y0.7587  
G01 X0.3028  Y0.7569  
G01 X0.3287  Y0.7829  
G01 X0.3278  Y0.7852  
G01 X0.3278  Y0.8825  
G01 X0.3289  Y0.8852  
G01 X0.3309  Y0.8872  
G01 X0.3324  Y0.8879  
G01 X0.3305  Y0.8879  
G01 X0.3289  Y0.8874  
G01 X0.3270  Y0.8869  
G01 X0.3250  Y0.8869  
G01 X0.3230  Y0.8869  
G01 X0.3206  Y0.8876  
G01 X0.3195  Y0.8879  
G01 X0.3176  Y0.8879  
G00 Z0.3000  
G00 X0.2278  Y0.8096  
G01 Z-0.0070 F5     
G01 X0.2071  Y0.7889  F7     
G01 X0.2089  Y0.7900  
G01 X0.2128  Y0.7910  
G01 X0.2168  Y0.7910  
G01 X0.2207  Y0.7900  
G01 X0.2220  Y0.7892  
G01 X0.2241  Y0.7880  
G01 X0.2270  Y0.7851  
G01 X0.2284  Y0.7837  
G01 X0.2278  Y0.7852  
G01 X0.2278  Y0.8096  
G00 Z0.3000  
G00 X0.2321  Y0.7800  
G01 Z-0.0070 F5     
G01 X0.2322  Y0.7799  F7     
G01 X0.2324  Y0.7799  
G01 X0.2321  Y0.7800  
G00 Z0.3000  
G00 X0.3419  Y0.7137  
G01 Z-0.0070 F5     
G01 X0.3403  Y0.7122  F7     
G01 X0.3421  Y0.7132  
G01 X0.3441  Y0.7137  
G01 X0.3419  Y0.7137  
G00 Z0.3000  
G00 X0.3693  Y0.6432  
G01 Z-0.0070 F5     
G01 X0.3711  Y0.6442  F7     
G01 X0.3713  Y0.6442  
G01 X0.3750  Y0.6452  
G01 X0.3790  Y0.6452  
G01 X0.3829  Y0.6442  
G01 X0.3864  Y0.6422  
G01 X0.3892  Y0.6394  
G01 X0.3912  Y0.6359  
G01 X0.3913  Y0.6357  
G01 X0.3917  Y0.6339  
G01 X0.3917  Y0.6459  
G01 X0.3927  Y0.6495  
G01 X0.3946  Y0.6527  
G01 X0.5038  Y0.7619  
G01 X0.5038  Y0.7663  
G01 X0.5033  Y0.7645  
G01 X0.5014  Y0.7613  
G01 X0.4987  Y0.7586  
G01 X0.4567  Y0.7166  
G01 X0.4535  Y0.7147  
G01 X0.4499  Y0.7137  
G01 X0.4399  Y0.7137  
G01 X0.3693  Y0.6432  
G00 Z0.3000  
G00 X0.4218  Y0.6397  
G01 Z-0.0070 F5     
G01 X0.4202  Y0.6381  F7     
G01 X0.4202  Y0.6359  
G01 X0.4208  Y0.6379  
G01 X0.4218  Y0.6397  
G00 Z0.3000  
G00 X0.4399  Y0.7422  
G01 Z-0.0070 F5     
G01 X0.4421  Y0.7422  F7     
G01 X0.4437  Y0.7438  
G01 X0.4419  Y0.7428  
G01 X0.4399  Y0.7422  
G00 Z0.3000  
G00 X0.5093  Y0.7272  
G01 Z-0.0070 F5     
G01 X0.5111  Y0.7282  F7     
G01 X0.5113  Y0.7282  
G01 X0.5150  Y0.7292  
G01 X0.5190  Y0.7292  
G01 X0.5229  Y0.7282  
G01 X0.5264  Y0.7262  
G01 X0.5292  Y0.7234  
G01 X0.5312  Y0.7199  
G01 X0.5313  Y0.7197  
G01 X0.5317  Y0.7179  
G01 X0.5317  Y0.7523  
G01 X0.5313  Y0.7505  
G01 X0.5294  Y0.7473  
G01 X0.5267  Y0.7446  
G01 X0.5093  Y0.7272  
G00 Z0.3000  
G00 X0.5317  Y0.9137  
G01 Z-0.0070 F5     
G01 X0.5317  Y0.9481  F7     
G01 X0.5312  Y0.9461  
G01 X0.5292  Y0.9426  
G01 X0.5264  Y0.9398  
G01 X0.5229  Y0.9378  
G01 X0.5190  Y0.9368  
G01 X0.5150  Y0.9368  
G01 X0.5111  Y0.9378  
G01 X0.5093  Y0.9388  
G01 X0.5294  Y0.9187  
G01 X0.5313  Y0.9155  
G01 X0.5317  Y0.9137  
G00 Z0.3000  
G00 X0.5317  Y0.9859  
G01 Z-0.0070 F5     
G01 X0.5317  Y0.9881  F7     
G01 X0.5302  Y0.9897  
G01 X0.5312  Y0.9880  
G01 X0.5312  Y0.9879  
G01 X0.5317  Y0.9859  
G00 Z0.3000  
G00 X0.5597  Y0.9977  
G01 Z-0.0070 F5     
G01 X0.5597  Y1.0321  F7     
G01 X0.5592  Y1.0301  
G01 X0.5572  Y1.0266  
G01 X0.5544  Y1.0238  
G01 X0.5509  Y1.0218  
G01 X0.5470  Y1.0208  
G01 X0.5430  Y1.0208  
G01 X0.5391  Y1.0218  
G01 X0.5373  Y1.0228  
G01 X0.5574  Y1.0027  
G01 X0.5593  Y0.9995  
G01 X0.5597  Y0.9977  
G00 Z0.3000  
G00 X0.5597  Y1.0699  
G01 Z-0.0070 F5     
G01 X0.5597  Y1.0721  F7     
G01 X0.5582  Y1.0737  
G01 X0.5592  Y1.0719  
G01 X0.5597  Y1.0699  
G00 Z0.3000  
G00 X0.3238  Y0.5977  
G01 Z-0.0070 F5     
G01 X0.3222  Y0.5961  F7     
G01 X0.3222  Y0.5939  
G01 X0.3228  Y0.5959  
G01 X0.3238  Y0.5977  
G00 Z0.3000  
G00 X0.0344  Y0.0356  
G01 Z-0.0070 F5     
G01 X0.0317  Y0.0402  F7     
G01 X0.0303  Y0.0453  
G01 X0.0303  Y1.3363  
G01 X0.0303  Y1.3417  
G01 X0.0317  Y1.3468  
G01 X0.0344  Y1.3514  
G01 X0.0381  Y1.3552  
G01 X0.0427  Y1.3579  
G01 X0.0479  Y1.3593  
G01 X0.6513  Y1.3593  
G01 X0.6565  Y1.3579  
G01 X0.6611  Y1.3552  
G01 X0.6649  Y1.3514  
G01 X0.6675  Y1.3468  
G01 X0.6689  Y1.3417  
G01 X0.6689  Y0.0453  
G01 X0.6675  Y0.0402  
G01 X0.6649  Y0.0356  
G01 X0.6611  Y0.0318  
G01 X0.6565  Y0.0291  
G01 X0.6513  Y0.0277  
G01 X0.0479  Y0.0277  
G01 X0.0427  Y0.0291  
G01 X0.0381  Y0.0318  
G01 X0.0344  Y0.0356  
G00 Z0.3000  
G00 X0.1452  Y0.3257  
G01 Z-0.0070 F5     
G01 X0.1472  Y0.3269  F7     
G01 X0.1493  Y0.3274  
G01 X0.1452  Y0.3315  
G01 X0.1452  Y0.3257  
G00 Z0.3000  
G00 X0.2211  Y0.3132  
G01 Z-0.0070 F5     
G01 X0.2228  Y0.3132  F7     
G01 X0.2228  Y0.3142  
G01 X0.2211  Y0.3132  
G00 Z0.3000  
G00 X0.2542  Y0.3434  
G01 Z-0.0070 F5     
G01 X0.2666  Y0.3434  F7     
G01 X0.2697  Y0.3425  
G01 X0.2725  Y0.3409  
G01 X0.2748  Y0.3386  
G01 X0.2750  Y0.3382  
G01 X0.2752  Y0.3386  
G01 X0.2775  Y0.3409  
G01 X0.2803  Y0.3425  
G01 X0.2834  Y0.3434  
G01 X0.3154  Y0.3434  
G01 X0.3000  Y0.3588  
G01 X0.2559  Y0.3588  
G01 X0.2561  Y0.3584  
G01 X0.2562  Y0.3571  
G01 X0.2566  Y0.3558  
G01 X0.2566  Y0.3544  
G01 X0.2568  Y0.3531  
G01 X0.2566  Y0.3518  
G01 X0.2566  Y0.3504  
G01 X0.2562  Y0.3491  
G01 X0.2561  Y0.3478  
G01 X0.2555  Y0.3466  
G01 X0.2552  Y0.3453  
G01 X0.2545  Y0.3441  
G01 X0.2542  Y0.3434  
G00 Z0.3000  
G00 X0.2880  Y0.4532  
G01 Z-0.0070 F5     
G01 X0.3385  Y0.4532  F7     
G01 X0.3434  Y0.4519  
G01 X0.3448  Y0.4512  
G01 X0.3448  Y0.4540  
G01 X0.3421  Y0.4566  
G01 X0.3334  Y0.4566  
G01 X0.3303  Y0.4575  
G01 X0.3275  Y0.4591  
G01 X0.3252  Y0.4614  
G01 X0.3250  Y0.4618  
G01 X0.3248  Y0.4614  
G01 X0.3225  Y0.4591  
G01 X0.3197  Y0.4575  
G01 X0.3166  Y0.4566  
G01 X0.2846  Y0.4566  
G01 X0.2880  Y0.4532  
G00 Z0.3000  
G00 X0.3832  Y0.4560  
G01 Z-0.0070 F5     
G01 X0.3867  Y0.4526  F7     
G01 X0.3872  Y0.4547  
G01 X0.3884  Y0.4566  
G01 X0.3834  Y0.4566  
G01 X0.3832  Y0.4567  
G01 X0.3832  Y0.4560  
G00 Z0.3000  
G00 X0.3965  Y0.3588  
G01 Z-0.0070 F5     
G01 X0.4074  Y0.3478  F7     
G01 X0.4099  Y0.3434  
G01 X0.4166  Y0.3434  
G01 X0.4197  Y0.3425  
G01 X0.4225  Y0.3409  
G01 X0.4248  Y0.3386  
G01 X0.4250  Y0.3382  
G01 X0.4252  Y0.3386  
G01 X0.4275  Y0.3409  
G01 X0.4303  Y0.3425  
G01 X0.4334  Y0.3434  
G01 X0.4587  Y0.3434  
G01 X0.4579  Y0.3463  
G01 X0.4579  Y0.3517  
G01 X0.4583  Y0.3531  
G01 X0.4593  Y0.3568  
G01 X0.4604  Y0.3587  
G01 X0.3965  Y0.3588  
G00 Z0.3000  
G00 X0.4772  Y0.5464  
G01 Z-0.0070 F5     
G01 X0.4813  Y0.5505  F7     
G01 X0.4791  Y0.5511  
G01 X0.4772  Y0.5522  
G01 X0.4772  Y0.5464  
G00 Z0.3000  
G00 X0.5507  Y0.5654  
G01 Z-0.0070 F5     
G01 X0.5528  Y0.5649  F7     
G01 X0.5547  Y0.5637  
G01 X0.5547  Y0.5695  
G01 X0.5507  Y0.5654  
G00 Z0.3000  
G00 X0.5268  Y0.7317  
G01 Z-0.0070 F5     
G01 X0.5268  Y0.7375  F7     
G01 X0.5227  Y0.7334  
G01 X0.5248  Y0.7329  
G01 X0.5268  Y0.7317  
G00 Z0.3000  
G00 X0.4673  Y0.7746  
G01 Z-0.0070 F5     
G01 X0.4666  Y0.7744  F7     
G01 X0.4614  Y0.7744  
G01 X0.4625  Y0.7724  
G01 X0.4630  Y0.7703  
G01 X0.4673  Y0.7746  
G00 Z0.3000  
G00 X0.4435  Y0.7087  
G01 Z-0.0070 F5     
G01 X0.4420  Y0.7087  F7     
G01 X0.3827  Y0.6494  
G01 X0.3848  Y0.6489  
G01 X0.3870  Y0.6476  
G01 X0.3881  Y0.6514  
G01 X0.3906  Y0.6558  
G01 X0.4435  Y0.7087  
G00 Z0.3000  
G00 X0.3704  Y0.7756  
G01 Z-0.0070 F5     
G01 X0.3697  Y0.7752  F7     
G01 X0.3667  Y0.7744  
G01 X0.3654  Y0.7722  
G01 X0.3618  Y0.7686  
G01 X0.3405  Y0.7472  
G01 X0.3420  Y0.7472  
G01 X0.3704  Y0.7756  
G00 Z0.3000  
G00 X0.3131  Y0.7744  
G01 Z-0.0070 F5     
G01 X0.3074  Y0.7744  F7     
G01 X0.3085  Y0.7724  
G01 X0.3090  Y0.7703  
G01 X0.3131  Y0.7744  
G00 Z0.3000  
G00 X0.2228  Y0.7945  
G01 Z-0.0070 F5     
G01 X0.2228  Y0.7976  F7     
G01 X0.2204  Y0.7952  
G01 X0.2226  Y0.7946  
G01 X0.2228  Y0.7945  
G00 Z0.3000  
G00 X0.1493  Y0.7786  
G01 Z-0.0070 F5     
G01 X0.1472  Y0.7791  F7     
G01 X0.1452  Y0.7803  
G01 X0.1452  Y0.7745  
G01 X0.1493  Y0.7786  
G00 Z0.3000  
G00 X0.1732  Y0.6403  
G01 Z-0.0070 F5     
G01 X0.1732  Y0.6345  F7     
G01 X0.1773  Y0.6386  
G01 X0.1752  Y0.6391  
G01 X0.1732  Y0.6403  
G00 Z0.3000  
G00 X0.1732  Y0.4295  
G01 Z-0.0070 F5     
G01 X0.1732  Y0.4237  F7     
G01 X0.1752  Y0.4249  
G01 X0.1773  Y0.4254  
G01 X0.1732  Y0.4295  
G00 Z0.3000  
G00 X0.2985  Y0.1732  
G01 Z-0.0070 F5     
G01 X0.3021  Y0.1732  F7     
G01 X0.3018  Y0.1740  
G01 X0.3011  Y0.1752  
G01 X0.3010  Y0.1758  
G01 X0.2985  Y0.1732  
G00 Z0.3000  
G00 X0.5081  Y0.1780  
G01 Z-0.0070 F5     
G01 X0.5006  Y0.1598  F7     
G01 X0.5006  Y0.1402  
G01 X0.5081  Y0.1220  
G01 X0.5220  Y0.1081  
G01 X0.5402  Y0.1006  
G01 X0.5598  Y0.1006  
G01 X0.5780  Y0.1081  
G01 X0.5919  Y0.1220  
G01 X0.5994  Y0.1402  
G01 X0.5994  Y0.1598  
G01 X0.5919  Y0.1780  
G01 X0.5780  Y0.1919  
G01 X0.5598  Y0.1994  
G01 X0.5402  Y0.1994  
G01 X0.5220  Y0.1919  
G01 X0.5081  Y0.1780  
G00 Z0.3000  
G00 X0.4654  Y0.8934  
G01 Z-0.0070 F5     
G01 X0.4400  Y0.9187  F7     
G01 X0.4385  Y0.9187  
G01 X0.4598  Y0.8974  
G01 X0.4634  Y0.8938  
G01 X0.4637  Y0.8934  
G01 X0.4654  Y0.8934  
G00 Z0.3000  
G00 X0.3963  Y0.8934  
G01 Z-0.0070 F5     
G01 X0.3942  Y0.8946  F7     
G01 X0.3913  Y0.8974  
G01 X0.3908  Y0.8953  
G01 X0.3900  Y0.8939  
G01 X0.3896  Y0.8934  
G01 X0.3963  Y0.8934  
G00 Z0.3000  
G00 X0.3956  Y0.9850  
G01 Z-0.0070 F5     
G01 X0.3994  Y0.9839  F7     
G01 X0.4038  Y0.9814  
G01 X0.4074  Y0.9778  
G01 X0.4280  Y0.9572  
G01 X0.4295  Y0.9572  
G01 X0.3974  Y0.9893  
G01 X0.3969  Y0.9872  
G01 X0.3956  Y0.9850  
G00 Z0.3000  
G00 X0.4346  Y1.0066  
G01 Z-0.0070 F5     
G01 X0.4387  Y1.0026  F7     
G01 X0.4392  Y1.0047  
G01 X0.4404  Y1.0066  
G01 X0.4346  Y1.0066  
G00 Z0.3000  
G00 X0.4772  Y1.0298  
G01 Z-0.0070 F5     
G01 X0.4791  Y1.0309  F7     
G01 X0.4813  Y1.0315  
G01 X0.4772  Y1.0356  
G01 X0.4772  Y1.0298  
G00 Z0.3000  
G00 X0.5507  Y1.0166  
G01 Z-0.0070 F5     
G01 X0.5547  Y1.0125  F7     
G01 X0.5547  Y1.0183  
G01 X0.5528  Y1.0171  
G01 X0.5507  Y1.0166  
G00 Z0.3000  
G00 X0.5268  Y0.9343  
G01 Z-0.0070 F5     
G01 X0.5248  Y0.9331  F7     
G01 X0.5227  Y0.9326  
G01 X0.5268  Y0.9285  
G01 X0.5268  Y0.9343  
G00 Z0.3000  
G00 X0.3407  Y1.0026  
G01 Z-0.0070 F5     
G01 X0.3412  Y1.0047  F7     
G01 X0.3424  Y1.0066  
G01 X0.3366  Y1.0066  
G01 X0.3407  Y1.0026  
G00 Z0.3000  
G00 X0.3035  Y0.9852  
G01 Z-0.0070 F5     
G01 X0.2994  Y0.9893  F7     
G01 X0.2989  Y0.9872  
G01 X0.2977  Y0.9852  
G01 X0.3035  Y0.9852  
G00 Z0.3000  
G00 X0.2623  Y0.9467  
G01 Z-0.0070 F5     
G01 X0.2565  Y0.9467  F7     
G01 X0.2606  Y0.9427  
G01 X0.2611  Y0.9448  
G01 X0.2623  Y0.9467  
G00 Z0.3000  
G00 X0.2554  Y0.8934  
G01 Z-0.0070 F5     
G01 X0.2513  Y0.8974  F7     
G01 X0.2508  Y0.8953  
G01 X0.2500  Y0.8939  
G01 X0.2496  Y0.8934  
G01 X0.2554  Y0.8934  
G00 Z0.3000  
G00 X0.1919  Y1.1720  
G01 Z-0.0070 F5     
G01 X0.1994  Y1.1902  F7     
G01 X0.1994  Y1.2098  
G01 X0.1919  Y1.2280  
G01 X0.1780  Y1.2419  
G01 X0.1598  Y1.2494  
G01 X0.1402  Y1.2494  
G01 X0.1220  Y1.2419  
G01 X0.1081  Y1.2280  
G01 X0.1006  Y1.2098  
G01 X0.1006  Y1.1902  
G01 X0.1081  Y1.1720  
G01 X0.1220  Y1.1581  
G01 X0.1402  Y1.1506  
G01 X0.1598  Y1.1506  
G01 X0.1780  Y1.1581  
G01 X0.1919  Y1.1720  
G00 Z0.3000  
G00 X0.3834  Y1.1807  
G01 Z-0.0070 F5     
G01 X0.3875  Y1.1847  F7     
G01 X0.3817  Y1.1847  
G01 X0.3829  Y1.1828  
G01 X0.3834  Y1.1807  
G00 Z0.3000  
G00 X0.3869  Y1.1297  
G01 Z-0.0070 F5     
G01 X0.3832  Y1.1260  F7     
G01 X0.3832  Y1.1256  
G01 X0.3834  Y1.1256  
G01 X0.3886  Y1.1256  
G01 X0.3875  Y1.1276  
G01 X0.3869  Y1.1297  
G00 Z0.3000  
G00 X0.0309  Y0.0319  
G01 Z-0.0070 F5     
G01 X0.0282  Y0.0360  F7     
G01 X0.0263  Y0.0406  
G01 X0.0253  Y0.0455  
G01 X0.0253  Y1.3365  
G01 X0.0253  Y1.3415  
G01 X0.0263  Y1.3464  
G01 X0.0282  Y1.3510  
G01 X0.0309  Y1.3551  
G01 X0.0345  Y1.3586  
G01 X0.0386  Y1.3614  
G01 X0.0432  Y1.3633  
G01 X0.0481  Y1.3643  
G01 X0.6511  Y1.3643  
G01 X0.6560  Y1.3633  
G01 X0.6606  Y1.3614  
G01 X0.6647  Y1.3586  
G01 X0.6683  Y1.3551  
G01 X0.6710  Y1.3510  
G01 X0.6729  Y1.3464  
G01 X0.6739  Y1.3415  
G01 X0.6739  Y0.0455  
G01 X0.6729  Y0.0406  
G01 X0.6710  Y0.0360  
G01 X0.6683  Y0.0319  
G01 X0.6647  Y0.0284  
G01 X0.6606  Y0.0256  
G01 X0.6560  Y0.0237  
G01 X0.6511  Y0.0227  
G01 X0.0481  Y0.0227  
G01 X0.0432  Y0.0237  
G01 X0.0386  Y0.0256  
G01 X0.0345  Y0.0284  
G01 X0.0309  Y0.0319  
G00 Z0.3000  
G00 X0.2611  Y0.3484  
G01 Z-0.0070 F5     
G01 X0.2672  Y0.3484  F7     
G01 X0.2716  Y0.3472  
G01 X0.2750  Y0.3452  
G01 X0.2784  Y0.3472  
G01 X0.2828  Y0.3484  
G01 X0.3034  Y0.3484  
G01 X0.2980  Y0.3538  
G01 X0.2616  Y0.3538  
G01 X0.2616  Y0.3531  
G01 X0.2616  Y0.3506  
G01 X0.2611  Y0.3484  
G00 Z0.3000  
G00 X0.4129  Y0.3484  
G01 Z-0.0070 F5     
G01 X0.4172  Y0.3484  F7     
G01 X0.4216  Y0.3472  
G01 X0.4250  Y0.3452  
G01 X0.4284  Y0.3472  
G01 X0.4328  Y0.3484  
G01 X0.4529  Y0.3484  
G01 X0.4529  Y0.3515  
G01 X0.4532  Y0.3528  
G01 X0.4534  Y0.3538  
G01 X0.4085  Y0.3538  
G01 X0.4108  Y0.3515  
G01 X0.4129  Y0.3484  
G00 Z0.3000  
G00 X0.5124  Y0.1752  
G01 Z-0.0070 F5     
G01 X0.5056  Y0.1588  F7     
G01 X0.5056  Y0.1412  
G01 X0.5124  Y0.1248  
G01 X0.5248  Y0.1124  
G01 X0.5412  Y0.1056  
G01 X0.5588  Y0.1056  
G01 X0.5752  Y0.1124  
G01 X0.5876  Y0.1248  
G01 X0.5944  Y0.1412  
G01 X0.5944  Y0.1588  
G01 X0.5876  Y0.1752  
G01 X0.5752  Y0.1876  
G01 X0.5588  Y0.1944  
G01 X0.5412  Y0.1944  
G01 X0.5248  Y0.1876  
G01 X0.5124  Y0.1752  
G00 Z0.3000  
G00 X0.1876  Y1.1748  
G01 Z-0.0070 F5     
G01 X0.1944  Y1.1912  F7     
G01 X0.1944  Y1.2088  
G01 X0.1876  Y1.2252  
G01 X0.1752  Y1.2376  
G01 X0.1588  Y1.2444  
G01 X0.1412  Y1.2444  
G01 X0.1248  Y1.2376  
G01 X0.1124  Y1.2252  
G01 X0.1056  Y1.2088  
G01 X0.1056  Y1.1912  
G01 X0.1124  Y1.1748  
G01 X0.1248  Y1.1624  
G01 X0.1412  Y1.1556  
G01 X0.1588  Y1.1556  
G01 X0.1752  Y1.1624  
G01 X0.1876  Y1.1748  
G00 Z0.3000  
G00 X0.0271  Y0.0287  
G01 Z-0.0070 F5     
G01 X0.0238  Y0.0337  F7     
G01 X0.0215  Y0.0392  
G01 X0.0203  Y0.0450  
G01 X0.0203  Y1.3360  
G01 X0.0203  Y1.3420  
G01 X0.0215  Y1.3478  
G01 X0.0238  Y1.3533  
G01 X0.0271  Y1.3583  
G01 X0.0313  Y1.3625  
G01 X0.0362  Y1.3658  
G01 X0.0417  Y1.3681  
G01 X0.0476  Y1.3693  
G01 X0.6516  Y1.3693  
G01 X0.6575  Y1.3681  
G01 X0.6630  Y1.3658  
G01 X0.6679  Y1.3625  
G01 X0.6722  Y1.3583  
G01 X0.6755  Y1.3533  
G01 X0.6777  Y1.3478  
G01 X0.6789  Y1.3420  
G01 X0.6789  Y0.0450  
G01 X0.6777  Y0.0392  
G01 X0.6755  Y0.0337  
G01 X0.6722  Y0.0287  
G01 X0.6679  Y0.0245  
G01 X0.6630  Y0.0212  
G01 X0.6575  Y0.0189  
G01 X0.6516  Y0.0177  
G01 X0.0476  Y0.0177  
G01 X0.0417  Y0.0189  
G01 X0.0362  Y0.0212  
G01 X0.0313  Y0.0245  
G01 X0.0271  Y0.0287  
G00 Z0.3000  
G00 X0.5277  Y0.1166  
G01 Z-0.0070 F5     
G01 X0.5422  Y0.1106  F7     
G01 X0.5578  Y0.1106  
G01 X0.5723  Y0.1166  
G01 X0.5834  Y0.1277  
G01 X0.5894  Y0.1422  
G01 X0.5894  Y0.1578  
G01 X0.5834  Y0.1723  
G01 X0.5723  Y0.1834  
G01 X0.5578  Y0.1894  
G01 X0.5422  Y0.1894  
G01 X0.5277  Y0.1834  
G01 X0.5166  Y0.1723  
G01 X0.5106  Y0.1578  
G01 X0.5106  Y0.1422  
G01 X0.5166  Y0.1277  
G01 X0.5277  Y0.1166  
G00 Z0.3000  
G00 X0.1834  Y1.1777  
G01 Z-0.0070 F5     
G01 X0.1894  Y1.1922  F7     
G01 X0.1894  Y1.2078  
G01 X0.1834  Y1.2223  
G01 X0.1723  Y1.2334  
G01 X0.1578  Y1.2394  
G01 X0.1422  Y1.2394  
G01 X0.1277  Y1.2334  
G01 X0.1166  Y1.2223  
G01 X0.1106  Y1.2078  
G01 X0.1106  Y1.1922  
G01 X0.1166  Y1.1777  
G01 X0.1277  Y1.1666  
G01 X0.1422  Y1.1606  
G01 X0.1578  Y1.1606  
G01 X0.1723  Y1.1666  
G01 X0.1834  Y1.1777  
G00 Z0.3000  
G82 X0.5500  Y0.1500  Z-0.0110 F20    R0.3000  P1.000000
G82 X0.1500  Y1.2000  
G00 Z0.5000  
M05
M02
