(.../EagleCAD.Playground/PCB-GCODE/pcb-gcode.ulp)
(Copyright 2005 - 2012 by John Johnson)
(See readme.txt for licensing terms.)
(This file generated from the board:)
(.../IDers Test/SMM Test Jig/LPC_probe.brd)
(Current profile is .../EagleCAD.Playground/PCB-GCODE/profiles/mach.pp  )
(This file generated 5/20/2015 9:59:12 PM)
(Settings from pcb-machine.h)
(spindle on time = 3.0000)
(  Tool Size)
(0.0025  )
(spindle speed = 30000.0000)
(tool change at 0.0000  0.0000  1.0000  )
(feed rate xy = F7     )
(feed rate z  = F5     )
(Z Axis Settings)
(  High     Up        Down     Drill)
(0.5000  	0.3000  	-0.0070 	-0.0630 )
(Settings from pcb-defaults.h)
(isolate min = 0.0010)
(isolate max = 0.0200)
(isolate step = 0.0050)
(Generated top outlines, top drill, )
(Unit of measure: inch)
(Inch Mode)
G20
(Absolute Coordinates)
G90
S30000
G00 Z0.5000  
G00 X0.0000  Y0.0000  
M03
G04 P3.000000
G00 Z0.3000  
G00 X0.0398  Y0.0417  
G01 Z-0.0070 F5     
G01 X0.0384  Y0.0440  F7     
G01 X0.0377  Y0.0467  
G01 X0.0377  Y1.3404  
G01 X0.0384  Y1.3430  
G01 X0.0398  Y1.3453  
G01 X0.0417  Y1.3472  
G01 X0.0440  Y1.3486  
G01 X0.0467  Y1.3493  
G01 X0.6526  Y1.3493  
G01 X0.6552  Y1.3486  
G01 X0.6575  Y1.3472  
G01 X0.6594  Y1.3453  
G01 X0.6608  Y1.3430  
G01 X0.6615  Y1.3404  
G01 X0.6615  Y0.9904  
G01 X0.6616  Y0.9897  
G01 X0.6615  Y0.9890  
G01 X0.6615  Y0.9884  
G01 X0.6613  Y0.9877  
G01 X0.6612  Y0.9870  
G01 X0.6609  Y0.9864  
G01 X0.6608  Y0.9858  
G01 X0.6604  Y0.9852  
G01 X0.6602  Y0.9845  
G01 X0.6598  Y0.9840  
G01 X0.6594  Y0.9834  
G01 X0.6589  Y0.9829  
G01 X0.6585  Y0.9824  
G01 X0.6580  Y0.9820  
G01 X0.6575  Y0.9815  
G01 X0.6569  Y0.9812  
G01 X0.6564  Y0.9808  
G01 X0.6558  Y0.9805  
G01 X0.6552  Y0.9802  
G01 X0.6545  Y0.9800  
G01 X0.6539  Y0.9797  
G01 X0.6532  Y0.9796  
G01 X0.6526  Y0.9795  
G01 X0.6519  Y0.9795  
G01 X0.6512  Y0.9794  
G01 X0.6505  Y0.9795  
G01 X0.6499  Y0.9795  
G01 X0.6492  Y0.9796  
G01 X0.6485  Y0.9797  
G01 X0.6479  Y0.9800  
G01 X0.6473  Y0.9802  
G01 X0.6471  Y0.9802  
G01 X0.3340  Y0.9802  
G01 X0.3274  Y0.9775  
G01 X0.2487  Y0.8988  
G01 X0.2468  Y0.8969  
G01 X0.2445  Y0.8955  
G01 X0.2418  Y0.8948  
G01 X0.2392  Y0.8948  
G01 X0.2365  Y0.8955  
G01 X0.2342  Y0.8969  
G01 X0.2323  Y0.8988  
G01 X0.2309  Y0.9011  
G01 X0.2302  Y0.9037  
G01 X0.2302  Y0.9421  
G01 X0.2309  Y0.9447  
G01 X0.2323  Y0.9470  
G01 X0.2342  Y0.9490  
G01 X0.2365  Y0.9503  
G01 X0.2392  Y0.9510  
G01 X0.2473  Y0.9510  
G01 X0.2538  Y0.9537  
G01 X0.3033  Y1.0032  
G01 X0.3052  Y1.0051  
G01 X0.3075  Y1.0064  
G01 X0.3101  Y1.0071  
G01 X0.3206  Y1.0071  
G01 X0.3210  Y1.0074  
G01 X0.3224  Y1.0077  
G01 X0.3236  Y1.0081  
G01 X0.3250  Y1.0081  
G01 X0.3263  Y1.0081  
G01 X0.3268  Y1.0080  
G01 X0.3290  Y1.0074  
G01 X0.3294  Y1.0071  
G01 X0.3706  Y1.0071  
G01 X0.3710  Y1.0074  
G01 X0.3724  Y1.0077  
G01 X0.3736  Y1.0081  
G01 X0.3750  Y1.0081  
G01 X0.3763  Y1.0081  
G01 X0.3768  Y1.0080  
G01 X0.3790  Y1.0074  
G01 X0.3794  Y1.0071  
G01 X0.4206  Y1.0071  
G01 X0.4210  Y1.0074  
G01 X0.4224  Y1.0077  
G01 X0.4236  Y1.0081  
G01 X0.4250  Y1.0081  
G01 X0.4263  Y1.0081  
G01 X0.4268  Y1.0080  
G01 X0.4290  Y1.0074  
G01 X0.4294  Y1.0071  
G01 X0.4698  Y1.0071  
G01 X0.4767  Y1.0140  
G01 X0.4767  Y1.1183  
G01 X0.4692  Y1.1258  
G01 X0.4690  Y1.1258  
G01 X0.4669  Y1.1270  
G01 X0.4667  Y1.1272  
G01 X0.4653  Y1.1285  
G01 X0.4639  Y1.1299  
G01 X0.3476  Y1.2463  
G01 X0.3410  Y1.2490  
G01 X0.0840  Y1.2490  
G01 X0.0774  Y1.2463  
G01 X0.0725  Y1.2413  
G01 X0.0697  Y1.2348  
G01 X0.0697  Y0.4652  
G01 X0.0725  Y0.4587  
G01 X0.1899  Y0.3412  
G01 X0.1965  Y0.3385  
G01 X0.2144  Y0.3385  
G01 X0.2170  Y0.3378  
G01 X0.2193  Y0.3365  
G01 X0.2212  Y0.3345  
G01 X0.2226  Y0.3322  
G01 X0.2233  Y0.3296  
G01 X0.2233  Y0.2317  
G01 X0.2302  Y0.2248  
G01 X0.2315  Y0.2225  
G01 X0.2316  Y0.2224  
G01 X0.2322  Y0.2199  
G01 X0.2322  Y0.1465  
G01 X0.2350  Y0.1399  
G01 X0.2399  Y0.1350  
G01 X0.2465  Y0.1322  
G01 X0.4910  Y0.1322  
G01 X0.4976  Y0.1350  
G01 X0.6430  Y0.2804  
G01 X0.6449  Y0.2823  
G01 X0.6473  Y0.2837  
G01 X0.6499  Y0.2844  
G01 X0.6526  Y0.2844  
G01 X0.6552  Y0.2837  
G01 X0.6575  Y0.2823  
G01 X0.6594  Y0.2804  
G01 X0.6608  Y0.2781  
G01 X0.6615  Y0.2755  
G01 X0.6615  Y0.0467  
G01 X0.6608  Y0.0440  
G01 X0.6594  Y0.0417  
G01 X0.6575  Y0.0398  
G01 X0.6552  Y0.0384  
G01 X0.6526  Y0.0377  
G01 X0.0467  Y0.0377  
G01 X0.0440  Y0.0384  
G01 X0.0417  Y0.0398  
G01 X0.0398  Y0.0417  
G00 Z0.3000  
G00 X0.2430  Y0.1453  
G01 Z-0.0070 F5     
G01 X0.2417  Y0.1484  F7     
G01 X0.2417  Y0.2344  
G01 X0.2341  Y0.2344  
G01 X0.2328  Y0.2357  
G01 X0.2328  Y0.3320  
G01 X0.2341  Y0.3334  
G01 X0.2659  Y0.3334  
G01 X0.2672  Y0.3320  
G01 X0.2672  Y0.2357  
G01 X0.2659  Y0.2344  
G01 X0.2582  Y0.2344  
G01 X0.2582  Y0.1582  
G01 X0.4841  Y0.1582  
G01 X0.6355  Y0.3097  
G01 X0.6355  Y0.9543  
G01 X0.3409  Y0.9543  
G01 X0.2672  Y0.8805  
G01 X0.2672  Y0.7857  
G01 X0.2659  Y0.7844  
G01 X0.2341  Y0.7844  
G01 X0.2328  Y0.7857  
G01 X0.2328  Y0.8820  
G01 X0.2341  Y0.8834  
G01 X0.2467  Y0.8834  
G01 X0.3328  Y0.9695  
G01 X0.3359  Y0.9707  
G01 X0.6454  Y0.9707  
G01 X0.6484  Y0.9695  
G01 X0.6507  Y0.9672  
G01 X0.6520  Y0.9641  
G01 X0.6520  Y0.3046  
G01 X0.6507  Y0.3016  
G01 X0.6484  Y0.2993  
G01 X0.4922  Y0.1430  
G01 X0.4891  Y0.1417  
G01 X0.2484  Y0.1417  
G01 X0.2453  Y0.1430  
G01 X0.2430  Y0.1453  
G00 Z0.3000  
G00 X0.2698  Y0.1717  
G01 Z-0.0070 F5     
G01 X0.2684  Y0.1740  F7     
G01 X0.2677  Y0.1767  
G01 X0.2677  Y0.2150  
G01 X0.2684  Y0.2176  
G01 X0.2698  Y0.2199  
G01 X0.2717  Y0.2219  
G01 X0.2740  Y0.2232  
G01 X0.2760  Y0.2237  
G01 X0.2767  Y0.2239  
G01 X0.2793  Y0.2239  
G01 X0.2820  Y0.2232  
G01 X0.2843  Y0.2219  
G01 X0.2899  Y0.2162  
G01 X0.2973  Y0.2131  
G01 X0.2986  Y0.2128  
G01 X0.3009  Y0.2115  
G01 X0.3262  Y0.1862  
G01 X0.3281  Y0.1843  
G01 X0.3295  Y0.1820  
G01 X0.3302  Y0.1793  
G01 X0.3302  Y0.1767  
G01 X0.3295  Y0.1740  
G01 X0.3281  Y0.1717  
G01 X0.3262  Y0.1698  
G01 X0.3239  Y0.1684  
G01 X0.3213  Y0.1677  
G01 X0.2767  Y0.1677  
G01 X0.2740  Y0.1684  
G01 X0.2717  Y0.1698  
G01 X0.2698  Y0.1717  
G00 Z0.3000  
G00 X0.2828  Y0.2357  
G01 Z-0.0070 F5     
G01 X0.2828  Y0.3320  F7     
G01 X0.2841  Y0.3334  
G01 X0.3159  Y0.3334  
G01 X0.3172  Y0.3320  
G01 X0.3172  Y0.2357  
G01 X0.3159  Y0.2344  
G01 X0.3148  Y0.2344  
G01 X0.3597  Y0.1895  
G01 X0.4778  Y0.1895  
G01 X0.6042  Y0.3159  
G01 X0.6042  Y0.9230  
G01 X0.3597  Y0.9230  
G01 X0.3172  Y0.8805  
G01 X0.3172  Y0.7857  
G01 X0.3159  Y0.7844  
G01 X0.2841  Y0.7844  
G01 X0.2828  Y0.7857  
G01 X0.2828  Y0.8820  
G01 X0.2841  Y0.8834  
G01 X0.2967  Y0.8834  
G01 X0.3516  Y0.9382  
G01 X0.3546  Y0.9395  
G01 X0.6141  Y0.9395  
G01 X0.6172  Y0.9382  
G01 X0.6195  Y0.9359  
G01 X0.6207  Y0.9329  
G01 X0.6207  Y0.3109  
G01 X0.6195  Y0.3078  
G01 X0.6172  Y0.3055  
G01 X0.4859  Y0.1743  
G01 X0.4829  Y0.1730  
G01 X0.3546  Y0.1730  
G01 X0.3516  Y0.1743  
G01 X0.3493  Y0.1766  
G01 X0.3028  Y0.2230  
G01 X0.2984  Y0.2230  
G01 X0.2953  Y0.2243  
G01 X0.2930  Y0.2266  
G01 X0.2918  Y0.2296  
G01 X0.2918  Y0.2344  
G01 X0.2841  Y0.2344  
G01 X0.2828  Y0.2357  
G00 Z0.3000  
G00 X0.3328  Y0.2357  
G01 Z-0.0070 F5     
G01 X0.3328  Y0.3320  F7     
G01 X0.3341  Y0.3334  
G01 X0.3417  Y0.3334  
G01 X0.3417  Y0.3391  
G01 X0.3430  Y0.3422  
G01 X0.3453  Y0.3445  
G01 X0.3484  Y0.3457  
G01 X0.3528  Y0.3457  
G01 X0.3993  Y0.3922  
G01 X0.4016  Y0.3945  
G01 X0.4046  Y0.3957  
G01 X0.4403  Y0.3957  
G01 X0.5105  Y0.4659  
G01 X0.5105  Y0.6917  
G01 X0.4296  Y0.6917  
G01 X0.4266  Y0.6930  
G01 X0.3391  Y0.7805  
G01 X0.3368  Y0.7828  
G01 X0.3361  Y0.7844  
G01 X0.3341  Y0.7844  
G01 X0.3328  Y0.7857  
G01 X0.3328  Y0.8820  
G01 X0.3341  Y0.8834  
G01 X0.3659  Y0.8834  
G01 X0.3672  Y0.8820  
G01 X0.3672  Y0.7857  
G01 X0.3659  Y0.7844  
G01 X0.3586  Y0.7844  
G01 X0.4347  Y0.7082  
G01 X0.5204  Y0.7082  
G01 X0.5234  Y0.7070  
G01 X0.5257  Y0.7047  
G01 X0.5270  Y0.7016  
G01 X0.5270  Y0.4609  
G01 X0.5257  Y0.4578  
G01 X0.5234  Y0.4555  
G01 X0.4484  Y0.3805  
G01 X0.4454  Y0.3792  
G01 X0.4097  Y0.3792  
G01 X0.3638  Y0.3334  
G01 X0.3659  Y0.3334  
G01 X0.3672  Y0.3320  
G01 X0.3672  Y0.2357  
G01 X0.3659  Y0.2344  
G01 X0.3341  Y0.2344  
G01 X0.3328  Y0.2357  
G00 Z0.3000  
G00 X0.3562  Y0.2228  
G01 Z-0.0070 F5     
G01 X0.3585  Y0.2242  F7     
G01 X0.3611  Y0.2249  
G01 X0.3706  Y0.2249  
G01 X0.3710  Y0.2251  
G01 X0.3724  Y0.2255  
G01 X0.3736  Y0.2258  
G01 X0.3750  Y0.2258  
G01 X0.3763  Y0.2258  
G01 X0.3768  Y0.2257  
G01 X0.3790  Y0.2251  
G01 X0.3794  Y0.2249  
G01 X0.4206  Y0.2249  
G01 X0.4210  Y0.2251  
G01 X0.4224  Y0.2255  
G01 X0.4236  Y0.2258  
G01 X0.4250  Y0.2258  
G01 X0.4263  Y0.2258  
G01 X0.4268  Y0.2257  
G01 X0.4290  Y0.2251  
G01 X0.4294  Y0.2249  
G01 X0.4698  Y0.2249  
G01 X0.4767  Y0.2317  
G01 X0.4767  Y0.2862  
G01 X0.4774  Y0.2888  
G01 X0.4788  Y0.2912  
G01 X0.5763  Y0.3887  
G01 X0.5782  Y0.3906  
G01 X0.5805  Y0.3920  
G01 X0.5832  Y0.3927  
G01 X0.5858  Y0.3927  
G01 X0.5885  Y0.3920  
G01 X0.5908  Y0.3906  
G01 X0.5927  Y0.3887  
G01 X0.5941  Y0.3864  
G01 X0.5947  Y0.3838  
G01 X0.5947  Y0.3227  
G01 X0.5941  Y0.3201  
G01 X0.5927  Y0.3178  
G01 X0.5908  Y0.3159  
G01 X0.4779  Y0.2030  
G01 X0.4759  Y0.2010  
G01 X0.4736  Y0.1997  
G01 X0.4710  Y0.1990  
G01 X0.3665  Y0.1990  
G01 X0.3658  Y0.1992  
G01 X0.3639  Y0.1997  
G01 X0.3616  Y0.2010  
G01 X0.3543  Y0.2083  
G01 X0.3529  Y0.2107  
G01 X0.3522  Y0.2133  
G01 X0.3522  Y0.2160  
G01 X0.3524  Y0.2167  
G01 X0.3529  Y0.2186  
G01 X0.3543  Y0.2209  
G01 X0.3562  Y0.2228  
G00 Z0.3000  
G00 X0.3828  Y0.2357  
G01 Z-0.0070 F5     
G01 X0.3828  Y0.3320  F7     
G01 X0.3841  Y0.3334  
G01 X0.3917  Y0.3334  
G01 X0.3917  Y0.3391  
G01 X0.3930  Y0.3422  
G01 X0.3953  Y0.3445  
G01 X0.3984  Y0.3457  
G01 X0.4091  Y0.3457  
G01 X0.4243  Y0.3609  
G01 X0.4266  Y0.3632  
G01 X0.4296  Y0.3645  
G01 X0.4466  Y0.3645  
G01 X0.4743  Y0.3922  
G01 X0.4766  Y0.3945  
G01 X0.4796  Y0.3957  
G01 X0.4903  Y0.3957  
G01 X0.5417  Y0.4472  
G01 X0.5417  Y0.7230  
G01 X0.4484  Y0.7230  
G01 X0.4453  Y0.7243  
G01 X0.3891  Y0.7805  
G01 X0.3868  Y0.7828  
G01 X0.3861  Y0.7844  
G01 X0.3841  Y0.7844  
G01 X0.3828  Y0.7857  
G01 X0.3828  Y0.8820  
G01 X0.3841  Y0.8834  
G01 X0.4159  Y0.8834  
G01 X0.4172  Y0.8820  
G01 X0.4172  Y0.7857  
G01 X0.4159  Y0.7844  
G01 X0.4086  Y0.7844  
G01 X0.4534  Y0.7395  
G01 X0.5516  Y0.7395  
G01 X0.5547  Y0.7382  
G01 X0.5570  Y0.7359  
G01 X0.5582  Y0.7329  
G01 X0.5582  Y0.4421  
G01 X0.5570  Y0.4391  
G01 X0.5547  Y0.4368  
G01 X0.4984  Y0.3805  
G01 X0.4954  Y0.3792  
G01 X0.4847  Y0.3792  
G01 X0.4547  Y0.3493  
G01 X0.4516  Y0.3480  
G01 X0.4347  Y0.3480  
G01 X0.4172  Y0.3305  
G01 X0.4172  Y0.2357  
G01 X0.4159  Y0.2344  
G01 X0.3841  Y0.2344  
G01 X0.3828  Y0.2357  
G00 Z0.3000  
G00 X0.4328  Y0.2357  
G01 Z-0.0070 F5     
G01 X0.4328  Y0.3320  F7     
G01 X0.4341  Y0.3334  
G01 X0.4659  Y0.3334  
G01 X0.4672  Y0.3320  
G01 X0.4672  Y0.3164  
G01 X0.5730  Y0.4222  
G01 X0.5730  Y0.8230  
G01 X0.4672  Y0.8230  
G01 X0.4672  Y0.7857  
G01 X0.4659  Y0.7844  
G01 X0.4341  Y0.7844  
G01 X0.4328  Y0.7857  
G01 X0.4328  Y0.8820  
G01 X0.4341  Y0.8834  
G01 X0.4659  Y0.8834  
G01 X0.4672  Y0.8820  
G01 X0.4672  Y0.8395  
G01 X0.5829  Y0.8395  
G01 X0.5859  Y0.8382  
G01 X0.5882  Y0.8359  
G01 X0.5895  Y0.8329  
G01 X0.5895  Y0.4171  
G01 X0.5882  Y0.4141  
G01 X0.5859  Y0.4118  
G01 X0.4672  Y0.2930  
G01 X0.4672  Y0.2357  
G01 X0.4659  Y0.2344  
G01 X0.4341  Y0.2344  
G01 X0.4328  Y0.2357  
G00 Z0.3000  
G00 X0.4391  Y0.4105  
G01 Z-0.0070 F5     
G01 X0.3909  Y0.4105  F7     
G01 X0.3320  Y0.3516  
G01 X0.3297  Y0.3493  
G01 X0.3266  Y0.3480  
G01 X0.1984  Y0.3480  
G01 X0.1953  Y0.3493  
G01 X0.0828  Y0.4618  
G01 X0.0805  Y0.4641  
G01 X0.0793  Y0.4671  
G01 X0.0793  Y1.2329  
G01 X0.0805  Y1.2359  
G01 X0.0828  Y1.2382  
G01 X0.0859  Y1.2395  
G01 X0.3391  Y1.2395  
G01 X0.3422  Y1.2382  
G01 X0.4609  Y1.1195  
G01 X0.4632  Y1.1172  
G01 X0.4639  Y1.1156  
G01 X0.4659  Y1.1156  
G01 X0.4672  Y1.1143  
G01 X0.4672  Y1.0180  
G01 X0.4659  Y1.0166  
G01 X0.4341  Y1.0166  
G01 X0.4328  Y1.0180  
G01 X0.4328  Y1.1143  
G01 X0.4341  Y1.1156  
G01 X0.4414  Y1.1156  
G01 X0.3341  Y1.2230  
G01 X0.0957  Y1.2230  
G01 X0.0957  Y0.4722  
G01 X0.2034  Y0.3645  
G01 X0.3216  Y0.3645  
G01 X0.3828  Y0.4257  
G01 X0.3859  Y0.4270  
G01 X0.4341  Y0.4270  
G01 X0.4417  Y0.4347  
G01 X0.4417  Y0.4666  
G01 X0.4341  Y0.4666  
G01 X0.4328  Y0.4680  
G01 X0.4328  Y0.5643  
G01 X0.4341  Y0.5656  
G01 X0.4659  Y0.5656  
G01 X0.4672  Y0.5643  
G01 X0.4672  Y0.4680  
G01 X0.4659  Y0.4666  
G01 X0.4582  Y0.4666  
G01 X0.4582  Y0.4296  
G01 X0.4570  Y0.4266  
G01 X0.4445  Y0.4141  
G01 X0.4422  Y0.4118  
G01 X0.4391  Y0.4105  
G00 Z0.3000  
G00 X0.4159  Y0.4666  
G01 Z-0.0070 F5     
G01 X0.4082  Y0.4666  F7     
G01 X0.4082  Y0.4609  
G01 X0.4070  Y0.4578  
G01 X0.4047  Y0.4555  
G01 X0.4016  Y0.4542  
G01 X0.3972  Y0.4542  
G01 X0.3257  Y0.3828  
G01 X0.3234  Y0.3805  
G01 X0.3204  Y0.3792  
G01 X0.2046  Y0.3792  
G01 X0.2016  Y0.3805  
G01 X0.1141  Y0.4680  
G01 X0.1118  Y0.4703  
G01 X0.1105  Y0.4734  
G01 X0.1105  Y1.2016  
G01 X0.1118  Y1.2047  
G01 X0.1141  Y1.2070  
G01 X0.1171  Y1.2082  
G01 X0.3204  Y1.2082  
G01 X0.3234  Y1.2070  
G01 X0.4109  Y1.1195  
G01 X0.4132  Y1.1172  
G01 X0.4139  Y1.1156  
G01 X0.4159  Y1.1156  
G01 X0.4172  Y1.1143  
G01 X0.4172  Y1.0180  
G01 X0.4159  Y1.0166  
G01 X0.3841  Y1.0166  
G01 X0.3828  Y1.0180  
G01 X0.3828  Y1.1143  
G01 X0.3841  Y1.1156  
G01 X0.3914  Y1.1156  
G01 X0.3153  Y1.1918  
G01 X0.1270  Y1.1918  
G01 X0.1270  Y0.4784  
G01 X0.2097  Y0.3957  
G01 X0.3153  Y0.3957  
G01 X0.3862  Y0.4666  
G01 X0.3841  Y0.4666  
G01 X0.3828  Y0.4680  
G01 X0.3828  Y0.5643  
G01 X0.3841  Y0.5656  
G01 X0.4159  Y0.5656  
G01 X0.4172  Y0.5643  
G01 X0.4172  Y0.4680  
G01 X0.4159  Y0.4666  
G00 Z0.3000  
G00 X0.3672  Y0.4680  
G01 Z-0.0070 F5     
G01 X0.3659  Y0.4666  F7     
G01 X0.3582  Y0.4666  
G01 X0.3582  Y0.4609  
G01 X0.3570  Y0.4578  
G01 X0.3547  Y0.4555  
G01 X0.3516  Y0.4542  
G01 X0.3472  Y0.4542  
G01 X0.3070  Y0.4141  
G01 X0.3047  Y0.4118  
G01 X0.3016  Y0.4105  
G01 X0.2546  Y0.4105  
G01 X0.2516  Y0.4118  
G01 X0.1453  Y0.5180  
G01 X0.1430  Y0.5203  
G01 X0.1417  Y0.5234  
G01 X0.1417  Y1.1704  
G01 X0.1430  Y1.1734  
G01 X0.1453  Y1.1757  
G01 X0.1484  Y1.1770  
G01 X0.3016  Y1.1770  
G01 X0.3047  Y1.1757  
G01 X0.3609  Y1.1195  
G01 X0.3632  Y1.1172  
G01 X0.3639  Y1.1156  
G01 X0.3659  Y1.1156  
G01 X0.3672  Y1.1143  
G01 X0.3672  Y1.0180  
G01 X0.3659  Y1.0166  
G01 X0.3341  Y1.0166  
G01 X0.3328  Y1.0180  
G01 X0.3328  Y1.1143  
G01 X0.3341  Y1.1156  
G01 X0.3414  Y1.1156  
G01 X0.2966  Y1.1605  
G01 X0.1582  Y1.1605  
G01 X0.1582  Y0.5284  
G01 X0.2597  Y0.4270  
G01 X0.2966  Y0.4270  
G01 X0.3362  Y0.4666  
G01 X0.3341  Y0.4666  
G01 X0.3328  Y0.4680  
G01 X0.3328  Y0.5643  
G01 X0.3341  Y0.5656  
G01 X0.3659  Y0.5656  
G01 X0.3672  Y0.5643  
G01 X0.3672  Y0.4680  
G00 Z0.3000  
G00 X0.3172  Y0.4680  
G01 Z-0.0070 F5     
G01 X0.3159  Y0.4666  F7     
G01 X0.2841  Y0.4666  
G01 X0.2828  Y0.4680  
G01 X0.2828  Y0.5643  
G01 X0.2841  Y0.5656  
G01 X0.2918  Y0.5656  
G01 X0.2918  Y0.7230  
G01 X0.2546  Y0.7230  
G01 X0.2516  Y0.7243  
G01 X0.2055  Y0.7703  
G01 X0.2042  Y0.7734  
G01 X0.2042  Y0.9704  
G01 X0.2055  Y0.9734  
G01 X0.2078  Y0.9757  
G01 X0.2109  Y0.9770  
G01 X0.2403  Y0.9770  
G01 X0.2828  Y1.0195  
G01 X0.2828  Y1.1143  
G01 X0.2841  Y1.1156  
G01 X0.3159  Y1.1156  
G01 X0.3172  Y1.1143  
G01 X0.3172  Y1.0180  
G01 X0.3159  Y1.0166  
G01 X0.3033  Y1.0166  
G01 X0.2484  Y0.9618  
G01 X0.2454  Y0.9605  
G01 X0.2207  Y0.9605  
G01 X0.2207  Y0.7784  
G01 X0.2597  Y0.7395  
G01 X0.3016  Y0.7395  
G01 X0.3047  Y0.7382  
G01 X0.3070  Y0.7359  
G01 X0.3082  Y0.7329  
G01 X0.3082  Y0.5656  
G01 X0.3159  Y0.5656  
G01 X0.3172  Y0.5643  
G01 X0.3172  Y0.4680  
G00 Z0.3000  
G00 X0.2948  Y0.4551  
G01 Z-0.0070 F5     
G01 X0.2959  Y0.4541  F7     
G01 X0.2968  Y0.4532  
G01 X0.2975  Y0.4519  
G01 X0.2981  Y0.4509  
G01 X0.2985  Y0.4494  
G01 X0.2988  Y0.4482  
G01 X0.2988  Y0.4469  
G01 X0.2988  Y0.4455  
G01 X0.2985  Y0.4442  
G01 X0.2981  Y0.4429  
G01 X0.2974  Y0.4417  
G01 X0.2968  Y0.4406  
G01 X0.2957  Y0.4396  
G01 X0.2948  Y0.4387  
G01 X0.2947  Y0.4385  
G01 X0.2934  Y0.4378  
G01 X0.2924  Y0.4372  
G01 X0.2909  Y0.4368  
G01 X0.2898  Y0.4365  
G01 X0.2884  Y0.4365  
G01 X0.2679  Y0.4365  
G01 X0.2665  Y0.4365  
G01 X0.2653  Y0.4368  
G01 X0.2639  Y0.4372  
G01 X0.2629  Y0.4378  
G01 X0.2616  Y0.4385  
G01 X0.2614  Y0.4387  
G01 X0.2605  Y0.4396  
G01 X0.2595  Y0.4406  
G01 X0.2589  Y0.4417  
G01 X0.2582  Y0.4429  
G01 X0.2578  Y0.4443  
G01 X0.2575  Y0.4455  
G01 X0.2575  Y0.4469  
G01 X0.2574  Y0.4482  
G01 X0.2578  Y0.4494  
G01 X0.2581  Y0.4509  
G01 X0.2587  Y0.4519  
G01 X0.2595  Y0.4532  
G01 X0.2604  Y0.4541  
G01 X0.2614  Y0.4551  
G01 X0.2625  Y0.4557  
G01 X0.2637  Y0.4564  
G01 X0.2651  Y0.4568  
G01 X0.2663  Y0.4571  
G01 X0.2677  Y0.4571  
G01 X0.2690  Y0.4571  
G01 X0.2706  Y0.4571  
G01 X0.2710  Y0.4574  
G01 X0.2724  Y0.4577  
G01 X0.2736  Y0.4581  
G01 X0.2750  Y0.4581  
G01 X0.2763  Y0.4581  
G01 X0.2768  Y0.4580  
G01 X0.2790  Y0.4574  
G01 X0.2794  Y0.4571  
G01 X0.2872  Y0.4571  
G01 X0.2886  Y0.4571  
G01 X0.2899  Y0.4571  
G01 X0.2912  Y0.4568  
G01 X0.2925  Y0.4564  
G01 X0.2938  Y0.4557  
G01 X0.2948  Y0.4551  
G00 Z0.3000  
G00 X0.2672  Y0.4680  
G01 Z-0.0070 F5     
G01 X0.2659  Y0.4666  F7     
G01 X0.2341  Y0.4666  
G01 X0.2328  Y0.4680  
G01 X0.2328  Y0.5643  
G01 X0.2341  Y0.5656  
G01 X0.2417  Y0.5656  
G01 X0.2417  Y0.6966  
G01 X0.1766  Y0.7618  
G01 X0.1743  Y0.7641  
G01 X0.1730  Y0.7671  
G01 X0.1730  Y1.0641  
G01 X0.1743  Y1.0672  
G01 X0.1766  Y1.0695  
G01 X0.1796  Y1.0707  
G01 X0.2328  Y1.0707  
G01 X0.2328  Y1.1143  
G01 X0.2341  Y1.1156  
G01 X0.2659  Y1.1156  
G01 X0.2672  Y1.1143  
G01 X0.2672  Y1.0180  
G01 X0.2659  Y1.0166  
G01 X0.2341  Y1.0166  
G01 X0.2328  Y1.0180  
G01 X0.2328  Y1.0542  
G01 X0.1895  Y1.0542  
G01 X0.1895  Y0.7722  
G01 X0.2570  Y0.7047  
G01 X0.2582  Y0.7016  
G01 X0.2582  Y0.5656  
G01 X0.2659  Y0.5656  
G01 X0.2672  Y0.5643  
G01 X0.2672  Y0.4680  
G00 Z0.3000  
G00 X0.2193  Y0.4934  
G01 Z-0.0070 F5     
G01 X0.2170  Y0.4920  F7     
G01 X0.2144  Y0.4913  
G01 X0.2117  Y0.4913  
G01 X0.2091  Y0.4920  
G01 X0.2067  Y0.4934  
G01 X0.2062  Y0.4939  
G01 X0.2048  Y0.4953  
G01 X0.1704  Y0.5297  
G01 X0.1698  Y0.5303  
G01 X0.1684  Y0.5326  
G01 X0.1678  Y0.5352  
G01 X0.1677  Y0.7338  
G01 X0.1684  Y0.7364  
G01 X0.1698  Y0.7387  
G01 X0.1717  Y0.7406  
G01 X0.1740  Y0.7420  
G01 X0.1767  Y0.7427  
G01 X0.1793  Y0.7427  
G01 X0.1820  Y0.7420  
G01 X0.1843  Y0.7406  
G01 X0.1850  Y0.7399  
G01 X0.1862  Y0.7387  
G01 X0.2302  Y0.6947  
G01 X0.2316  Y0.6924  
G01 X0.2322  Y0.6898  
G01 X0.2322  Y0.5801  
G01 X0.2316  Y0.5775  
G01 X0.2302  Y0.5752  
G01 X0.2233  Y0.5683  
G01 X0.2233  Y0.5002  
G01 X0.2226  Y0.4976  
G01 X0.2212  Y0.4953  
G01 X0.2193  Y0.4934  
G00 Z0.3000  
G00 X0.1530  Y0.4969  
G01 Z-0.0070 F5     
G01 X0.2281  Y0.4218  F7     
G01 X0.2295  Y0.4195  
G01 X0.2302  Y0.4168  
G01 X0.2302  Y0.4142  
G01 X0.2295  Y0.4115  
G01 X0.2281  Y0.4092  
G01 X0.2262  Y0.4073  
G01 X0.2239  Y0.4059  
G01 X0.2213  Y0.4052  
G01 X0.2165  Y0.4052  
G01 X0.2139  Y0.4059  
G01 X0.2116  Y0.4073  
G01 X0.1405  Y0.4784  
G01 X0.1385  Y0.4803  
G01 X0.1372  Y0.4826  
G01 X0.1365  Y0.4852  
G01 X0.1365  Y0.4873  
G01 X0.1365  Y0.4900  
G01 X0.1372  Y0.4926  
G01 X0.1385  Y0.4949  
G01 X0.1405  Y0.4969  
G01 X0.1428  Y0.4982  
G01 X0.1454  Y0.4989  
G01 X0.1481  Y0.4989  
G01 X0.1507  Y0.4982  
G01 X0.1530  Y0.4969  
G00 Z0.3000  
G00 X0.3198  Y0.5791  
G01 Z-0.0070 F5     
G01 X0.3184  Y0.5814  F7     
G01 X0.3177  Y0.5840  
G01 X0.3177  Y0.7348  
G01 X0.3150  Y0.7413  
G01 X0.3101  Y0.7463  
G01 X0.3035  Y0.7490  
G01 X0.2665  Y0.7490  
G01 X0.2658  Y0.7492  
G01 X0.2639  Y0.7497  
G01 X0.2616  Y0.7510  
G01 X0.2543  Y0.7583  
G01 X0.2529  Y0.7607  
G01 X0.2522  Y0.7633  
G01 X0.2522  Y0.7660  
G01 X0.2524  Y0.7667  
G01 X0.2529  Y0.7686  
G01 X0.2543  Y0.7709  
G01 X0.2562  Y0.7728  
G01 X0.2585  Y0.7742  
G01 X0.2611  Y0.7749  
G01 X0.2706  Y0.7749  
G01 X0.2710  Y0.7751  
G01 X0.2724  Y0.7755  
G01 X0.2736  Y0.7758  
G01 X0.2750  Y0.7758  
G01 X0.2763  Y0.7758  
G01 X0.2768  Y0.7757  
G01 X0.2790  Y0.7751  
G01 X0.2794  Y0.7749  
G01 X0.3206  Y0.7749  
G01 X0.3210  Y0.7751  
G01 X0.3224  Y0.7755  
G01 X0.3236  Y0.7758  
G01 X0.3250  Y0.7758  
G01 X0.3263  Y0.7758  
G01 X0.3268  Y0.7757  
G01 X0.3290  Y0.7751  
G01 X0.3302  Y0.7744  
G01 X0.3310  Y0.7742  
G01 X0.3333  Y0.7728  
G01 X0.3342  Y0.7720  
G01 X0.4212  Y0.6850  
G01 X0.4277  Y0.6822  
G01 X0.4921  Y0.6822  
G01 X0.4947  Y0.6816  
G01 X0.4970  Y0.6802  
G01 X0.4990  Y0.6783  
G01 X0.5003  Y0.6760  
G01 X0.5010  Y0.6733  
G01 X0.5010  Y0.4727  
G01 X0.5008  Y0.4721  
G01 X0.5003  Y0.4701  
G01 X0.4990  Y0.4678  
G01 X0.4933  Y0.4621  
G01 X0.4909  Y0.4608  
G01 X0.4883  Y0.4601  
G01 X0.4856  Y0.4601  
G01 X0.4849  Y0.4603  
G01 X0.4830  Y0.4608  
G01 X0.4807  Y0.4621  
G01 X0.4788  Y0.4640  
G01 X0.4774  Y0.4664  
G01 X0.4767  Y0.4690  
G01 X0.4767  Y0.5683  
G01 X0.4698  Y0.5751  
G01 X0.4294  Y0.5751  
G01 X0.4290  Y0.5749  
G01 X0.4268  Y0.5743  
G01 X0.4263  Y0.5742  
G01 X0.4250  Y0.5742  
G01 X0.4237  Y0.5742  
G01 X0.4224  Y0.5746  
G01 X0.4210  Y0.5749  
G01 X0.4206  Y0.5751  
G01 X0.3794  Y0.5751  
G01 X0.3790  Y0.5749  
G01 X0.3768  Y0.5743  
G01 X0.3763  Y0.5742  
G01 X0.3750  Y0.5742  
G01 X0.3737  Y0.5742  
G01 X0.3724  Y0.5746  
G01 X0.3710  Y0.5749  
G01 X0.3706  Y0.5751  
G01 X0.3267  Y0.5751  
G01 X0.3240  Y0.5758  
G01 X0.3217  Y0.5772  
G01 X0.3198  Y0.5791  
G00 Z0.3000  
G00 X0.4480  Y0.7583  
G01 Z-0.0070 F5     
G01 X0.4467  Y0.7607  F7     
G01 X0.4460  Y0.7633  
G01 X0.4460  Y0.7660  
G01 X0.4462  Y0.7667  
G01 X0.4467  Y0.7686  
G01 X0.4480  Y0.7709  
G01 X0.4499  Y0.7728  
G01 X0.4523  Y0.7742  
G01 X0.4549  Y0.7749  
G01 X0.4698  Y0.7749  
G01 X0.4767  Y0.7817  
G01 X0.4767  Y0.8046  
G01 X0.4774  Y0.8072  
G01 X0.4788  Y0.8095  
G01 X0.4807  Y0.8115  
G01 X0.4830  Y0.8128  
G01 X0.4856  Y0.8135  
G01 X0.5546  Y0.8135  
G01 X0.5572  Y0.8128  
G01 X0.5595  Y0.8115  
G01 X0.5615  Y0.8095  
G01 X0.5628  Y0.8072  
G01 X0.5635  Y0.8046  
G01 X0.5635  Y0.7579  
G01 X0.5628  Y0.7553  
G01 X0.5615  Y0.7530  
G01 X0.5595  Y0.7510  
G01 X0.5572  Y0.7497  
G01 X0.5546  Y0.7490  
G01 X0.4602  Y0.7490  
G01 X0.4596  Y0.7492  
G01 X0.4576  Y0.7497  
G01 X0.4553  Y0.7510  
G01 X0.4480  Y0.7583  
G00 Z0.3000  
G00 X0.4788  Y0.8530  
G01 Z-0.0070 F5     
G01 X0.4774  Y0.8553  F7     
G01 X0.4767  Y0.8579  
G01 X0.4767  Y0.8860  
G01 X0.4698  Y0.8929  
G01 X0.4294  Y0.8929  
G01 X0.4290  Y0.8926  
G01 X0.4268  Y0.8920  
G01 X0.4263  Y0.8919  
G01 X0.4250  Y0.8919  
G01 X0.4237  Y0.8919  
G01 X0.4224  Y0.8923  
G01 X0.4210  Y0.8926  
G01 X0.4206  Y0.8929  
G01 X0.3794  Y0.8929  
G01 X0.3790  Y0.8926  
G01 X0.3768  Y0.8920  
G01 X0.3763  Y0.8919  
G01 X0.3750  Y0.8919  
G01 X0.3737  Y0.8919  
G01 X0.3724  Y0.8923  
G01 X0.3710  Y0.8926  
G01 X0.3706  Y0.8929  
G01 X0.3690  Y0.8929  
G01 X0.3677  Y0.8929  
G01 X0.3664  Y0.8929  
G01 X0.3650  Y0.8932  
G01 X0.3637  Y0.8936  
G01 X0.3625  Y0.8943  
G01 X0.3614  Y0.8949  
G01 X0.3604  Y0.8959  
G01 X0.3595  Y0.8968  
G01 X0.3587  Y0.8981  
G01 X0.3581  Y0.8991  
G01 X0.3578  Y0.9006  
G01 X0.3575  Y0.9018  
G01 X0.3575  Y0.9031  
G01 X0.3575  Y0.9045  
G01 X0.3578  Y0.9058  
G01 X0.3581  Y0.9071  
G01 X0.3589  Y0.9083  
G01 X0.3595  Y0.9094  
G01 X0.3605  Y0.9104  
G01 X0.3614  Y0.9113  
G01 X0.3616  Y0.9115  
G01 X0.3629  Y0.9122  
G01 X0.3639  Y0.9128  
G01 X0.3653  Y0.9132  
G01 X0.3665  Y0.9135  
G01 X0.3678  Y0.9135  
G01 X0.5858  Y0.9135  
G01 X0.5885  Y0.9128  
G01 X0.5908  Y0.9115  
G01 X0.5927  Y0.9095  
G01 X0.5941  Y0.9072  
G01 X0.5947  Y0.9046  
G01 X0.5947  Y0.8579  
G01 X0.5941  Y0.8553  
G01 X0.5927  Y0.8530  
G01 X0.5908  Y0.8510  
G01 X0.5885  Y0.8497  
G01 X0.5858  Y0.8490  
G01 X0.5832  Y0.8490  
G01 X0.4883  Y0.8490  
G01 X0.4856  Y0.8490  
G01 X0.4830  Y0.8497  
G01 X0.4807  Y0.8510  
G01 X0.4788  Y0.8530  
G00 Z0.3000  
G00 X0.2405  Y0.9906  
G01 Z-0.0070 F5     
G01 X0.2395  Y0.9896  F7     
G01 X0.2386  Y0.9887  
G01 X0.2384  Y0.9885  
G01 X0.2371  Y0.9878  
G01 X0.2361  Y0.9872  
G01 X0.2347  Y0.9868  
G01 X0.2335  Y0.9865  
G01 X0.2322  Y0.9865  
G01 X0.2079  Y0.9865  
G01 X0.2053  Y0.9872  
G01 X0.2030  Y0.9885  
G01 X0.2010  Y0.9905  
G01 X0.1997  Y0.9928  
G01 X0.1990  Y0.9954  
G01 X0.1990  Y1.0332  
G01 X0.1990  Y1.0358  
G01 X0.1997  Y1.0385  
G01 X0.2010  Y1.0408  
G01 X0.2030  Y1.0427  
G01 X0.2053  Y1.0441  
G01 X0.2079  Y1.0447  
G01 X0.2144  Y1.0447  
G01 X0.2170  Y1.0441  
G01 X0.2193  Y1.0427  
G01 X0.2212  Y1.0408  
G01 X0.2226  Y1.0385  
G01 X0.2233  Y1.0358  
G01 X0.2233  Y1.0140  
G01 X0.2302  Y1.0071  
G01 X0.2310  Y1.0071  
G01 X0.2323  Y1.0071  
G01 X0.2336  Y1.0071  
G01 X0.2350  Y1.0068  
G01 X0.2363  Y1.0064  
G01 X0.2375  Y1.0057  
G01 X0.2386  Y1.0051  
G01 X0.2396  Y1.0041  
G01 X0.2405  Y1.0032  
G01 X0.2413  Y1.0019  
G01 X0.2419  Y1.0009  
G01 X0.2422  Y0.9994  
G01 X0.2425  Y0.9982  
G01 X0.2425  Y0.9969  
G01 X0.2425  Y0.9955  
G01 X0.2422  Y0.9942  
G01 X0.2419  Y0.9929  
G01 X0.2411  Y0.9917  
G01 X0.2405  Y0.9906  
G00 Z0.3000  
G00 X0.2193  Y1.0823  
G01 Z-0.0070 F5     
G01 X0.2170  Y1.0809  F7     
G01 X0.2144  Y1.0802  
G01 X0.1767  Y1.0802  
G01 X0.1740  Y1.0809  
G01 X0.1717  Y1.0823  
G01 X0.1698  Y1.0842  
G01 X0.1684  Y1.0865  
G01 X0.1677  Y1.0892  
G01 X0.1677  Y1.1421  
G01 X0.1684  Y1.1447  
G01 X0.1698  Y1.1470  
G01 X0.1717  Y1.1490  
G01 X0.1740  Y1.1503  
G01 X0.1767  Y1.1510  
G01 X0.2898  Y1.1510  
G01 X0.2904  Y1.1508  
G01 X0.2924  Y1.1503  
G01 X0.2947  Y1.1490  
G01 X0.3020  Y1.1417  
G01 X0.3033  Y1.1393  
G01 X0.3040  Y1.1367  
G01 X0.3040  Y1.1340  
G01 X0.3038  Y1.1333  
G01 X0.3033  Y1.1314  
G01 X0.3020  Y1.1291  
G01 X0.3001  Y1.1272  
G01 X0.2977  Y1.1258  
G01 X0.2951  Y1.1251  
G01 X0.2794  Y1.1251  
G01 X0.2790  Y1.1249  
G01 X0.2768  Y1.1243  
G01 X0.2763  Y1.1242  
G01 X0.2750  Y1.1242  
G01 X0.2737  Y1.1242  
G01 X0.2724  Y1.1246  
G01 X0.2710  Y1.1249  
G01 X0.2706  Y1.1251  
G01 X0.2302  Y1.1251  
G01 X0.2233  Y1.1183  
G01 X0.2233  Y1.0892  
G01 X0.2226  Y1.0865  
G01 X0.2212  Y1.0842  
G01 X0.2193  Y1.0823  
G00 Z0.3000  
G00 X0.0358  Y0.0386  
G01 Z-0.0070 F5     
G01 X0.0338  Y0.0421  F7     
G01 X0.0327  Y0.0460  
G01 X0.0327  Y1.3410  
G01 X0.0338  Y1.3449  
G01 X0.0358  Y1.3484  
G01 X0.0386  Y1.3512  
G01 X0.0421  Y1.3532  
G01 X0.0460  Y1.3543  
G01 X0.6492  Y1.3543  
G01 X0.6532  Y1.3543  
G01 X0.6571  Y1.3532  
G01 X0.6606  Y1.3512  
G01 X0.6634  Y1.3484  
G01 X0.6654  Y1.3449  
G01 X0.6665  Y1.3410  
G01 X0.6665  Y0.9907  
G01 X0.6666  Y0.9897  
G01 X0.6665  Y0.9887  
G01 X0.6665  Y0.9877  
G01 X0.6662  Y0.9867  
G01 X0.6661  Y0.9857  
G01 X0.6657  Y0.9848  
G01 X0.6654  Y0.9838  
G01 X0.6649  Y0.9830  
G01 X0.6645  Y0.9820  
G01 X0.6639  Y0.9812  
G01 X0.6634  Y0.9804  
G01 X0.6627  Y0.9796  
G01 X0.6621  Y0.9788  
G01 X0.6613  Y0.9782  
G01 X0.6606  Y0.9775  
G01 X0.6597  Y0.9770  
G01 X0.6589  Y0.9764  
G01 X0.6580  Y0.9760  
G01 X0.6571  Y0.9755  
G01 X0.6561  Y0.9752  
G01 X0.6552  Y0.9749  
G01 X0.6542  Y0.9747  
G01 X0.6532  Y0.9745  
G01 X0.6522  Y0.9745  
G01 X0.6512  Y0.9743  
G01 X0.6502  Y0.9745  
G01 X0.6495  Y0.9745  
G01 X0.6519  Y0.9731  
G01 X0.6544  Y0.9706  
G01 X0.6561  Y0.9676  
G01 X0.6570  Y0.9642  
G01 X0.6570  Y0.3045  
G01 X0.6561  Y0.3011  
G01 X0.6544  Y0.2981  
G01 X0.6519  Y0.2956  
G01 X0.6435  Y0.2873  
G01 X0.6453  Y0.2883  
G01 X0.6455  Y0.2884  
G01 X0.6492  Y0.2894  
G01 X0.6532  Y0.2894  
G01 X0.6571  Y0.2883  
G01 X0.6606  Y0.2863  
G01 X0.6634  Y0.2835  
G01 X0.6654  Y0.2800  
G01 X0.6655  Y0.2798  
G01 X0.6665  Y0.2761  
G01 X0.6665  Y0.0460  
G01 X0.6654  Y0.0421  
G01 X0.6634  Y0.0386  
G01 X0.6606  Y0.0358  
G01 X0.6571  Y0.0338  
G01 X0.6532  Y0.0327  
G01 X0.0460  Y0.0327  
G01 X0.0421  Y0.0338  
G01 X0.0386  Y0.0358  
G01 X0.0358  Y0.0386  
G00 Z0.3000  
G00 X0.2632  Y0.1632  
G01 Z-0.0070 F5     
G01 X0.2741  Y0.1632  F7     
G01 X0.2721  Y0.1638  
G01 X0.2686  Y0.1658  
G01 X0.2658  Y0.1686  
G01 X0.2638  Y0.1721  
G01 X0.2632  Y0.1741  
G01 X0.2632  Y0.1632  
G00 Z0.3000  
G00 X0.2632  Y0.2175  
G01 Z-0.0070 F5     
G01 X0.2638  Y0.2195  F7     
G01 X0.2646  Y0.2210  
G01 X0.2658  Y0.2230  
G01 X0.2686  Y0.2259  
G01 X0.2702  Y0.2267  
G01 X0.2721  Y0.2279  
G01 X0.2760  Y0.2289  
G01 X0.2800  Y0.2289  
G01 X0.2817  Y0.2285  
G01 X0.2839  Y0.2279  
G01 X0.2853  Y0.2270  
G01 X0.2874  Y0.2259  
G01 X0.2884  Y0.2248  
G01 X0.2877  Y0.2261  
G01 X0.2868  Y0.2294  
G01 X0.2836  Y0.2294  
G01 X0.2809  Y0.2305  
G01 X0.2789  Y0.2325  
G01 X0.2778  Y0.2352  
G01 X0.2778  Y0.3325  
G01 X0.2789  Y0.3352  
G01 X0.2809  Y0.3372  
G01 X0.2836  Y0.3384  
G01 X0.3164  Y0.3384  
G01 X0.3191  Y0.3372  
G01 X0.3211  Y0.3352  
G01 X0.3222  Y0.3325  
G01 X0.3222  Y0.2352  
G01 X0.3219  Y0.2344  
G01 X0.3493  Y0.2069  
G01 X0.3483  Y0.2087  
G01 X0.3478  Y0.2106  
G01 X0.3472  Y0.2126  
G01 X0.3472  Y0.2166  
G01 X0.3483  Y0.2205  
G01 X0.3495  Y0.2226  
G01 X0.3503  Y0.2240  
G01 X0.3531  Y0.2268  
G01 X0.3566  Y0.2288  
G01 X0.3584  Y0.2293  
G01 X0.3586  Y0.2294  
G01 X0.3336  Y0.2294  
G01 X0.3309  Y0.2305  
G01 X0.3289  Y0.2325  
G01 X0.3278  Y0.2352  
G01 X0.3278  Y0.3325  
G01 X0.3289  Y0.3352  
G01 X0.3309  Y0.3372  
G01 X0.3336  Y0.3384  
G01 X0.3367  Y0.3384  
G01 X0.3367  Y0.3392  
G01 X0.3377  Y0.3426  
G01 X0.3394  Y0.3456  
G01 X0.3419  Y0.3481  
G01 X0.3449  Y0.3498  
G01 X0.3483  Y0.3507  
G01 X0.3508  Y0.3507  
G01 X0.3956  Y0.3956  
G01 X0.3981  Y0.3981  
G01 X0.4011  Y0.3998  
G01 X0.4045  Y0.4007  
G01 X0.4383  Y0.4007  
G01 X0.4947  Y0.4571  
G01 X0.4937  Y0.4566  
G01 X0.4928  Y0.4561  
G01 X0.4910  Y0.4556  
G01 X0.4890  Y0.4551  
G01 X0.4850  Y0.4551  
G01 X0.4828  Y0.4556  
G01 X0.4811  Y0.4561  
G01 X0.4805  Y0.4564  
G01 X0.4776  Y0.4581  
G01 X0.4748  Y0.4609  
G01 X0.4732  Y0.4636  
G01 X0.4727  Y0.4644  
G01 X0.4723  Y0.4663  
G01 X0.4720  Y0.4671  
G01 X0.4711  Y0.4648  
G01 X0.4691  Y0.4628  
G01 X0.4664  Y0.4616  
G01 X0.4632  Y0.4616  
G01 X0.4632  Y0.4295  
G01 X0.4623  Y0.4261  
G01 X0.4606  Y0.4231  
G01 X0.4481  Y0.4106  
G01 X0.4456  Y0.4081  
G01 X0.4426  Y0.4064  
G01 X0.4392  Y0.4055  
G01 X0.3930  Y0.4055  
G01 X0.3356  Y0.3481  
G01 X0.3331  Y0.3456  
G01 X0.3301  Y0.3439  
G01 X0.3267  Y0.3430  
G01 X0.2169  Y0.3430  
G01 X0.2189  Y0.3425  
G01 X0.2224  Y0.3405  
G01 X0.2252  Y0.3376  
G01 X0.2273  Y0.3341  
G01 X0.2278  Y0.3321  
G01 X0.2278  Y0.3325  
G01 X0.2289  Y0.3352  
G01 X0.2309  Y0.3372  
G01 X0.2336  Y0.3384  
G01 X0.2664  Y0.3384  
G01 X0.2691  Y0.3372  
G01 X0.2711  Y0.3352  
G01 X0.2722  Y0.3325  
G01 X0.2722  Y0.2352  
G01 X0.2711  Y0.2325  
G01 X0.2691  Y0.2305  
G01 X0.2664  Y0.2294  
G01 X0.2632  Y0.2294  
G01 X0.2632  Y0.2175  
G00 Z0.3000  
G00 X0.2367  Y0.2224  
G01 Z-0.0070 F5     
G01 X0.2367  Y0.2294  F7     
G01 X0.2336  Y0.2294  
G01 X0.2321  Y0.2300  
G01 X0.2342  Y0.2279  
G01 X0.2362  Y0.2244  
G01 X0.2367  Y0.2224  
G00 Z0.3000  
G00 X0.2284  Y0.2337  
G01 Z-0.0070 F5     
G01 X0.2283  Y0.2340  F7     
G01 X0.2283  Y0.2338  
G01 X0.2284  Y0.2337  
G00 Z0.3000  
G00 X0.2987  Y0.2180  
G01 Z-0.0070 F5     
G01 X0.2989  Y0.2179  F7     
G01 X0.3005  Y0.2175  
G01 X0.3020  Y0.2166  
G01 X0.3021  Y0.2166  
G01 X0.3022  Y0.2165  
G01 X0.3008  Y0.2180  
G01 X0.2987  Y0.2180  
G00 Z0.3000  
G00 X0.3331  Y0.1857  
G01 Z-0.0070 F5     
G01 X0.3341  Y0.1839  F7     
G01 X0.3352  Y0.1800  
G01 X0.3352  Y0.1760  
G01 X0.3341  Y0.1721  
G01 X0.3341  Y0.1720  
G01 X0.3321  Y0.1686  
G01 X0.3293  Y0.1658  
G01 X0.3258  Y0.1638  
G01 X0.3238  Y0.1632  
G01 X0.4820  Y0.1632  
G01 X0.6305  Y0.3117  
G01 X0.6305  Y0.9493  
G01 X0.3430  Y0.9493  
G01 X0.2810  Y0.8873  
G01 X0.2836  Y0.8884  
G01 X0.2946  Y0.8884  
G01 X0.3481  Y0.9419  
G01 X0.3511  Y0.9436  
G01 X0.3545  Y0.9445  
G01 X0.6142  Y0.9445  
G01 X0.6176  Y0.9436  
G01 X0.6206  Y0.9419  
G01 X0.6231  Y0.9394  
G01 X0.6248  Y0.9364  
G01 X0.6257  Y0.9330  
G01 X0.6257  Y0.3108  
G01 X0.6248  Y0.3074  
G01 X0.6231  Y0.3044  
G01 X0.6206  Y0.3019  
G01 X0.4894  Y0.1706  
G01 X0.4864  Y0.1689  
G01 X0.4830  Y0.1680  
G01 X0.3545  Y0.1680  
G01 X0.3511  Y0.1689  
G01 X0.3481  Y0.1706  
G01 X0.3456  Y0.1731  
G01 X0.3331  Y0.1857  
G00 Z0.3000  
G00 X0.3602  Y0.1961  
G01 Z-0.0070 F5     
G01 X0.3617  Y0.1945  F7     
G01 X0.3640  Y0.1945  
G01 X0.3620  Y0.1950  
G01 X0.3602  Y0.1961  
G00 Z0.3000  
G00 X0.3676  Y0.2299  
G01 Z-0.0070 F5     
G01 X0.3695  Y0.2299  F7     
G01 X0.3706  Y0.2301  
G01 X0.3730  Y0.2308  
G01 X0.3750  Y0.2308  
G01 X0.3770  Y0.2308  
G01 X0.3790  Y0.2303  
G01 X0.3805  Y0.2299  
G01 X0.3824  Y0.2299  
G01 X0.3809  Y0.2305  
G01 X0.3789  Y0.2325  
G01 X0.3778  Y0.2352  
G01 X0.3778  Y0.3325  
G01 X0.3789  Y0.3352  
G01 X0.3809  Y0.3372  
G01 X0.3836  Y0.3384  
G01 X0.3867  Y0.3384  
G01 X0.3867  Y0.3392  
G01 X0.3877  Y0.3426  
G01 X0.3894  Y0.3456  
G01 X0.3919  Y0.3481  
G01 X0.3949  Y0.3498  
G01 X0.3983  Y0.3507  
G01 X0.4070  Y0.3507  
G01 X0.4206  Y0.3644  
G01 X0.4231  Y0.3669  
G01 X0.4261  Y0.3686  
G01 X0.4295  Y0.3695  
G01 X0.4445  Y0.3695  
G01 X0.4706  Y0.3956  
G01 X0.4731  Y0.3981  
G01 X0.4761  Y0.3998  
G01 X0.4795  Y0.4007  
G01 X0.4883  Y0.4007  
G01 X0.5367  Y0.4492  
G01 X0.5367  Y0.7180  
G01 X0.4483  Y0.7180  
G01 X0.4449  Y0.7189  
G01 X0.4419  Y0.7206  
G01 X0.3856  Y0.7769  
G01 X0.3831  Y0.7794  
G01 X0.3830  Y0.7796  
G01 X0.3809  Y0.7805  
G01 X0.3789  Y0.7825  
G01 X0.3778  Y0.7852  
G01 X0.3778  Y0.8825  
G01 X0.3789  Y0.8852  
G01 X0.3809  Y0.8872  
G01 X0.3824  Y0.8879  
G01 X0.3805  Y0.8879  
G01 X0.3789  Y0.8874  
G01 X0.3770  Y0.8869  
G01 X0.3750  Y0.8869  
G01 X0.3730  Y0.8869  
G01 X0.3706  Y0.8876  
G01 X0.3695  Y0.8879  
G01 X0.3677  Y0.8879  
G01 X0.3691  Y0.8872  
G01 X0.3711  Y0.8852  
G01 X0.3722  Y0.8825  
G01 X0.3722  Y0.7852  
G01 X0.3711  Y0.7825  
G01 X0.3693  Y0.7807  
G01 X0.4367  Y0.7132  
G01 X0.5205  Y0.7132  
G01 X0.5239  Y0.7123  
G01 X0.5269  Y0.7106  
G01 X0.5294  Y0.7081  
G01 X0.5311  Y0.7051  
G01 X0.5320  Y0.7017  
G01 X0.5320  Y0.4608  
G01 X0.5311  Y0.4574  
G01 X0.5294  Y0.4544  
G01 X0.5269  Y0.4519  
G01 X0.4519  Y0.3769  
G01 X0.4489  Y0.3752  
G01 X0.4455  Y0.3743  
G01 X0.4117  Y0.3743  
G01 X0.3716  Y0.3341  
G01 X0.3722  Y0.3325  
G01 X0.3722  Y0.2352  
G01 X0.3711  Y0.2325  
G01 X0.3691  Y0.2305  
G01 X0.3676  Y0.2299  
G00 Z0.3000  
G00 X0.4176  Y0.2299  
G01 Z-0.0070 F5     
G01 X0.4195  Y0.2299  F7     
G01 X0.4206  Y0.2301  
G01 X0.4230  Y0.2308  
G01 X0.4250  Y0.2308  
G01 X0.4270  Y0.2308  
G01 X0.4290  Y0.2303  
G01 X0.4305  Y0.2299  
G01 X0.4324  Y0.2299  
G01 X0.4309  Y0.2305  
G01 X0.4289  Y0.2325  
G01 X0.4278  Y0.2352  
G01 X0.4278  Y0.3325  
G01 X0.4289  Y0.3351  
G01 X0.4222  Y0.3285  
G01 X0.4222  Y0.2352  
G01 X0.4211  Y0.2325  
G01 X0.4191  Y0.2305  
G01 X0.4176  Y0.2299  
G00 Z0.3000  
G00 X0.4676  Y0.2299  
G01 Z-0.0070 F5     
G01 X0.4678  Y0.2299  F7     
G01 X0.4679  Y0.2300  
G01 X0.4676  Y0.2299  
G00 Z0.3000  
G00 X0.4716  Y0.2337  
G01 Z-0.0070 F5     
G01 X0.4717  Y0.2338  F7     
G01 X0.4717  Y0.2340  
G01 X0.4716  Y0.2337  
G00 Z0.3000  
G00 X0.4735  Y0.1945  
G01 Z-0.0070 F5     
G01 X0.4758  Y0.1945  F7     
G01 X0.4773  Y0.1961  
G01 X0.4755  Y0.1950  
G01 X0.4735  Y0.1945  
G00 Z0.3000  
G00 X0.4722  Y0.2887  
G01 Z-0.0070 F5     
G01 X0.4727  Y0.2907  F7     
G01 X0.4738  Y0.2926  
G01 X0.4722  Y0.2910  
G01 X0.4722  Y0.2887  
G00 Z0.3000  
G00 X0.4722  Y0.3284  
G01 Z-0.0070 F5     
G01 X0.5680  Y0.4242  F7     
G01 X0.5680  Y0.7554  
G01 X0.5675  Y0.7534  
G01 X0.5655  Y0.7499  
G01 X0.5626  Y0.7470  
G01 X0.5591  Y0.7450  
G01 X0.5553  Y0.7440  
G01 X0.5536  Y0.7440  
G01 X0.5551  Y0.7436  
G01 X0.5581  Y0.7419  
G01 X0.5606  Y0.7394  
G01 X0.5623  Y0.7364  
G01 X0.5632  Y0.7330  
G01 X0.5632  Y0.4420  
G01 X0.5623  Y0.4386  
G01 X0.5606  Y0.4356  
G01 X0.5581  Y0.4331  
G01 X0.5019  Y0.3769  
G01 X0.4989  Y0.3752  
G01 X0.4955  Y0.3743  
G01 X0.4867  Y0.3743  
G01 X0.4581  Y0.3456  
G01 X0.4551  Y0.3439  
G01 X0.4517  Y0.3430  
G01 X0.4367  Y0.3430  
G01 X0.4310  Y0.3373  
G01 X0.4336  Y0.3384  
G01 X0.4664  Y0.3384  
G01 X0.4691  Y0.3372  
G01 X0.4711  Y0.3352  
G01 X0.4722  Y0.3325  
G01 X0.4722  Y0.3284  
G00 Z0.3000  
G00 X0.5992  Y0.3202  
G01 Z-0.0070 F5     
G01 X0.5987  Y0.3182  F7     
G01 X0.5977  Y0.3164  
G01 X0.5992  Y0.3180  
G01 X0.5992  Y0.3202  
G00 Z0.3000  
G00 X0.5992  Y0.3863  
G01 Z-0.0070 F5     
G01 X0.5992  Y0.8554  F7     
G01 X0.5987  Y0.8534  
G01 X0.5967  Y0.8499  
G01 X0.5939  Y0.8470  
G01 X0.5904  Y0.8450  
G01 X0.5865  Y0.8440  
G01 X0.5849  Y0.8440  
G01 X0.5864  Y0.8436  
G01 X0.5894  Y0.8419  
G01 X0.5919  Y0.8394  
G01 X0.5936  Y0.8364  
G01 X0.5945  Y0.8330  
G01 X0.5945  Y0.4170  
G01 X0.5936  Y0.4136  
G01 X0.5919  Y0.4106  
G01 X0.5894  Y0.4081  
G01 X0.5768  Y0.3956  
G01 X0.5786  Y0.3966  
G01 X0.5788  Y0.3967  
G01 X0.5825  Y0.3977  
G01 X0.5865  Y0.3977  
G01 X0.5904  Y0.3966  
G01 X0.5939  Y0.3946  
G01 X0.5967  Y0.3918  
G01 X0.5987  Y0.3883  
G01 X0.5988  Y0.3881  
G01 X0.5992  Y0.3863  
G00 Z0.3000  
G00 X0.5039  Y0.4664  
G01 Z-0.0070 F5     
G01 X0.5055  Y0.4680  F7     
G01 X0.5055  Y0.4702  
G01 X0.5055  Y0.4701  
G01 X0.5050  Y0.4682  
G01 X0.5047  Y0.4677  
G01 X0.5039  Y0.4664  
G00 Z0.3000  
G00 X0.4368  Y0.4616  
G01 Z-0.0070 F5     
G01 X0.4336  Y0.4616  F7     
G01 X0.4309  Y0.4628  
G01 X0.4289  Y0.4648  
G01 X0.4278  Y0.4675  
G01 X0.4278  Y0.5648  
G01 X0.4289  Y0.5675  
G01 X0.4309  Y0.5695  
G01 X0.4324  Y0.5701  
G01 X0.4305  Y0.5701  
G01 X0.4289  Y0.5697  
G01 X0.4270  Y0.5692  
G01 X0.4250  Y0.5692  
G01 X0.4230  Y0.5692  
G01 X0.4206  Y0.5699  
G01 X0.4195  Y0.5701  
G01 X0.4176  Y0.5701  
G01 X0.4191  Y0.5695  
G01 X0.4211  Y0.5675  
G01 X0.4222  Y0.5648  
G01 X0.4222  Y0.4675  
G01 X0.4211  Y0.4648  
G01 X0.4191  Y0.4628  
G01 X0.4164  Y0.4616  
G01 X0.4132  Y0.4616  
G01 X0.4132  Y0.4608  
G01 X0.4123  Y0.4574  
G01 X0.4106  Y0.4544  
G01 X0.4081  Y0.4519  
G01 X0.4051  Y0.4502  
G01 X0.4017  Y0.4492  
G01 X0.3992  Y0.4492  
G01 X0.3294  Y0.3794  
G01 X0.3269  Y0.3769  
G01 X0.3239  Y0.3752  
G01 X0.3205  Y0.3743  
G01 X0.2045  Y0.3743  
G01 X0.2011  Y0.3752  
G01 X0.1981  Y0.3769  
G01 X0.1106  Y0.4644  
G01 X0.1081  Y0.4669  
G01 X0.1064  Y0.4699  
G01 X0.1055  Y0.4733  
G01 X0.1055  Y1.2017  
G01 X0.1064  Y1.2051  
G01 X0.1081  Y1.2081  
G01 X0.1106  Y1.2106  
G01 X0.1136  Y1.2123  
G01 X0.1170  Y1.2132  
G01 X0.3205  Y1.2132  
G01 X0.3239  Y1.2123  
G01 X0.3269  Y1.2106  
G01 X0.4144  Y1.1231  
G01 X0.4169  Y1.1206  
G01 X0.4170  Y1.1204  
G01 X0.4191  Y1.1195  
G01 X0.4211  Y1.1175  
G01 X0.4222  Y1.1148  
G01 X0.4222  Y1.0175  
G01 X0.4211  Y1.0148  
G01 X0.4191  Y1.0128  
G01 X0.4176  Y1.0121  
G01 X0.4195  Y1.0121  
G01 X0.4206  Y1.0124  
G01 X0.4230  Y1.0131  
G01 X0.4250  Y1.0131  
G01 X0.4270  Y1.0131  
G01 X0.4290  Y1.0125  
G01 X0.4305  Y1.0121  
G01 X0.4324  Y1.0121  
G01 X0.4309  Y1.0128  
G01 X0.4289  Y1.0148  
G01 X0.4278  Y1.0175  
G01 X0.4278  Y1.1148  
G01 X0.4289  Y1.1175  
G01 X0.4307  Y1.1193  
G01 X0.3320  Y1.2180  
G01 X0.1007  Y1.2180  
G01 X0.1007  Y0.4742  
G01 X0.2055  Y0.3695  
G01 X0.3195  Y0.3695  
G01 X0.3794  Y0.4294  
G01 X0.3824  Y0.4311  
G01 X0.3858  Y0.4320  
G01 X0.4320  Y0.4320  
G01 X0.4368  Y0.4367  
G01 X0.4368  Y0.4616  
G00 Z0.3000  
G00 X0.3784  Y0.4659  
G01 Z-0.0070 F5     
G01 X0.3778  Y0.4675  F7     
G01 X0.3778  Y0.5648  
G01 X0.3789  Y0.5675  
G01 X0.3809  Y0.5695  
G01 X0.3824  Y0.5701  
G01 X0.3805  Y0.5701  
G01 X0.3789  Y0.5697  
G01 X0.3770  Y0.5692  
G01 X0.3750  Y0.5692  
G01 X0.3730  Y0.5692  
G01 X0.3706  Y0.5699  
G01 X0.3695  Y0.5701  
G01 X0.3676  Y0.5701  
G01 X0.3691  Y0.5695  
G01 X0.3711  Y0.5675  
G01 X0.3722  Y0.5648  
G01 X0.3722  Y0.4675  
G01 X0.3711  Y0.4648  
G01 X0.3691  Y0.4628  
G01 X0.3664  Y0.4616  
G01 X0.3632  Y0.4616  
G01 X0.3632  Y0.4608  
G01 X0.3623  Y0.4574  
G01 X0.3606  Y0.4544  
G01 X0.3581  Y0.4519  
G01 X0.3551  Y0.4502  
G01 X0.3517  Y0.4492  
G01 X0.3492  Y0.4492  
G01 X0.3106  Y0.4106  
G01 X0.3081  Y0.4081  
G01 X0.3051  Y0.4064  
G01 X0.3017  Y0.4055  
G01 X0.2545  Y0.4055  
G01 X0.2511  Y0.4064  
G01 X0.2481  Y0.4081  
G01 X0.2331  Y0.4232  
G01 X0.2341  Y0.4214  
G01 X0.2352  Y0.4175  
G01 X0.2352  Y0.4135  
G01 X0.2341  Y0.4096  
G01 X0.2321  Y0.4061  
G01 X0.2293  Y0.4033  
G01 X0.2258  Y0.4013  
G01 X0.2238  Y0.4007  
G01 X0.3133  Y0.4007  
G01 X0.3784  Y0.4659  
G00 Z0.3000  
G00 X0.3284  Y0.4659  
G01 Z-0.0070 F5     
G01 X0.3278  Y0.4675  F7     
G01 X0.3278  Y0.5648  
G01 X0.3289  Y0.5675  
G01 X0.3309  Y0.5695  
G01 X0.3324  Y0.5701  
G01 X0.3260  Y0.5701  
G01 X0.3221  Y0.5712  
G01 X0.3186  Y0.5732  
G01 X0.3158  Y0.5760  
G01 X0.3138  Y0.5795  
G01 X0.3132  Y0.5815  
G01 X0.3132  Y0.5706  
G01 X0.3164  Y0.5706  
G01 X0.3191  Y0.5695  
G01 X0.3211  Y0.5675  
G01 X0.3222  Y0.5648  
G01 X0.3222  Y0.4675  
G01 X0.3211  Y0.4648  
G01 X0.3191  Y0.4628  
G01 X0.3164  Y0.4616  
G01 X0.2924  Y0.4616  
G01 X0.2944  Y0.4611  
G01 X0.2962  Y0.4601  
G01 X0.2979  Y0.4591  
G01 X0.2993  Y0.4577  
G01 X0.3008  Y0.4563  
G01 X0.3018  Y0.4545  
G01 X0.3028  Y0.4528  
G01 X0.3033  Y0.4508  
G01 X0.3038  Y0.4489  
G01 X0.3038  Y0.4469  
G01 X0.3038  Y0.4449  
G01 X0.3033  Y0.4430  
G01 X0.3028  Y0.4410  
G01 X0.3017  Y0.4392  
G01 X0.3284  Y0.4659  
G00 Z0.3000  
G00 X0.2824  Y0.4621  
G01 Z-0.0070 F5     
G01 X0.2809  Y0.4628  F7     
G01 X0.2789  Y0.4648  
G01 X0.2778  Y0.4675  
G01 X0.2778  Y0.5648  
G01 X0.2789  Y0.5675  
G01 X0.2809  Y0.5695  
G01 X0.2836  Y0.5706  
G01 X0.2868  Y0.5706  
G01 X0.2868  Y0.7180  
G01 X0.2545  Y0.7180  
G01 X0.2511  Y0.7189  
G01 X0.2481  Y0.7206  
G01 X0.2019  Y0.7669  
G01 X0.2002  Y0.7699  
G01 X0.1993  Y0.7733  
G01 X0.1993  Y0.9705  
G01 X0.2002  Y0.9739  
G01 X0.2019  Y0.9769  
G01 X0.2044  Y0.9794  
G01 X0.2074  Y0.9811  
G01 X0.2089  Y0.9815  
G01 X0.2072  Y0.9815  
G01 X0.2034  Y0.9825  
G01 X0.1999  Y0.9845  
G01 X0.1970  Y0.9874  
G01 X0.1950  Y0.9909  
G01 X0.1945  Y0.9929  
G01 X0.1945  Y0.7742  
G01 X0.2606  Y0.7081  
G01 X0.2623  Y0.7051  
G01 X0.2632  Y0.7017  
G01 X0.2632  Y0.5706  
G01 X0.2664  Y0.5706  
G01 X0.2691  Y0.5695  
G01 X0.2711  Y0.5675  
G01 X0.2722  Y0.5648  
G01 X0.2722  Y0.4675  
G01 X0.2711  Y0.4648  
G01 X0.2691  Y0.4628  
G01 X0.2676  Y0.4621  
G01 X0.2695  Y0.4621  
G01 X0.2706  Y0.4624  
G01 X0.2730  Y0.4631  
G01 X0.2750  Y0.4631  
G01 X0.2770  Y0.4631  
G01 X0.2790  Y0.4625  
G01 X0.2805  Y0.4621  
G01 X0.2824  Y0.4621  
G00 Z0.3000  
G00 X0.2638  Y0.4616  
G01 Z-0.0070 F5     
G01 X0.2336  Y0.4616  F7     
G01 X0.2310  Y0.4627  
G01 X0.2545  Y0.4392  
G01 X0.2535  Y0.4410  
G01 X0.2530  Y0.4430  
G01 X0.2525  Y0.4449  
G01 X0.2525  Y0.4469  
G01 X0.2524  Y0.4489  
G01 X0.2530  Y0.4508  
G01 X0.2535  Y0.4528  
G01 X0.2545  Y0.4545  
G01 X0.2555  Y0.4563  
G01 X0.2569  Y0.4577  
G01 X0.2583  Y0.4591  
G01 X0.2600  Y0.4601  
G01 X0.2618  Y0.4611  
G01 X0.2638  Y0.4616  
G00 Z0.3000  
G00 X0.2640  Y0.4320  
G01 Z-0.0070 F5     
G01 X0.2620  Y0.4325  F7     
G01 X0.2602  Y0.4335  
G01 X0.2617  Y0.4320  
G01 X0.2640  Y0.4320  
G00 Z0.3000  
G00 X0.2923  Y0.4320  
G01 Z-0.0070 F5     
G01 X0.2945  Y0.4320  F7     
G01 X0.2961  Y0.4336  
G01 X0.2943  Y0.4325  
G01 X0.2923  Y0.4320  
G00 Z0.3000  
G00 X0.2289  Y0.4649  
G01 Z-0.0070 F5     
G01 X0.2278  Y0.4675  F7     
G01 X0.2278  Y0.4977  
G01 X0.2273  Y0.4957  
G01 X0.2252  Y0.4922  
G01 X0.2224  Y0.4894  
G01 X0.2189  Y0.4873  
G01 X0.2150  Y0.4863  
G01 X0.2110  Y0.4863  
G01 X0.2072  Y0.4873  
G01 X0.2053  Y0.4884  
G01 X0.2289  Y0.4649  
G00 Z0.3000  
G00 X0.2140  Y0.4007  
G01 Z-0.0070 F5     
G01 X0.2120  Y0.4013  F7     
G01 X0.2102  Y0.4023  
G01 X0.2117  Y0.4007  
G01 X0.2140  Y0.4007  
G00 Z0.3000  
G00 X0.1336  Y0.4789  
G01 Z-0.0070 F5     
G01 X0.1325  Y0.4807  F7     
G01 X0.1320  Y0.4827  
G01 X0.1320  Y0.4805  
G01 X0.1336  Y0.4789  
G00 Z0.3000  
G00 X0.1320  Y0.4925  
G01 Z-0.0070 F5     
G01 X0.1325  Y0.4945  F7     
G01 X0.1345  Y0.4980  
G01 X0.1374  Y0.5009  
G01 X0.1409  Y0.5029  
G01 X0.1447  Y0.5039  
G01 X0.1488  Y0.5039  
G01 X0.1526  Y0.5029  
G01 X0.1544  Y0.5018  
G01 X0.1419  Y0.5144  
G01 X0.1394  Y0.5169  
G01 X0.1377  Y0.5199  
G01 X0.1368  Y0.5233  
G01 X0.1368  Y1.1705  
G01 X0.1377  Y1.1739  
G01 X0.1394  Y1.1769  
G01 X0.1419  Y1.1794  
G01 X0.1449  Y1.1811  
G01 X0.1483  Y1.1820  
G01 X0.3017  Y1.1820  
G01 X0.3051  Y1.1811  
G01 X0.3081  Y1.1794  
G01 X0.3644  Y1.1231  
G01 X0.3669  Y1.1206  
G01 X0.3670  Y1.1204  
G01 X0.3691  Y1.1195  
G01 X0.3711  Y1.1175  
G01 X0.3722  Y1.1148  
G01 X0.3722  Y1.0175  
G01 X0.3711  Y1.0148  
G01 X0.3691  Y1.0128  
G01 X0.3676  Y1.0121  
G01 X0.3695  Y1.0121  
G01 X0.3706  Y1.0124  
G01 X0.3730  Y1.0131  
G01 X0.3750  Y1.0131  
G01 X0.3770  Y1.0131  
G01 X0.3790  Y1.0125  
G01 X0.3805  Y1.0121  
G01 X0.3824  Y1.0121  
G01 X0.3809  Y1.0128  
G01 X0.3789  Y1.0148  
G01 X0.3778  Y1.0175  
G01 X0.3778  Y1.1148  
G01 X0.3789  Y1.1175  
G01 X0.3807  Y1.1193  
G01 X0.3133  Y1.1867  
G01 X0.1320  Y1.1867  
G01 X0.1320  Y0.4925  
G00 Z0.3000  
G00 X0.1648  Y0.5289  
G01 Z-0.0070 F5     
G01 X0.1638  Y0.5307  F7     
G01 X0.1632  Y0.5327  
G01 X0.1632  Y0.5305  
G01 X0.1648  Y0.5289  
G00 Z0.3000  
G00 X0.2283  Y0.5660  
G01 Z-0.0070 F5     
G01 X0.2284  Y0.5663  F7     
G01 X0.2283  Y0.5662  
G01 X0.2283  Y0.5660  
G00 Z0.3000  
G00 X0.2321  Y0.5700  
G01 Z-0.0070 F5     
G01 X0.2336  Y0.5706  F7     
G01 X0.2367  Y0.5706  
G01 X0.2367  Y0.5776  
G01 X0.2362  Y0.5756  
G01 X0.2342  Y0.5721  
G01 X0.2340  Y0.5719  
G01 X0.2321  Y0.5700  
G00 Z0.3000  
G00 X0.2367  Y0.6923  
G01 Z-0.0070 F5     
G01 X0.2367  Y0.6945  F7     
G01 X0.2352  Y0.6961  
G01 X0.2362  Y0.6943  
G01 X0.2367  Y0.6923  
G00 Z0.3000  
G00 X0.2493  Y0.7569  
G01 Z-0.0070 F5     
G01 X0.2483  Y0.7587  F7     
G01 X0.2478  Y0.7606  
G01 X0.2472  Y0.7626  
G01 X0.2472  Y0.7666  
G01 X0.2483  Y0.7705  
G01 X0.2495  Y0.7726  
G01 X0.2503  Y0.7740  
G01 X0.2531  Y0.7768  
G01 X0.2566  Y0.7788  
G01 X0.2584  Y0.7793  
G01 X0.2586  Y0.7794  
G01 X0.2336  Y0.7794  
G01 X0.2309  Y0.7805  
G01 X0.2289  Y0.7825  
G01 X0.2278  Y0.7852  
G01 X0.2278  Y0.8825  
G01 X0.2289  Y0.8852  
G01 X0.2309  Y0.8872  
G01 X0.2336  Y0.8884  
G01 X0.2446  Y0.8884  
G01 X0.2482  Y0.8919  
G01 X0.2464  Y0.8909  
G01 X0.2462  Y0.8908  
G01 X0.2425  Y0.8898  
G01 X0.2385  Y0.8898  
G01 X0.2346  Y0.8909  
G01 X0.2311  Y0.8929  
G01 X0.2283  Y0.8957  
G01 X0.2263  Y0.8992  
G01 X0.2262  Y0.8994  
G01 X0.2257  Y0.9012  
G01 X0.2257  Y0.7805  
G01 X0.2493  Y0.7569  
G00 Z0.3000  
G00 X0.2602  Y0.7461  
G01 Z-0.0070 F5     
G01 X0.2617  Y0.7445  F7     
G01 X0.2640  Y0.7445  
G01 X0.2620  Y0.7450  
G01 X0.2602  Y0.7461  
G00 Z0.3000  
G00 X0.2676  Y0.7799  
G01 Z-0.0070 F5     
G01 X0.2695  Y0.7799  F7     
G01 X0.2706  Y0.7801  
G01 X0.2730  Y0.7808  
G01 X0.2750  Y0.7808  
G01 X0.2770  Y0.7808  
G01 X0.2790  Y0.7803  
G01 X0.2805  Y0.7799  
G01 X0.2824  Y0.7799  
G01 X0.2809  Y0.7805  
G01 X0.2789  Y0.7825  
G01 X0.2778  Y0.7852  
G01 X0.2778  Y0.8825  
G01 X0.2789  Y0.8851  
G01 X0.2722  Y0.8785  
G01 X0.2722  Y0.7852  
G01 X0.2711  Y0.7825  
G01 X0.2691  Y0.7805  
G01 X0.2676  Y0.7799  
G00 Z0.3000  
G00 X0.3176  Y0.7799  
G01 Z-0.0070 F5     
G01 X0.3195  Y0.7799  F7     
G01 X0.3206  Y0.7801  
G01 X0.3230  Y0.7808  
G01 X0.3250  Y0.7808  
G01 X0.3270  Y0.7808  
G01 X0.3290  Y0.7803  
G01 X0.3309  Y0.7798  
G01 X0.3321  Y0.7790  
G01 X0.3329  Y0.7788  
G01 X0.3347  Y0.7778  
G01 X0.3331  Y0.7794  
G01 X0.3330  Y0.7796  
G01 X0.3309  Y0.7805  
G01 X0.3289  Y0.7825  
G01 X0.3278  Y0.7852  
G01 X0.3278  Y0.8825  
G01 X0.3289  Y0.8851  
G01 X0.3222  Y0.8785  
G01 X0.3222  Y0.7852  
G01 X0.3211  Y0.7825  
G01 X0.3191  Y0.7805  
G01 X0.3176  Y0.7799  
G00 Z0.3000  
G00 X0.4193  Y0.7807  
G01 Z-0.0070 F5     
G01 X0.4431  Y0.7569  F7     
G01 X0.4420  Y0.7587  
G01 X0.4415  Y0.7606  
G01 X0.4410  Y0.7626  
G01 X0.4410  Y0.7666  
G01 X0.4420  Y0.7705  
G01 X0.4432  Y0.7726  
G01 X0.4440  Y0.7740  
G01 X0.4469  Y0.7768  
G01 X0.4503  Y0.7788  
G01 X0.4522  Y0.7793  
G01 X0.4524  Y0.7794  
G01 X0.4336  Y0.7794  
G01 X0.4309  Y0.7805  
G01 X0.4289  Y0.7825  
G01 X0.4278  Y0.7852  
G01 X0.4278  Y0.8825  
G01 X0.4289  Y0.8852  
G01 X0.4309  Y0.8872  
G01 X0.4324  Y0.8879  
G01 X0.4305  Y0.8879  
G01 X0.4289  Y0.8874  
G01 X0.4270  Y0.8869  
G01 X0.4250  Y0.8869  
G01 X0.4230  Y0.8869  
G01 X0.4206  Y0.8876  
G01 X0.4195  Y0.8879  
G01 X0.4176  Y0.8879  
G01 X0.4191  Y0.8872  
G01 X0.4211  Y0.8852  
G01 X0.4222  Y0.8825  
G01 X0.4222  Y0.7852  
G01 X0.4211  Y0.7825  
G01 X0.4193  Y0.7807  
G00 Z0.3000  
G00 X0.4676  Y0.7799  
G01 Z-0.0070 F5     
G01 X0.4678  Y0.7799  F7     
G01 X0.4679  Y0.7800  
G01 X0.4676  Y0.7799  
G00 Z0.3000  
G00 X0.4716  Y0.7837  
G01 Z-0.0070 F5     
G01 X0.4717  Y0.7838  F7     
G01 X0.4717  Y0.7840  
G01 X0.4716  Y0.7837  
G00 Z0.3000  
G00 X0.4722  Y0.8071  
G01 Z-0.0070 F5     
G01 X0.4727  Y0.8091  F7     
G01 X0.4748  Y0.8126  
G01 X0.4776  Y0.8155  
G01 X0.4811  Y0.8175  
G01 X0.4831  Y0.8180  
G01 X0.4722  Y0.8180  
G01 X0.4722  Y0.8071  
G00 Z0.3000  
G00 X0.4722  Y0.8445  
G01 Z-0.0070 F5     
G01 X0.4831  Y0.8445  F7     
G01 X0.4811  Y0.8450  
G01 X0.4776  Y0.8470  
G01 X0.4748  Y0.8499  
G01 X0.4727  Y0.8534  
G01 X0.4722  Y0.8554  
G01 X0.4722  Y0.8445  
G00 Z0.3000  
G00 X0.4717  Y0.8838  
G01 Z-0.0070 F5     
G01 X0.4717  Y0.8839  F7     
G01 X0.4716  Y0.8840  
G01 X0.4717  Y0.8838  
G00 Z0.3000  
G00 X0.4679  Y0.8877  
G01 Z-0.0070 F5     
G01 X0.4678  Y0.8879  F7     
G01 X0.4676  Y0.8879  
G01 X0.4679  Y0.8877  
G00 Z0.3000  
G00 X0.3638  Y0.8884  
G01 Z-0.0070 F5     
G01 X0.3638  Y0.8884  F7     
G01 X0.3618  Y0.8889  
G01 X0.3600  Y0.8899  
G01 X0.3583  Y0.8909  
G01 X0.3569  Y0.8923  
G01 X0.3555  Y0.8937  
G01 X0.3545  Y0.8955  
G01 X0.3535  Y0.8972  
G01 X0.3529  Y0.8992  
G01 X0.3525  Y0.9011  
G01 X0.3525  Y0.9031  
G01 X0.3525  Y0.9051  
G01 X0.3530  Y0.9070  
G01 X0.3535  Y0.9090  
G01 X0.3545  Y0.9108  
G01 X0.3310  Y0.8873  
G01 X0.3336  Y0.8884  
G01 X0.3638  Y0.8884  
G00 Z0.3000  
G00 X0.3640  Y0.9180  
G01 Z-0.0070 F5     
G01 X0.3640  Y0.9180  F7     
G01 X0.3617  Y0.9180  
G01 X0.3602  Y0.9164  
G01 X0.3620  Y0.9175  
G01 X0.3640  Y0.9180  
G00 Z0.3000  
G00 X0.3324  Y1.0121  
G01 Z-0.0070 F5     
G01 X0.3309  Y1.0128  F7     
G01 X0.3289  Y1.0148  
G01 X0.3278  Y1.0175  
G01 X0.3278  Y1.1148  
G01 X0.3289  Y1.1175  
G01 X0.3307  Y1.1193  
G01 X0.3069  Y1.1431  
G01 X0.3080  Y1.1413  
G01 X0.3085  Y1.1394  
G01 X0.3090  Y1.1374  
G01 X0.3090  Y1.1334  
G01 X0.3080  Y1.1295  
G01 X0.3068  Y1.1274  
G01 X0.3060  Y1.1260  
G01 X0.3031  Y1.1232  
G01 X0.2997  Y1.1212  
G01 X0.2978  Y1.1207  
G01 X0.2976  Y1.1206  
G01 X0.3164  Y1.1206  
G01 X0.3191  Y1.1195  
G01 X0.3211  Y1.1175  
G01 X0.3222  Y1.1148  
G01 X0.3222  Y1.0175  
G01 X0.3211  Y1.0148  
G01 X0.3191  Y1.0128  
G01 X0.3176  Y1.0121  
G01 X0.3195  Y1.0121  
G01 X0.3206  Y1.0124  
G01 X0.3230  Y1.0131  
G01 X0.3250  Y1.0131  
G01 X0.3270  Y1.0131  
G01 X0.3290  Y1.0125  
G01 X0.3305  Y1.0121  
G01 X0.3324  Y1.0121  
G00 Z0.3000  
G00 X0.3076  Y1.0116  
G01 Z-0.0070 F5     
G01 X0.3054  Y1.0116  F7     
G01 X0.3038  Y1.0101  
G01 X0.3056  Y1.0111  
G01 X0.3058  Y1.0112  
G01 X0.3076  Y1.0116  
G00 Z0.3000  
G00 X0.2778  Y1.0215  
G01 Z-0.0070 F5     
G01 X0.2778  Y1.1148  F7     
G01 X0.2789  Y1.1175  
G01 X0.2809  Y1.1195  
G01 X0.2824  Y1.1201  
G01 X0.2805  Y1.1201  
G01 X0.2789  Y1.1197  
G01 X0.2770  Y1.1192  
G01 X0.2750  Y1.1192  
G01 X0.2730  Y1.1192  
G01 X0.2706  Y1.1199  
G01 X0.2695  Y1.1201  
G01 X0.2676  Y1.1201  
G01 X0.2691  Y1.1195  
G01 X0.2711  Y1.1175  
G01 X0.2722  Y1.1148  
G01 X0.2722  Y1.0175  
G01 X0.2711  Y1.0149  
G01 X0.2778  Y1.0215  
G00 Z0.3000  
G00 X0.2690  Y1.0127  
G01 Z-0.0070 F5     
G01 X0.2664  Y1.0116  F7     
G01 X0.2362  Y1.0116  
G01 X0.2382  Y1.0111  
G01 X0.2400  Y1.0101  
G01 X0.2417  Y1.0091  
G01 X0.2431  Y1.0077  
G01 X0.2445  Y1.0063  
G01 X0.2455  Y1.0045  
G01 X0.2465  Y1.0028  
G01 X0.2471  Y1.0008  
G01 X0.2475  Y0.9989  
G01 X0.2475  Y0.9969  
G01 X0.2475  Y0.9949  
G01 X0.2470  Y0.9930  
G01 X0.2465  Y0.9910  
G01 X0.2455  Y0.9892  
G01 X0.2690  Y1.0127  
G00 Z0.3000  
G00 X0.2324  Y1.0121  
G01 Z-0.0070 F5     
G01 X0.2321  Y1.0123  F7     
G01 X0.2322  Y1.0121  
G01 X0.2324  Y1.0121  
G00 Z0.3000  
G00 X0.2284  Y1.0160  
G01 Z-0.0070 F5     
G01 X0.2283  Y1.0162  F7     
G01 X0.2283  Y1.0161  
G01 X0.2284  Y1.0160  
G00 Z0.3000  
G00 X0.2278  Y1.0384  
G01 Z-0.0070 F5     
G01 X0.2278  Y1.0493  F7     
G01 X0.2169  Y1.0493  
G01 X0.2189  Y1.0487  
G01 X0.2224  Y1.0467  
G01 X0.2252  Y1.0439  
G01 X0.2273  Y1.0404  
G01 X0.2278  Y1.0384  
G00 Z0.3000  
G00 X0.2054  Y1.0493  
G01 Z-0.0070 F5     
G01 X0.1945  Y1.0493  F7     
G01 X0.1945  Y1.0384  
G01 X0.1950  Y1.0404  
G01 X0.1970  Y1.0439  
G01 X0.1999  Y1.0467  
G01 X0.2034  Y1.0487  
G01 X0.2054  Y1.0493  
G00 Z0.3000  
G00 X0.2169  Y1.0757  
G01 Z-0.0070 F5     
G01 X0.2278  Y1.0757  F7     
G01 X0.2278  Y1.0866  
G01 X0.2273  Y1.0846  
G01 X0.2252  Y1.0811  
G01 X0.2224  Y1.0783  
G01 X0.2189  Y1.0763  
G01 X0.2169  Y1.0757  
G00 Z0.3000  
G00 X0.1776  Y1.0752  
G01 Z-0.0070 F5     
G01 X0.1760  Y1.0752  F7     
G01 X0.1721  Y1.0763  
G01 X0.1686  Y1.0783  
G01 X0.1658  Y1.0811  
G01 X0.1638  Y1.0846  
G01 X0.1632  Y1.0866  
G01 X0.1632  Y0.7363  
G01 X0.1638  Y0.7383  
G01 X0.1658  Y0.7418  
G01 X0.1686  Y0.7446  
G01 X0.1721  Y0.7466  
G01 X0.1760  Y0.7477  
G01 X0.1800  Y0.7477  
G01 X0.1839  Y0.7466  
G01 X0.1857  Y0.7456  
G01 X0.1731  Y0.7581  
G01 X0.1706  Y0.7606  
G01 X0.1689  Y0.7636  
G01 X0.1680  Y0.7670  
G01 X0.1680  Y1.0642  
G01 X0.1689  Y1.0676  
G01 X0.1706  Y1.0706  
G01 X0.1731  Y1.0731  
G01 X0.1761  Y1.0748  
G01 X0.1776  Y1.0752  
G00 Z0.3000  
G00 X0.1741  Y1.1555  
G01 Z-0.0070 F5     
G01 X0.1632  Y1.1555  F7     
G01 X0.1632  Y1.1446  
G01 X0.1638  Y1.1466  
G01 X0.1658  Y1.1501  
G01 X0.1686  Y1.1530  
G01 X0.1721  Y1.1550  
G01 X0.1741  Y1.1555  
G00 Z0.3000  
G00 X0.2321  Y1.1200  
G01 Z-0.0070 F5     
G01 X0.2324  Y1.1201  F7     
G01 X0.2322  Y1.1201  
G01 X0.2321  Y1.1200  
G00 Z0.3000  
G00 X0.2284  Y1.1163  
G01 Z-0.0070 F5     
G01 X0.2283  Y1.1162  F7     
G01 X0.2283  Y1.1160  
G01 X0.2284  Y1.1163  
G00 Z0.3000  
G00 X0.2923  Y1.1555  
G01 Z-0.0070 F5     
G01 X0.2943  Y1.1550  F7     
G01 X0.2961  Y1.1539  
G01 X0.2945  Y1.1555  
G01 X0.2923  Y1.1555  
G00 Z0.3000  
G00 X0.4653  Y1.1222  
G01 Z-0.0070 F5     
G01 X0.4669  Y1.1206  F7     
G01 X0.4670  Y1.1204  
G01 X0.4679  Y1.1200  
G01 X0.4662  Y1.1217  
G01 X0.4653  Y1.1222  
G00 Z0.3000  
G00 X0.4716  Y1.1163  
G01 Z-0.0070 F5     
G01 X0.4717  Y1.1160  F7     
G01 X0.4717  Y1.1162  
G01 X0.4716  Y1.1163  
G00 Z0.3000  
G00 X0.4717  Y1.0162  
G01 Z-0.0070 F5     
G01 X0.4716  Y1.0160  F7     
G01 X0.4717  Y1.0161  
G01 X0.4717  Y1.0162  
G00 Z0.3000  
G00 X0.4679  Y1.0123  
G01 Z-0.0070 F5     
G01 X0.4676  Y1.0121  F7     
G01 X0.4678  Y1.0121  
G01 X0.4679  Y1.0123  
G00 Z0.3000  
G00 X0.5884  Y0.9180  
G01 Z-0.0070 F5     
G01 X0.5904  Y0.9175  F7     
G01 X0.5939  Y0.9155  
G01 X0.5967  Y0.9126  
G01 X0.5987  Y0.9091  
G01 X0.5992  Y0.9071  
G01 X0.5992  Y0.9180  
G01 X0.5884  Y0.9180  
G00 Z0.3000  
G00 X0.5680  Y0.8180  
G01 Z-0.0070 F5     
G01 X0.5571  Y0.8180  F7     
G01 X0.5591  Y0.8175  
G01 X0.5626  Y0.8155  
G01 X0.5655  Y0.8126  
G01 X0.5675  Y0.8091  
G01 X0.5680  Y0.8071  
G01 X0.5680  Y0.8180  
G00 Z0.3000  
G00 X0.4577  Y0.7445  
G01 Z-0.0070 F5     
G01 X0.4557  Y0.7450  F7     
G01 X0.4539  Y0.7461  
G01 X0.4555  Y0.7445  
G01 X0.4577  Y0.7445  
G00 Z0.3000  
G00 X0.4946  Y0.6867  
G01 Z-0.0070 F5     
G01 X0.4966  Y0.6862  F7     
G01 X0.5001  Y0.6842  
G01 X0.5030  Y0.6814  
G01 X0.5050  Y0.6779  
G01 X0.5055  Y0.6759  
G01 X0.5055  Y0.6867  
G01 X0.4946  Y0.6867  
G00 Z0.3000  
G00 X0.4679  Y0.5700  
G01 Z-0.0070 F5     
G01 X0.4678  Y0.5701  F7     
G01 X0.4676  Y0.5701  
G01 X0.4679  Y0.5700  
G00 Z0.3000  
G00 X0.4716  Y0.5663  
G01 Z-0.0070 F5     
G01 X0.4717  Y0.5660  F7     
G01 X0.4717  Y0.5662  
G01 X0.4716  Y0.5663  
G00 Z0.3000  
G00 X0.2366  Y0.9555  
G01 Z-0.0070 F5     
G01 X0.2257  Y0.9555  F7     
G01 X0.2257  Y0.9446  
G01 X0.2263  Y0.9466  
G01 X0.2283  Y0.9501  
G01 X0.2311  Y0.9530  
G01 X0.2346  Y0.9550  
G01 X0.2366  Y0.9555  
G00 Z0.3000  
G00 X0.2360  Y0.9820  
G01 Z-0.0070 F5     
G01 X0.2360  Y0.9820  F7     
G01 X0.2383  Y0.9820  
G01 X0.2398  Y0.9836  
G01 X0.2380  Y0.9825  
G01 X0.2360  Y0.9820  
G00 Z0.3000  
G00 X0.0318  Y0.0356  
G01 Z-0.0070 F5     
G01 X0.0291  Y0.0402  F7     
G01 X0.0277  Y0.0453  
G01 X0.0277  Y1.3417  
G01 X0.0291  Y1.3468  
G01 X0.0318  Y1.3514  
G01 X0.0356  Y1.3552  
G01 X0.0402  Y1.3579  
G01 X0.0453  Y1.3593  
G01 X0.6485  Y1.3593  
G01 X0.6539  Y1.3593  
G01 X0.6590  Y1.3579  
G01 X0.6636  Y1.3552  
G01 X0.6674  Y1.3514  
G01 X0.6701  Y1.3468  
G01 X0.6715  Y1.3417  
G01 X0.6715  Y0.9910  
G01 X0.6716  Y0.9897  
G01 X0.6715  Y0.9884  
G01 X0.6715  Y0.9870  
G01 X0.6711  Y0.9858  
G01 X0.6709  Y0.9844  
G01 X0.6704  Y0.9832  
G01 X0.6701  Y0.9819  
G01 X0.6694  Y0.9807  
G01 X0.6689  Y0.9795  
G01 X0.6681  Y0.9784  
G01 X0.6674  Y0.9773  
G01 X0.6665  Y0.9763  
G01 X0.6657  Y0.9753  
G01 X0.6646  Y0.9745  
G01 X0.6636  Y0.9735  
G01 X0.6625  Y0.9728  
G01 X0.6614  Y0.9720  
G01 X0.6602  Y0.9715  
G01 X0.6598  Y0.9713  
G01 X0.6608  Y0.9695  
G01 X0.6620  Y0.9649  
G01 X0.6620  Y0.3038  
G01 X0.6608  Y0.2992  
G01 X0.6584  Y0.2950  
G01 X0.6569  Y0.2936  
G01 X0.6590  Y0.2930  
G01 X0.6636  Y0.2903  
G01 X0.6674  Y0.2865  
G01 X0.6701  Y0.2819  
G01 X0.6715  Y0.2768  
G01 X0.6715  Y0.0453  
G01 X0.6701  Y0.0402  
G01 X0.6674  Y0.0356  
G01 X0.6636  Y0.0318  
G01 X0.6590  Y0.0291  
G01 X0.6539  Y0.0277  
G01 X0.0453  Y0.0277  
G01 X0.0402  Y0.0291  
G01 X0.0356  Y0.0318  
G01 X0.0318  Y0.0356  
G00 Z0.3000  
G00 X0.3377  Y0.1682  
G01 Z-0.0070 F5     
G01 X0.3434  Y0.1682  F7     
G01 X0.3416  Y0.1700  
G01 X0.3394  Y0.1723  
G01 X0.3388  Y0.1702  
G01 X0.3377  Y0.1682  
G00 Z0.3000  
G00 X0.3389  Y0.2244  
G01 Z-0.0070 F5     
G01 X0.3430  Y0.2203  F7     
G01 X0.3436  Y0.2224  
G01 X0.3444  Y0.2238  
G01 X0.3447  Y0.2244  
G01 X0.3389  Y0.2244  
G00 Z0.3000  
G00 X0.4003  Y0.3557  
G01 Z-0.0070 F5     
G01 X0.4049  Y0.3557  F7     
G01 X0.4166  Y0.3675  
G01 X0.4184  Y0.3693  
G01 X0.4138  Y0.3693  
G01 X0.4003  Y0.3557  
G00 Z0.3000  
G00 X0.4629  Y0.3434  
G01 Z-0.0070 F5     
G01 X0.4666  Y0.3434  F7     
G01 X0.4697  Y0.3425  
G01 X0.4725  Y0.3409  
G01 X0.4748  Y0.3386  
G01 X0.4750  Y0.3383  
G01 X0.5630  Y0.4263  
G01 X0.5630  Y0.4309  
G01 X0.5612  Y0.4291  
G01 X0.5050  Y0.3729  
G01 X0.5008  Y0.3705  
G01 X0.4962  Y0.3693  
G01 X0.4888  Y0.3693  
G01 X0.4629  Y0.3434  
G00 Z0.3000  
G00 X0.4682  Y0.4378  
G01 Z-0.0070 F5     
G01 X0.4813  Y0.4509  F7     
G01 X0.4801  Y0.4512  
G01 X0.4791  Y0.4514  
G01 X0.4745  Y0.4541  
G01 X0.4708  Y0.4579  
G01 X0.4707  Y0.4580  
G01 X0.4697  Y0.4575  
G01 X0.4682  Y0.4571  
G01 X0.4682  Y0.4378  
G00 Z0.3000  
G00 X0.4318  Y0.4388  
G01 Z-0.0070 F5     
G01 X0.4318  Y0.4571  F7     
G01 X0.4303  Y0.4575  
G01 X0.4275  Y0.4591  
G01 X0.4252  Y0.4614  
G01 X0.4250  Y0.4618  
G01 X0.4248  Y0.4614  
G01 X0.4225  Y0.4591  
G01 X0.4197  Y0.4575  
G01 X0.4174  Y0.4569  
G01 X0.4170  Y0.4555  
G01 X0.4146  Y0.4513  
G01 X0.4112  Y0.4479  
G01 X0.4070  Y0.4455  
G01 X0.4024  Y0.4442  
G01 X0.4013  Y0.4442  
G01 X0.3941  Y0.4370  
G01 X0.4299  Y0.4370  
G01 X0.4318  Y0.4388  
G00 Z0.3000  
G00 X0.3121  Y0.4566  
G01 Z-0.0070 F5     
G01 X0.3063  Y0.4566  F7     
G01 X0.3074  Y0.4547  
G01 X0.3080  Y0.4526  
G01 X0.3121  Y0.4566  
G00 Z0.3000  
G00 X0.2499  Y0.4566  
G01 Z-0.0070 F5     
G01 X0.2442  Y0.4566  F7     
G01 X0.2483  Y0.4526  
G01 X0.2488  Y0.4547  
G01 X0.2499  Y0.4566  
G00 Z0.3000  
G00 X0.2228  Y0.4780  
G01 Z-0.0070 F5     
G01 X0.2228  Y0.4838  F7     
G01 X0.2209  Y0.4827  
G01 X0.2187  Y0.4821  
G01 X0.2228  Y0.4780  
G00 Z0.3000  
G00 X0.2393  Y0.4098  
G01 Z-0.0070 F5     
G01 X0.2388  Y0.4077  F7     
G01 X0.2377  Y0.4057  
G01 X0.2434  Y0.4057  
G01 X0.2393  Y0.4098  
G00 Z0.3000  
G00 X0.2682  Y0.5752  
G01 Z-0.0070 F5     
G01 X0.2697  Y0.5748  F7     
G01 X0.2725  Y0.5732  
G01 X0.2748  Y0.5709  
G01 X0.2750  Y0.5705  
G01 X0.2752  Y0.5709  
G01 X0.2775  Y0.5732  
G01 X0.2803  Y0.5748  
G01 X0.2818  Y0.5752  
G01 X0.2818  Y0.7130  
G01 X0.2628  Y0.7130  
G01 X0.2646  Y0.7112  
G01 X0.2670  Y0.7070  
G01 X0.2682  Y0.7024  
G01 X0.2682  Y0.5752  
G00 Z0.3000  
G00 X0.1370  Y0.5122  
G01 Z-0.0070 F5     
G01 X0.1370  Y0.5064  F7     
G01 X0.1389  Y0.5075  
G01 X0.1411  Y0.5081  
G01 X0.1388  Y0.5104  
G01 X0.1370  Y0.5122  
G00 Z0.3000  
G00 X0.1682  Y0.7502  
G01 Z-0.0070 F5     
G01 X0.1702  Y0.7513  F7     
G01 X0.1723  Y0.7519  
G01 X0.1700  Y0.7541  
G01 X0.1682  Y0.7559  
G01 X0.1682  Y0.7502  
G00 Z0.3000  
G00 X0.2389  Y0.7744  
G01 Z-0.0070 F5     
G01 X0.2430  Y0.7703  F7     
G01 X0.2436  Y0.7724  
G01 X0.2444  Y0.7738  
G01 X0.2447  Y0.7744  
G01 X0.2389  Y0.7744  
G00 Z0.3000  
G00 X0.4324  Y0.7746  
G01 Z-0.0070 F5     
G01 X0.4368  Y0.7703  F7     
G01 X0.4374  Y0.7724  
G01 X0.4381  Y0.7738  
G01 X0.4385  Y0.7744  
G01 X0.4334  Y0.7744  
G01 X0.4324  Y0.7746  
G00 Z0.3000  
G00 X0.5316  Y0.7130  
G01 Z-0.0070 F5     
G01 X0.5317  Y0.7128  F7     
G01 X0.5317  Y0.7130  
G01 X0.5316  Y0.7130  
G00 Z0.3000  
G00 X0.6255  Y0.9441  
G01 Z-0.0070 F5     
G01 X0.6255  Y0.9443  F7     
G01 X0.6253  Y0.9443  
G01 X0.6255  Y0.9441  
G00 Z0.3000  
G00 X0.3483  Y0.8974  
G01 Z-0.0070 F5     
G01 X0.3442  Y0.8934  F7     
G01 X0.3499  Y0.8934  
G01 X0.3488  Y0.8953  
G01 X0.3483  Y0.8974  
G00 Z0.3000  
G00 X0.2558  Y1.0066  
G01 Z-0.0070 F5     
G01 X0.2501  Y1.0066  F7     
G01 X0.2512  Y1.0047  
G01 X0.2517  Y1.0026  
G01 X0.2558  Y1.0066  
G00 Z0.3000  
G00 X0.3115  Y1.1256  
G01 Z-0.0070 F5     
G01 X0.3166  Y1.1256  F7     
G01 X0.3176  Y1.1254  
G01 X0.3132  Y1.1297  
G01 X0.3126  Y1.1276  
G01 X0.3119  Y1.1262  
G01 X0.3115  Y1.1256  
G00 Z0.3000  
G00 X0.1370  Y1.1816  
G01 Z-0.0070 F5     
G01 X0.1372  Y1.1818  F7     
G01 X0.1370  Y1.1818  
G01 X0.1370  Y1.1816  
G00 Z0.3000  
G00 X0.1057  Y1.2128  
G01 Z-0.0070 F5     
G01 X0.1059  Y1.2130  F7     
G01 X0.1057  Y1.2130  
G01 X0.1057  Y1.2128  
G00 Z0.3000  
G00 X0.5942  Y0.4059  
G01 Z-0.0070 F5     
G01 X0.5925  Y0.4041  F7     
G01 X0.5902  Y0.4018  
G01 X0.5923  Y0.4013  
G01 X0.5942  Y0.4002  
G01 X0.5942  Y0.4059  
G00 Z0.3000  
G00 X0.0284  Y0.0319  
G01 Z-0.0070 F5     
G01 X0.0256  Y0.0360  F7     
G01 X0.0237  Y0.0406  
G01 X0.0227  Y0.0455  
G01 X0.0227  Y1.3415  
G01 X0.0237  Y1.3464  
G01 X0.0256  Y1.3510  
G01 X0.0284  Y1.3551  
G01 X0.0319  Y1.3586  
G01 X0.0360  Y1.3614  
G01 X0.0406  Y1.3633  
G01 X0.0455  Y1.3643  
G01 X0.6537  Y1.3643  
G01 X0.6586  Y1.3633  
G01 X0.6632  Y1.3614  
G01 X0.6673  Y1.3586  
G01 X0.6708  Y1.3551  
G01 X0.6736  Y1.3510  
G01 X0.6755  Y1.3464  
G01 X0.6765  Y1.3415  
G01 X0.6765  Y0.9922  
G01 X0.6765  Y0.9897  
G01 X0.6765  Y0.9872  
G01 X0.6763  Y0.9864  
G01 X0.6755  Y0.9824  
G01 X0.6736  Y0.9778  
G01 X0.6708  Y0.9736  
G01 X0.6673  Y0.9701  
G01 X0.6661  Y0.9693  
G01 X0.6670  Y0.9648  
G01 X0.6670  Y0.3040  
G01 X0.6661  Y0.2995  
G01 X0.6645  Y0.2956  
G01 X0.6673  Y0.2937  
G01 X0.6708  Y0.2902  
G01 X0.6736  Y0.2861  
G01 X0.6755  Y0.2815  
G01 X0.6755  Y0.2812  
G01 X0.6765  Y0.2766  
G01 X0.6765  Y0.0455  
G01 X0.6755  Y0.0406  
G01 X0.6736  Y0.0360  
G01 X0.6708  Y0.0319  
G01 X0.6673  Y0.0284  
G01 X0.6632  Y0.0256  
G01 X0.6586  Y0.0237  
G01 X0.6537  Y0.0227  
G01 X0.0455  Y0.0227  
G01 X0.0406  Y0.0237  
G01 X0.0360  Y0.0256  
G01 X0.0319  Y0.0284  
G01 X0.0284  Y0.0319  
G00 Z0.3000  
G00 X0.4730  Y0.3464  
G01 Z-0.0070 F5     
G01 X0.4749  Y0.3453  F7     
G01 X0.4939  Y0.3643  
G01 X0.4909  Y0.3643  
G01 X0.4730  Y0.3464  
G00 Z0.3000  
G00 X0.4268  Y0.4420  
G01 Z-0.0070 F5     
G01 X0.4268  Y0.4538  F7     
G01 X0.4250  Y0.4548  
G01 X0.4216  Y0.4528  
G01 X0.4211  Y0.4527  
G01 X0.4206  Y0.4515  
G01 X0.4181  Y0.4477  
G01 X0.4148  Y0.4444  
G01 X0.4112  Y0.4420  
G01 X0.4268  Y0.4420  
G00 Z0.3000  
G00 X0.2767  Y0.5785  
G01 Z-0.0070 F5     
G01 X0.2767  Y0.7080  F7     
G01 X0.2719  Y0.7080  
G01 X0.2724  Y0.7068  
G01 X0.2732  Y0.7023  
G01 X0.2732  Y0.5785  
G01 X0.2750  Y0.5775  
G01 X0.2767  Y0.5785  
G00 Z0.3000  
G00 X0.0245  Y0.0287  
G01 Z-0.0070 F5     
G01 X0.0212  Y0.0337  F7     
G01 X0.0189  Y0.0392  
G01 X0.0177  Y0.0450  
G01 X0.0177  Y1.3420  
G01 X0.0189  Y1.3478  
G01 X0.0212  Y1.3533  
G01 X0.0245  Y1.3583  
G01 X0.0287  Y1.3625  
G01 X0.0337  Y1.3658  
G01 X0.0392  Y1.3681  
G01 X0.0450  Y1.3693  
G01 X0.6542  Y1.3693  
G01 X0.6600  Y1.3681  
G01 X0.6655  Y1.3658  
G01 X0.6705  Y1.3625  
G01 X0.6747  Y1.3583  
G01 X0.6780  Y1.3533  
G01 X0.6803  Y1.3478  
G01 X0.6815  Y1.3420  
G01 X0.6815  Y0.9927  
G01 X0.6815  Y0.9897  
G01 X0.6815  Y0.9867  
G01 X0.6811  Y0.9848  
G01 X0.6803  Y0.9809  
G01 X0.6792  Y0.9782  
G01 X0.6780  Y0.9754  
G01 X0.6760  Y0.9723  
G01 X0.6747  Y0.9704  
G01 X0.6726  Y0.9683  
G01 X0.6716  Y0.9673  
G01 X0.6720  Y0.9653  
G01 X0.6720  Y0.3035  
G01 X0.6709  Y0.2980  
G01 X0.6707  Y0.2974  
G01 X0.6746  Y0.2935  
G01 X0.6780  Y0.2884  
G01 X0.6803  Y0.2829  
G01 X0.6815  Y0.2771  
G01 X0.6815  Y0.0450  
G01 X0.6803  Y0.0392  
G01 X0.6780  Y0.0337  
G01 X0.6747  Y0.0287  
G01 X0.6705  Y0.0245  
G01 X0.6655  Y0.0212  
G01 X0.6600  Y0.0189  
G01 X0.6542  Y0.0177  
G01 X0.0510  Y0.0177  
G01 X0.0450  Y0.0177  
G01 X0.0392  Y0.0189  
G01 X0.0337  Y0.0212  
G01 X0.0287  Y0.0245  
G01 X0.0245  Y0.0287  
G00 Z0.3000  
G00 Z0.5000  
M05
M02
