(.../EagleCAD.Playground/PCB-GCODE/pcb-gcode.ulp)
(Copyright 2005 - 2012 by John Johnson)
(See readme.txt for licensing terms.)
(This file generated from the board:)
(.../IDers Test/SMM Test Jig/revA.brd)
(Current profile is .../EagleCAD.Playground/PCB-GCODE/profiles/mach.pp  )
(This file generated 5/19/2015 7:22:10 PM)
(Settings from pcb-machine.h)
(spindle on time = 3.0000)
(  Tool Size)
(0.0025  )
(spindle speed = 30000.0000)
(tool change at 0.0000  0.0000  3.0000  )
(feed rate xy = F7     )
(feed rate z  = F5     )
(Z Axis Settings)
(  High     Up        Down     Drill)
(0.5000  	0.3000  	-0.0070 	-0.0630 )
(Settings from pcb-defaults.h)
(isolate min = 0.0010)
(isolate max = 0.0200)
(isolate step = 0.0050)
(Generated top outlines, top drill, )
(Unit of measure: inch)
(Inch Mode)
G20
(Absolute Coordinates)
G90
S30000
G00 Z0.5000  
G00 X0.0000  Y0.0000  
M03
G04 P3.000000
G00 Z0.3000  
G00 X0.0418  Y0.0437  
G01 Z-0.0070 F5     
G01 X0.0404  Y0.0460  F7     
G01 X0.0398  Y0.0487  
G01 X0.0398  Y1.2513  
G01 X0.0404  Y1.2540  
G01 X0.0418  Y1.2563  
G01 X0.0437  Y1.2582  
G01 X0.0460  Y1.2596  
G01 X0.0487  Y1.2602  
G01 X1.0013  Y1.2602  
G01 X1.0040  Y1.2596  
G01 X1.0063  Y1.2582  
G01 X1.0082  Y1.2563  
G01 X1.0096  Y1.2540  
G01 X1.0102  Y1.2513  
G01 X1.0102  Y0.0513  
G01 X1.0102  Y0.0487  
G01 X1.0096  Y0.0460  
G01 X1.0082  Y0.0437  
G01 X1.0063  Y0.0418  
G01 X1.0040  Y0.0404  
G01 X1.0013  Y0.0398  
G01 X0.0487  Y0.0398  
G01 X0.0460  Y0.0404  
G01 X0.0437  Y0.0418  
G01 X0.0418  Y0.0437  
G00 Z0.3000  
G00 X0.2797  Y0.3697  
G01 Z-0.0070 F5     
G01 X0.2929  Y0.3642  F7     
G01 X0.3077  Y0.3642  
G01 X0.3079  Y0.3643  
G01 X0.3086  Y0.3643  
G01 X0.3093  Y0.3644  
G01 X0.3099  Y0.3643  
G01 X0.3106  Y0.3643  
G01 X0.3113  Y0.3641  
G01 X0.3119  Y0.3640  
G01 X0.3126  Y0.3638  
G01 X0.3132  Y0.3636  
G01 X0.3138  Y0.3633  
G01 X0.3144  Y0.3630  
G01 X0.3150  Y0.3626  
G01 X0.3156  Y0.3622  
G01 X0.3160  Y0.3618  
G01 X0.3166  Y0.3614  
G01 X0.3170  Y0.3608  
G01 X0.3453  Y0.3325  
G01 X0.3555  Y0.3222  
G01 X0.5355  Y0.3222  
G01 X0.7745  Y0.5613  
G01 X0.7847  Y0.5715  
G01 X0.7847  Y0.9765  
G01 X0.7437  Y1.0175  
G01 X0.7391  Y1.0221  
G01 X0.7378  Y1.0234  
G01 X0.7372  Y1.0240  
G01 X0.7362  Y1.0257  
G01 X0.7358  Y1.0264  
G01 X0.7354  Y1.0280  
G01 X0.7351  Y1.0290  
G01 X0.7351  Y1.0303  
G01 X0.7351  Y1.0317  
G01 X0.7355  Y1.0332  
G01 X0.7357  Y1.0340  
G01 X0.7357  Y1.0648  
G01 X0.7148  Y1.0857  
G01 X0.6840  Y1.0857  
G01 X0.6831  Y1.0855  
G01 X0.6817  Y1.0851  
G01 X0.6803  Y1.0851  
G01 X0.6790  Y1.0851  
G01 X0.6780  Y1.0854  
G01 X0.6764  Y1.0858  
G01 X0.6757  Y1.0862  
G01 X0.6740  Y1.0872  
G01 X0.6734  Y1.0878  
G01 X0.6721  Y1.0891  
G01 X0.6255  Y1.1357  
G01 X0.5715  Y1.1357  
G01 X0.5632  Y1.1274  
G01 X0.4212  Y0.9855  
G01 X0.4212  Y0.6373  
G01 X0.4206  Y0.6347  
G01 X0.4192  Y0.6324  
G01 X0.3265  Y0.5397  
G01 X0.3246  Y0.5378  
G01 X0.3223  Y0.5364  
G01 X0.3197  Y0.5357  
G01 X0.2852  Y0.5357  
G01 X0.2642  Y0.5148  
G01 X0.2642  Y0.4852  
G01 X0.2852  Y0.4642  
G01 X0.3187  Y0.4642  
G01 X0.3213  Y0.4636  
G01 X0.3236  Y0.4622  
G01 X0.3603  Y0.4255  
G01 X0.3622  Y0.4236  
G01 X0.3636  Y0.4213  
G01 X0.3642  Y0.4187  
G01 X0.3642  Y0.3852  
G01 X0.3852  Y0.3642  
G01 X0.4148  Y0.3642  
G01 X0.4357  Y0.3852  
G01 X0.4357  Y0.4148  
G01 X0.4148  Y0.4357  
G01 X0.3833  Y0.4357  
G01 X0.3807  Y0.4364  
G01 X0.3784  Y0.4378  
G01 X0.3545  Y0.4617  
G01 X0.3531  Y0.4640  
G01 X0.3524  Y0.4667  
G01 X0.3524  Y0.4693  
G01 X0.3531  Y0.4720  
G01 X0.3545  Y0.4743  
G01 X0.3564  Y0.4762  
G01 X0.3566  Y0.4764  
G01 X0.3585  Y0.4783  
G01 X0.3609  Y0.4797  
G01 X0.3635  Y0.4804  
G01 X0.3662  Y0.4804  
G01 X0.3688  Y0.4797  
G01 X0.3711  Y0.4783  
G01 X0.3852  Y0.4642  
G01 X0.4177  Y0.4642  
G01 X0.4203  Y0.4636  
G01 X0.4226  Y0.4622  
G01 X0.4296  Y0.4552  
G01 X0.4603  Y0.4245  
G01 X0.4622  Y0.4226  
G01 X0.4636  Y0.4203  
G01 X0.4642  Y0.4177  
G01 X0.4642  Y0.3852  
G01 X0.4852  Y0.3642  
G01 X0.5148  Y0.3642  
G01 X0.5357  Y0.3852  
G01 X0.5357  Y0.4148  
G01 X0.5148  Y0.4357  
G01 X0.4823  Y0.4357  
G01 X0.4797  Y0.4364  
G01 X0.4774  Y0.4378  
G01 X0.4554  Y0.4598  
G01 X0.4535  Y0.4617  
G01 X0.4521  Y0.4640  
G01 X0.4514  Y0.4667  
G01 X0.4514  Y0.4693  
G01 X0.4521  Y0.4720  
G01 X0.4531  Y0.4736  
G01 X0.4535  Y0.4743  
G01 X0.4580  Y0.4788  
G01 X0.4604  Y0.4802  
G01 X0.4630  Y0.4809  
G01 X0.4657  Y0.4809  
G01 X0.4671  Y0.4805  
G01 X0.4683  Y0.4802  
G01 X0.4685  Y0.4800  
G01 X0.4706  Y0.4788  
G01 X0.4725  Y0.4769  
G01 X0.4852  Y0.4642  
G01 X0.5148  Y0.4642  
G01 X0.5357  Y0.4852  
G01 X0.5357  Y0.5148  
G01 X0.5187  Y0.5319  
G01 X0.5168  Y0.5338  
G01 X0.5154  Y0.5361  
G01 X0.5147  Y0.5387  
G01 X0.5147  Y0.6497  
G01 X0.5154  Y0.6523  
G01 X0.5168  Y0.6546  
G01 X0.6726  Y0.8104  
G01 X0.6736  Y0.8114  
G01 X0.6745  Y0.8123  
G01 X0.6757  Y0.8130  
G01 X0.6769  Y0.8137  
G01 X0.6781  Y0.8140  
G01 X0.6795  Y0.8144  
G01 X0.6808  Y0.8144  
G01 X0.6822  Y0.8144  
G01 X0.6826  Y0.8142  
G01 X0.7148  Y0.8142  
G01 X0.7357  Y0.8352  
G01 X0.7357  Y0.8648  
G01 X0.7148  Y0.8857  
G01 X0.6852  Y0.8857  
G01 X0.6642  Y0.8648  
G01 X0.6642  Y0.8353  
G01 X0.6636  Y0.8327  
G01 X0.6622  Y0.8304  
G01 X0.5152  Y0.6834  
G01 X0.5133  Y0.6815  
G01 X0.5110  Y0.6801  
G01 X0.5083  Y0.6794  
G01 X0.5057  Y0.6794  
G01 X0.5030  Y0.6801  
G01 X0.5007  Y0.6815  
G01 X0.4988  Y0.6834  
G01 X0.4974  Y0.6857  
G01 X0.4967  Y0.6883  
G01 X0.4967  Y0.7127  
G01 X0.4974  Y0.7153  
G01 X0.4988  Y0.7176  
G01 X0.5915  Y0.8103  
G01 X0.5934  Y0.8122  
G01 X0.5957  Y0.8136  
G01 X0.5983  Y0.8142  
G01 X0.6148  Y0.8142  
G01 X0.6357  Y0.8352  
G01 X0.6357  Y0.8648  
G01 X0.6202  Y0.8804  
G01 X0.6188  Y0.8827  
G01 X0.6181  Y0.8853  
G01 X0.6181  Y0.8880  
G01 X0.6188  Y0.8906  
G01 X0.6202  Y0.8930  
G01 X0.6221  Y0.8949  
G01 X0.6551  Y0.9279  
G01 X0.6570  Y0.9298  
G01 X0.6594  Y0.9312  
G01 X0.6620  Y0.9319  
G01 X0.6647  Y0.9319  
G01 X0.6673  Y0.9312  
G01 X0.6696  Y0.9298  
G01 X0.6852  Y0.9142  
G01 X0.7148  Y0.9142  
G01 X0.7357  Y0.9352  
G01 X0.7357  Y0.9648  
G01 X0.7221  Y0.9785  
G01 X0.7202  Y0.9804  
G01 X0.7188  Y0.9827  
G01 X0.7181  Y0.9853  
G01 X0.7181  Y0.9880  
G01 X0.7188  Y0.9906  
G01 X0.7202  Y0.9930  
G01 X0.7214  Y0.9942  
G01 X0.7227  Y0.9955  
G01 X0.7250  Y0.9969  
G01 X0.7277  Y0.9976  
G01 X0.7303  Y0.9976  
G01 X0.7330  Y0.9969  
G01 X0.7353  Y0.9955  
G01 X0.7612  Y0.9696  
G01 X0.7626  Y0.9673  
G01 X0.7632  Y0.9647  
G01 X0.7632  Y0.5833  
G01 X0.7626  Y0.5807  
G01 X0.7612  Y0.5784  
G01 X0.5305  Y0.3477  
G01 X0.5286  Y0.3458  
G01 X0.5263  Y0.3444  
G01 X0.5237  Y0.3437  
G01 X0.3673  Y0.3437  
G01 X0.3647  Y0.3444  
G01 X0.3624  Y0.3458  
G01 X0.3351  Y0.3731  
G01 X0.3345  Y0.3735  
G01 X0.3341  Y0.3741  
G01 X0.3337  Y0.3745  
G01 X0.3333  Y0.3751  
G01 X0.3329  Y0.3757  
G01 X0.3326  Y0.3763  
G01 X0.3323  Y0.3769  
G01 X0.3321  Y0.3775  
G01 X0.3319  Y0.3782  
G01 X0.3318  Y0.3788  
G01 X0.3316  Y0.3795  
G01 X0.3316  Y0.3802  
G01 X0.3315  Y0.3808  
G01 X0.3316  Y0.3815  
G01 X0.3316  Y0.3822  
G01 X0.3318  Y0.3828  
G01 X0.3319  Y0.3835  
G01 X0.3321  Y0.3841  
G01 X0.3323  Y0.3848  
G01 X0.3326  Y0.3854  
G01 X0.3357  Y0.3929  
G01 X0.3357  Y0.4071  
G01 X0.3303  Y0.4203  
G01 X0.3203  Y0.4303  
G01 X0.3071  Y0.4357  
G01 X0.2929  Y0.4357  
G01 X0.2797  Y0.4303  
G01 X0.2697  Y0.4203  
G01 X0.2642  Y0.4071  
G01 X0.2642  Y0.3929  
G01 X0.2697  Y0.3797  
G01 X0.2797  Y0.3697  
G00 Z0.3000  
G00 X0.2794  Y0.3749  
G01 Z-0.0070 F5     
G01 X0.2749  Y0.3794  F7     
G01 X0.2714  Y0.3847  
G01 X0.2690  Y0.3906  
G01 X0.2677  Y0.3968  
G01 X0.2677  Y0.4032  
G01 X0.2690  Y0.4094  
G01 X0.2714  Y0.4153  
G01 X0.2749  Y0.4206  
G01 X0.2794  Y0.4251  
G01 X0.2847  Y0.4286  
G01 X0.2906  Y0.4310  
G01 X0.2968  Y0.4322  
G01 X0.3032  Y0.4322  
G01 X0.3094  Y0.4310  
G01 X0.3153  Y0.4286  
G01 X0.3206  Y0.4251  
G01 X0.3251  Y0.4206  
G01 X0.3286  Y0.4153  
G01 X0.3310  Y0.4094  
G01 X0.3322  Y0.4032  
G01 X0.3322  Y0.3968  
G01 X0.3310  Y0.3906  
G01 X0.3286  Y0.3847  
G01 X0.3251  Y0.3794  
G01 X0.3244  Y0.3788  
G01 X0.3630  Y0.3402  
G01 X0.5280  Y0.3402  
G01 X0.7668  Y0.5790  
G01 X0.7668  Y0.9690  
G01 X0.7290  Y1.0067  
G01 X0.7171  Y0.9949  
G01 X0.7151  Y0.9929  
G01 X0.7124  Y0.9918  
G01 X0.6870  Y0.9918  
G01 X0.6721  Y0.9769  
G01 X0.6701  Y0.9749  
G01 X0.6674  Y0.9738  
G01 X0.6646  Y0.9738  
G01 X0.6619  Y0.9749  
G01 X0.6153  Y1.0214  
G01 X0.6094  Y1.0190  
G01 X0.6032  Y1.0177  
G01 X0.5968  Y1.0177  
G01 X0.5906  Y1.0190  
G01 X0.5847  Y1.0214  
G01 X0.5794  Y1.0249  
G01 X0.5749  Y1.0294  
G01 X0.5714  Y1.0347  
G01 X0.5690  Y1.0406  
G01 X0.5677  Y1.0468  
G01 X0.5677  Y1.0532  
G01 X0.5690  Y1.0594  
G01 X0.5714  Y1.0653  
G01 X0.5749  Y1.0706  
G01 X0.5794  Y1.0751  
G01 X0.5847  Y1.0786  
G01 X0.5906  Y1.0810  
G01 X0.5968  Y1.0822  
G01 X0.6032  Y1.0822  
G01 X0.6094  Y1.0810  
G01 X0.6153  Y1.0786  
G01 X0.6206  Y1.0751  
G01 X0.6251  Y1.0706  
G01 X0.6286  Y1.0653  
G01 X0.6310  Y1.0594  
G01 X0.6322  Y1.0532  
G01 X0.6322  Y1.0468  
G01 X0.6310  Y1.0406  
G01 X0.6286  Y1.0347  
G01 X0.6262  Y1.0311  
G01 X0.6660  Y0.9913  
G01 X0.6799  Y1.0051  
G01 X0.6826  Y1.0062  
G01 X0.7080  Y1.0062  
G01 X0.7249  Y1.0231  
G01 X0.7276  Y1.0242  
G01 X0.7304  Y1.0242  
G01 X0.7331  Y1.0231  
G01 X0.7351  Y1.0211  
G01 X0.7801  Y0.9761  
G01 X0.7812  Y0.9734  
G01 X0.7812  Y0.5746  
G01 X0.7801  Y0.5719  
G01 X0.7781  Y0.5699  
G01 X0.5351  Y0.3269  
G01 X0.5324  Y0.3257  
G01 X0.3586  Y0.3257  
G01 X0.3559  Y0.3269  
G01 X0.3539  Y0.3289  
G01 X0.3125  Y0.3703  
G01 X0.3094  Y0.3690  
G01 X0.3032  Y0.3678  
G01 X0.2968  Y0.3678  
G01 X0.2906  Y0.3690  
G01 X0.2847  Y0.3714  
G01 X0.2794  Y0.3749  
G00 Z0.3000  
G00 X0.3678  Y0.3866  
G01 Z-0.0070 F5     
G01 X0.3678  Y0.4134  F7     
G01 X0.3726  Y0.4182  
G01 X0.3289  Y0.4619  
G01 X0.3269  Y0.4639  
G01 X0.3257  Y0.4666  
G01 X0.3257  Y0.4694  
G01 X0.3269  Y0.4721  
G01 X0.3438  Y0.4890  
G01 X0.3438  Y0.5144  
G01 X0.3449  Y0.5171  
G01 X0.4427  Y0.6150  
G01 X0.4427  Y0.8114  
G01 X0.4439  Y0.8141  
G01 X0.5677  Y0.9380  
G01 X0.5677  Y0.9634  
G01 X0.5866  Y0.9822  
G01 X0.6134  Y0.9822  
G01 X0.6322  Y0.9634  
G01 X0.6322  Y0.9366  
G01 X0.6134  Y0.9177  
G01 X0.5866  Y0.9177  
G01 X0.5773  Y0.9271  
G01 X0.4572  Y0.8070  
G01 X0.4572  Y0.6106  
G01 X0.4561  Y0.6079  
G01 X0.4541  Y0.6059  
G01 X0.3582  Y0.5100  
G01 X0.3582  Y0.4846  
G01 X0.3571  Y0.4819  
G01 X0.3551  Y0.4799  
G01 X0.3433  Y0.4680  
G01 X0.3828  Y0.4284  
G01 X0.3866  Y0.4322  
G01 X0.4134  Y0.4322  
G01 X0.4322  Y0.4134  
G01 X0.4322  Y0.3866  
G01 X0.4134  Y0.3678  
G01 X0.3866  Y0.3678  
G01 X0.3678  Y0.3866  
G00 Z0.3000  
G00 X0.4677  Y0.3866  
G01 Z-0.0070 F5     
G01 X0.4677  Y0.4134  F7     
G01 X0.4721  Y0.4177  
G01 X0.4279  Y0.4619  
G01 X0.4259  Y0.4639  
G01 X0.4248  Y0.4666  
G01 X0.4248  Y0.4694  
G01 X0.4259  Y0.4721  
G01 X0.4427  Y0.4890  
G01 X0.4427  Y0.5100  
G01 X0.4279  Y0.5249  
G01 X0.4259  Y0.5269  
G01 X0.4248  Y0.5296  
G01 X0.4248  Y0.5414  
G01 X0.4259  Y0.5441  
G01 X0.4788  Y0.5970  
G01 X0.4788  Y0.7214  
G01 X0.4799  Y0.7241  
G01 X0.5801  Y0.8243  
G01 X0.5677  Y0.8366  
G01 X0.5677  Y0.8634  
G01 X0.5866  Y0.8822  
G01 X0.6134  Y0.8822  
G01 X0.6322  Y0.8634  
G01 X0.6322  Y0.8366  
G01 X0.6134  Y0.8177  
G01 X0.5940  Y0.8177  
G01 X0.4932  Y0.7170  
G01 X0.4932  Y0.5926  
G01 X0.4921  Y0.5899  
G01 X0.4901  Y0.5879  
G01 X0.4392  Y0.5370  
G01 X0.4392  Y0.5340  
G01 X0.4561  Y0.5171  
G01 X0.4572  Y0.5144  
G01 X0.4572  Y0.4846  
G01 X0.4561  Y0.4819  
G01 X0.4541  Y0.4799  
G01 X0.4423  Y0.4680  
G01 X0.4823  Y0.4279  
G01 X0.4866  Y0.4322  
G01 X0.5134  Y0.4322  
G01 X0.5322  Y0.4134  
G01 X0.5322  Y0.3866  
G01 X0.5134  Y0.3678  
G01 X0.4866  Y0.3678  
G01 X0.4677  Y0.3866  
G00 Z0.3000  
G00 X0.4677  Y0.4866  
G01 Z-0.0070 F5     
G01 X0.4677  Y0.5134  F7     
G01 X0.4866  Y0.5322  
G01 X0.4968  Y0.5322  
G01 X0.4968  Y0.6584  
G01 X0.4979  Y0.6611  
G01 X0.6706  Y0.8338  
G01 X0.6677  Y0.8366  
G01 X0.6677  Y0.8634  
G01 X0.6866  Y0.8822  
G01 X0.7134  Y0.8822  
G01 X0.7322  Y0.8634  
G01 X0.7322  Y0.8366  
G01 X0.7134  Y0.8177  
G01 X0.6866  Y0.8177  
G01 X0.6808  Y0.8236  
G01 X0.5112  Y0.6540  
G01 X0.5112  Y0.5322  
G01 X0.5134  Y0.5322  
G01 X0.5322  Y0.5134  
G01 X0.5322  Y0.4866  
G01 X0.5134  Y0.4677  
G01 X0.4866  Y0.4677  
G01 X0.4677  Y0.4866  
G00 Z0.3000  
G00 X0.4678  Y0.5193  
G01 Z-0.0070 F5     
G01 X0.4652  Y0.5186  F7     
G01 X0.4625  Y0.5186  
G01 X0.4599  Y0.5193  
G01 X0.4576  Y0.5206  
G01 X0.4509  Y0.5273  
G01 X0.4505  Y0.5277  
G01 X0.4490  Y0.5292  
G01 X0.4476  Y0.5315  
G01 X0.4469  Y0.5342  
G01 X0.4469  Y0.5368  
G01 X0.4476  Y0.5395  
G01 X0.4490  Y0.5418  
G01 X0.4748  Y0.5676  
G01 X0.4767  Y0.5695  
G01 X0.4790  Y0.5709  
G01 X0.4817  Y0.5716  
G01 X0.4843  Y0.5716  
G01 X0.4870  Y0.5709  
G01 X0.4893  Y0.5695  
G01 X0.4912  Y0.5676  
G01 X0.4926  Y0.5653  
G01 X0.4932  Y0.5627  
G01 X0.4932  Y0.5447  
G01 X0.4926  Y0.5420  
G01 X0.4912  Y0.5397  
G01 X0.4893  Y0.5378  
G01 X0.4870  Y0.5364  
G01 X0.4855  Y0.5361  
G01 X0.4720  Y0.5226  
G01 X0.4701  Y0.5207  
G01 X0.4678  Y0.5193  
G00 Z0.3000  
G00 X0.4322  Y0.5134  
G01 Z-0.0070 F5     
G01 X0.4322  Y0.4866  F7     
G01 X0.4134  Y0.4677  
G01 X0.3866  Y0.4677  
G01 X0.3678  Y0.4866  
G01 X0.3678  Y0.5134  
G01 X0.3866  Y0.5322  
G01 X0.3887  Y0.5322  
G01 X0.3887  Y0.5324  
G01 X0.3899  Y0.5351  
G01 X0.4607  Y0.6060  
G01 X0.4607  Y0.7844  
G01 X0.4619  Y0.7871  
G01 X0.5789  Y0.9041  
G01 X0.5809  Y0.9061  
G01 X0.5836  Y0.9072  
G01 X0.6090  Y0.9072  
G01 X0.6599  Y0.9581  
G01 X0.6619  Y0.9601  
G01 X0.6646  Y0.9612  
G01 X0.6677  Y0.9612  
G01 X0.6677  Y0.9634  
G01 X0.6866  Y0.9822  
G01 X0.7134  Y0.9822  
G01 X0.7322  Y0.9634  
G01 X0.7322  Y0.9366  
G01 X0.7134  Y0.9177  
G01 X0.6866  Y0.9177  
G01 X0.6677  Y0.9366  
G01 X0.6677  Y0.9455  
G01 X0.6161  Y0.8939  
G01 X0.6134  Y0.8928  
G01 X0.5880  Y0.8928  
G01 X0.4752  Y0.7800  
G01 X0.4752  Y0.6016  
G01 X0.4741  Y0.5989  
G01 X0.4721  Y0.5969  
G01 X0.4075  Y0.5322  
G01 X0.4134  Y0.5322  
G01 X0.4322  Y0.5134  
G00 Z0.3000  
G00 X0.3322  Y0.5134  
G01 Z-0.0070 F5     
G01 X0.3322  Y0.4866  F7     
G01 X0.3134  Y0.4677  
G01 X0.2866  Y0.4677  
G01 X0.2677  Y0.4866  
G01 X0.2677  Y0.5134  
G01 X0.2866  Y0.5322  
G01 X0.3134  Y0.5322  
G01 X0.3187  Y0.5269  
G01 X0.4248  Y0.6330  
G01 X0.4248  Y0.9824  
G01 X0.4259  Y0.9851  
G01 X0.5699  Y1.1291  
G01 X0.5719  Y1.1311  
G01 X0.5746  Y1.1322  
G01 X0.6224  Y1.1322  
G01 X0.6251  Y1.1311  
G01 X0.6803  Y1.0759  
G01 X0.6866  Y1.0822  
G01 X0.7134  Y1.0822  
G01 X0.7322  Y1.0634  
G01 X0.7322  Y1.0366  
G01 X0.7134  Y1.0177  
G01 X0.6866  Y1.0177  
G01 X0.6677  Y1.0366  
G01 X0.6677  Y1.0634  
G01 X0.6701  Y1.0657  
G01 X0.6180  Y1.1178  
G01 X0.5790  Y1.1178  
G01 X0.4392  Y0.9780  
G01 X0.4392  Y0.6286  
G01 X0.4381  Y0.6259  
G01 X0.4361  Y0.6239  
G01 X0.3289  Y0.5167  
G01 X0.3322  Y0.5134  
G00 Z0.3000  
G00 X0.4808  Y0.7464  
G01 Z-0.0070 F5     
G01 X0.4794  Y0.7487  F7     
G01 X0.4787  Y0.7513  
G01 X0.4787  Y0.7757  
G01 X0.4794  Y0.7783  
G01 X0.4808  Y0.7806  
G01 X0.5458  Y0.8456  
G01 X0.5477  Y0.8475  
G01 X0.5500  Y0.8489  
G01 X0.5527  Y0.8496  
G01 X0.5553  Y0.8496  
G01 X0.5580  Y0.8489  
G01 X0.5603  Y0.8475  
G01 X0.5622  Y0.8456  
G01 X0.5636  Y0.8433  
G01 X0.5642  Y0.8407  
G01 X0.5642  Y0.8352  
G01 X0.5688  Y0.8306  
G01 X0.5702  Y0.8283  
G01 X0.5709  Y0.8257  
G01 X0.5709  Y0.8230  
G01 X0.5702  Y0.8204  
G01 X0.5697  Y0.8195  
G01 X0.5688  Y0.8180  
G01 X0.5669  Y0.8161  
G01 X0.4972  Y0.7464  
G01 X0.4953  Y0.7445  
G01 X0.4930  Y0.7431  
G01 X0.4903  Y0.7424  
G01 X0.4877  Y0.7424  
G01 X0.4850  Y0.7431  
G01 X0.4827  Y0.7445  
G01 X0.4808  Y0.7464  
G00 Z0.3000  
G00 X0.4593  Y0.8345  
G01 Z-0.0070 F5     
G01 X0.4570  Y0.8331  F7     
G01 X0.4543  Y0.8324  
G01 X0.4517  Y0.8324  
G01 X0.4490  Y0.8331  
G01 X0.4467  Y0.8345  
G01 X0.4448  Y0.8364  
G01 X0.4434  Y0.8387  
G01 X0.4427  Y0.8413  
G01 X0.4427  Y0.9737  
G01 X0.4434  Y0.9763  
G01 X0.4448  Y0.9786  
G01 X0.5765  Y1.1103  
G01 X0.5784  Y1.1122  
G01 X0.5807  Y1.1136  
G01 X0.5833  Y1.1142  
G01 X0.6137  Y1.1142  
G01 X0.6163  Y1.1136  
G01 X0.6186  Y1.1122  
G01 X0.6603  Y1.0705  
G01 X0.6622  Y1.0686  
G01 X0.6636  Y1.0663  
G01 X0.6642  Y1.0637  
G01 X0.6642  Y1.0352  
G01 X0.6764  Y1.0230  
G01 X0.6783  Y1.0211  
G01 X0.6797  Y1.0188  
G01 X0.6804  Y1.0162  
G01 X0.6804  Y1.0135  
G01 X0.6797  Y1.0109  
G01 X0.6783  Y1.0085  
G01 X0.6772  Y1.0074  
G01 X0.6742  Y1.0044  
G01 X0.6734  Y1.0036  
G01 X0.6723  Y1.0025  
G01 X0.6700  Y1.0011  
G01 X0.6673  Y1.0004  
G01 X0.6647  Y1.0004  
G01 X0.6620  Y1.0011  
G01 X0.6597  Y1.0025  
G01 X0.6363  Y1.0259  
G01 X0.6357  Y1.0264  
G01 X0.6353  Y1.0269  
G01 X0.6348  Y1.0274  
G01 X0.6345  Y1.0280  
G01 X0.6341  Y1.0285  
G01 X0.6338  Y1.0291  
G01 X0.6335  Y1.0297  
G01 X0.6333  Y1.0304  
G01 X0.6330  Y1.0310  
G01 X0.6330  Y1.0317  
G01 X0.6328  Y1.0323  
G01 X0.6328  Y1.0330  
G01 X0.6327  Y1.0337  
G01 X0.6328  Y1.0343  
G01 X0.6328  Y1.0350  
G01 X0.6330  Y1.0357  
G01 X0.6330  Y1.0363  
G01 X0.6333  Y1.0370  
G01 X0.6335  Y1.0376  
G01 X0.6338  Y1.0382  
G01 X0.6357  Y1.0429  
G01 X0.6357  Y1.0571  
G01 X0.6303  Y1.0703  
G01 X0.6203  Y1.0803  
G01 X0.6071  Y1.0857  
G01 X0.5929  Y1.0857  
G01 X0.5797  Y1.0803  
G01 X0.5697  Y1.0703  
G01 X0.5642  Y1.0571  
G01 X0.5642  Y1.0429  
G01 X0.5697  Y1.0297  
G01 X0.5797  Y1.0197  
G01 X0.5929  Y1.0142  
G01 X0.6071  Y1.0142  
G01 X0.6075  Y1.0144  
G01 X0.6081  Y1.0148  
G01 X0.6088  Y1.0149  
G01 X0.6094  Y1.0152  
G01 X0.6101  Y1.0153  
G01 X0.6107  Y1.0155  
G01 X0.6114  Y1.0155  
G01 X0.6121  Y1.0156  
G01 X0.6128  Y1.0155  
G01 X0.6134  Y1.0155  
G01 X0.6141  Y1.0153  
G01 X0.6148  Y1.0152  
G01 X0.6154  Y1.0149  
G01 X0.6160  Y1.0148  
G01 X0.6166  Y1.0144  
G01 X0.6173  Y1.0142  
G01 X0.6178  Y1.0138  
G01 X0.6184  Y1.0134  
G01 X0.6189  Y1.0129  
G01 X0.6194  Y1.0125  
G01 X0.6198  Y1.0120  
G01 X0.6574  Y0.9744  
G01 X0.6580  Y0.9738  
G01 X0.6594  Y0.9715  
G01 X0.6600  Y0.9689  
G01 X0.6601  Y0.9662  
G01 X0.6594  Y0.9635  
G01 X0.6580  Y0.9612  
G01 X0.6542  Y0.9574  
G01 X0.6523  Y0.9555  
G01 X0.6500  Y0.9541  
G01 X0.6473  Y0.9534  
G01 X0.6447  Y0.9534  
G01 X0.6420  Y0.9541  
G01 X0.6397  Y0.9555  
G01 X0.6378  Y0.9574  
G01 X0.6364  Y0.9597  
G01 X0.6357  Y0.9623  
G01 X0.6357  Y0.9648  
G01 X0.6148  Y0.9857  
G01 X0.5852  Y0.9857  
G01 X0.5642  Y0.9648  
G01 X0.5642  Y0.9423  
G01 X0.5636  Y0.9397  
G01 X0.5622  Y0.9374  
G01 X0.4612  Y0.8364  
G01 X0.4593  Y0.8345  
G00 Z0.3000  
G00 X0.7463  Y0.3359  
G01 Z-0.0070 F5     
G01 X0.7367  Y0.3126  F7     
G01 X0.7367  Y0.2874  
G01 X0.7463  Y0.2641  
G01 X0.7641  Y0.2463  
G01 X0.7874  Y0.2367  
G01 X0.8126  Y0.2367  
G01 X0.8359  Y0.2463  
G01 X0.8537  Y0.2641  
G01 X0.8633  Y0.2874  
G01 X0.8633  Y0.3126  
G01 X0.8537  Y0.3359  
G01 X0.8359  Y0.3537  
G01 X0.8126  Y0.3633  
G01 X0.7874  Y0.3633  
G01 X0.7641  Y0.3537  
G01 X0.7463  Y0.3359  
G00 Z0.3000  
G00 X0.0378  Y0.0406  
G01 Z-0.0070 F5     
G01 X0.0358  Y0.0441  F7     
G01 X0.0348  Y0.0480  
G01 X0.0348  Y1.2520  
G01 X0.0358  Y1.2559  
G01 X0.0378  Y1.2594  
G01 X0.0406  Y1.2622  
G01 X0.0441  Y1.2642  
G01 X0.0480  Y1.2652  
G01 X1.0020  Y1.2652  
G01 X1.0059  Y1.2642  
G01 X1.0094  Y1.2622  
G01 X1.0122  Y1.2594  
G01 X1.0142  Y1.2559  
G01 X1.0152  Y1.2520  
G01 X1.0152  Y0.0520  
G01 X1.0152  Y0.0480  
G01 X1.0142  Y0.0441  
G01 X1.0122  Y0.0406  
G01 X1.0094  Y0.0378  
G01 X1.0059  Y0.0358  
G01 X1.0020  Y0.0348  
G01 X0.0480  Y0.0348  
G01 X0.0441  Y0.0358  
G01 X0.0406  Y0.0378  
G01 X0.0378  Y0.0406  
G00 Z0.3000  
G00 X0.3372  Y0.4896  
G01 Z-0.0070 F5     
G01 X0.3387  Y0.4911  F7     
G01 X0.3387  Y0.5146  
G01 X0.3396  Y0.5177  
G01 X0.3412  Y0.5205  
G01 X0.4377  Y0.6171  
G01 X0.4377  Y0.6184  
G01 X0.3360  Y0.5167  
G01 X0.3372  Y0.5154  
G01 X0.3372  Y0.4896  
G00 Z0.3000  
G00 X0.4372  Y0.4906  
G01 Z-0.0070 F5     
G01 X0.4377  Y0.4911  F7     
G01 X0.4377  Y0.5079  
G01 X0.4372  Y0.5084  
G01 X0.4372  Y0.4906  
G00 Z0.3000  
G00 X0.4622  Y0.4859  
G01 Z-0.0070 F5     
G01 X0.4623  Y0.4859  F7     
G01 X0.4627  Y0.4859  
G01 X0.4627  Y0.5136  
G01 X0.4622  Y0.5136  
G01 X0.4622  Y0.5114  
G01 X0.4622  Y0.4859  
G00 Z0.3000  
G00 X0.4198  Y0.5329  
G01 Z-0.0070 F5     
G01 X0.4198  Y0.5374  F7     
G01 X0.4175  Y0.5352  
G01 X0.4198  Y0.5329  
G00 Z0.3000  
G00 X0.4857  Y0.5764  
G01 Z-0.0070 F5     
G01 X0.4889  Y0.5755  F7     
G01 X0.4890  Y0.5755  
G01 X0.4918  Y0.5739  
G01 X0.4918  Y0.5824  
G01 X0.4857  Y0.5764  
G00 Z0.3000  
G00 X0.4982  Y0.6686  
G01 Z-0.0070 F5     
G01 X0.5043  Y0.6746  F7     
G01 X0.5011  Y0.6755  
G01 X0.4982  Y0.6771  
G01 X0.4982  Y0.6686  
G00 Z0.3000  
G00 X0.4802  Y0.7316  
G01 Z-0.0070 F5     
G01 X0.4863  Y0.7376  F7     
G01 X0.4831  Y0.7385  
G01 X0.4802  Y0.7401  
G01 X0.4802  Y0.7316  
G00 Z0.3000  
G00 X0.4622  Y0.7946  
G01 Z-0.0070 F5     
G01 X0.5752  Y0.9075  F7     
G01 X0.5775  Y0.9098  
G01 X0.5803  Y0.9114  
G01 X0.5834  Y0.9122  
G01 X0.6069  Y0.9122  
G01 X0.6074  Y0.9127  
G01 X0.5846  Y0.9127  
G01 X0.5773  Y0.9200  
G01 X0.4622  Y0.8049  
G01 X0.4622  Y0.7946  
G00 Z0.3000  
G00 X0.4442  Y0.8216  
G01 Z-0.0070 F5     
G01 X0.4503  Y0.8276  F7     
G01 X0.4471  Y0.8285  
G01 X0.4442  Y0.8301  
G01 X0.4442  Y0.8216  
G00 Z0.3000  
G00 X0.5567  Y0.8544  
G01 Z-0.0070 F5     
G01 X0.5599  Y0.8535  F7     
G01 X0.5627  Y0.8519  
G01 X0.5627  Y0.8604  
G01 X0.5567  Y0.8544  
G00 Z0.3000  
G00 X0.5896  Y0.8872  
G01 Z-0.0070 F5     
G01 X0.6131  Y0.8872  F7     
G01 X0.6131  Y0.8878  
G01 X0.5901  Y0.8878  
G01 X0.5896  Y0.8872  
G00 Z0.3000  
G00 X0.6372  Y0.9426  
G01 Z-0.0070 F5     
G01 X0.6433  Y0.9486  F7     
G01 X0.6401  Y0.9495  
G01 X0.6372  Y0.9511  
G01 X0.6372  Y0.9426  
G00 Z0.3000  
G00 X0.6651  Y0.9677  
G01 Z-0.0070 F5     
G01 X0.6661  Y0.9688  F7     
G01 X0.6651  Y0.9688  
G01 X0.6651  Y0.9677  
G00 Z0.3000  
G00 X0.6850  Y1.0112  
G01 Z-0.0070 F5     
G01 X0.7059  Y1.0112  F7     
G01 X0.7074  Y1.0128  
G01 X0.6854  Y1.0128  
G01 X0.6851  Y1.0118  
G01 X0.6850  Y1.0112  
G00 Z0.3000  
G00 X0.7505  Y0.3330  
G01 Z-0.0070 F5     
G01 X0.7417  Y0.3116  F7     
G01 X0.7417  Y0.2884  
G01 X0.7505  Y0.2670  
G01 X0.7670  Y0.2505  
G01 X0.7884  Y0.2417  
G01 X0.8116  Y0.2417  
G01 X0.8330  Y0.2505  
G01 X0.8495  Y0.2670  
G01 X0.8583  Y0.2884  
G01 X0.8583  Y0.3116  
G01 X0.8495  Y0.3330  
G01 X0.8330  Y0.3495  
G01 X0.8116  Y0.3583  
G01 X0.7884  Y0.3583  
G01 X0.7670  Y0.3495  
G01 X0.7505  Y0.3330  
G00 Z0.3000  
G00 X0.0338  Y0.0376  
G01 Z-0.0070 F5     
G01 X0.0311  Y0.0422  F7     
G01 X0.0297  Y0.0473  
G01 X0.0297  Y1.2527  
G01 X0.0311  Y1.2578  
G01 X0.0338  Y1.2624  
G01 X0.0376  Y1.2662  
G01 X0.0422  Y1.2689  
G01 X0.0473  Y1.2702  
G01 X1.0027  Y1.2702  
G01 X1.0078  Y1.2689  
G01 X1.0124  Y1.2662  
G01 X1.0162  Y1.2624  
G01 X1.0189  Y1.2578  
G01 X1.0202  Y1.2527  
G01 X1.0202  Y0.0527  
G01 X1.0202  Y0.0473  
G01 X1.0189  Y0.0422  
G01 X1.0162  Y0.0376  
G01 X1.0124  Y0.0338  
G01 X1.0078  Y0.0311  
G01 X1.0027  Y0.0297  
G01 X0.0473  Y0.0297  
G01 X0.0422  Y0.0311  
G01 X0.0376  Y0.0338  
G01 X0.0338  Y0.0376  
G00 Z0.3000  
G00 X0.7698  Y0.2548  
G01 Z-0.0070 F5     
G01 X0.7894  Y0.2467  F7     
G01 X0.8106  Y0.2467  
G01 X0.8302  Y0.2548  
G01 X0.8452  Y0.2698  
G01 X0.8533  Y0.2894  
G01 X0.8533  Y0.3106  
G01 X0.8452  Y0.3302  
G01 X0.8302  Y0.3452  
G01 X0.8106  Y0.3533  
G01 X0.7894  Y0.3533  
G01 X0.7698  Y0.3452  
G01 X0.7548  Y0.3302  
G01 X0.7467  Y0.3106  
G01 X0.7467  Y0.2894  
G01 X0.7548  Y0.2698  
G01 X0.7698  Y0.2548  
G00 Z0.3000  
G00 X0.0304  Y0.0339  
G01 Z-0.0070 F5     
G01 X0.0276  Y0.0380  F7     
G01 X0.0257  Y0.0426  
G01 X0.0248  Y0.0475  
G01 X0.0248  Y1.2525  
G01 X0.0257  Y1.2574  
G01 X0.0276  Y1.2620  
G01 X0.0304  Y1.2661  
G01 X0.0339  Y1.2696  
G01 X0.0380  Y1.2724  
G01 X0.0426  Y1.2743  
G01 X0.0475  Y1.2752  
G01 X1.0025  Y1.2752  
G01 X1.0074  Y1.2743  
G01 X1.0120  Y1.2724  
G01 X1.0161  Y1.2696  
G01 X1.0196  Y1.2661  
G01 X1.0224  Y1.2620  
G01 X1.0243  Y1.2574  
G01 X1.0252  Y1.2525  
G01 X1.0252  Y0.0525  
G01 X1.0252  Y0.0475  
G01 X1.0243  Y0.0426  
G01 X1.0224  Y0.0380  
G01 X1.0196  Y0.0339  
G01 X1.0161  Y0.0304  
G01 X1.0120  Y0.0276  
G01 X1.0074  Y0.0257  
G01 X1.0025  Y0.0248  
G01 X0.0475  Y0.0248  
G01 X0.0426  Y0.0257  
G01 X0.0380  Y0.0276  
G01 X0.0339  Y0.0304  
G01 X0.0304  Y0.0339  
G00 Z0.3000  
G00 X0.7726  Y0.2590  
G01 Z-0.0070 F5     
G01 X0.7904  Y0.2517  F7     
G01 X0.8096  Y0.2517  
G01 X0.8274  Y0.2590  
G01 X0.8410  Y0.2726  
G01 X0.8483  Y0.2904  
G01 X0.8483  Y0.3096  
G01 X0.8410  Y0.3274  
G01 X0.8274  Y0.3410  
G01 X0.8096  Y0.3483  
G01 X0.7904  Y0.3483  
G01 X0.7726  Y0.3410  
G01 X0.7590  Y0.3274  
G01 X0.7517  Y0.3096  
G01 X0.7517  Y0.2904  
G01 X0.7590  Y0.2726  
G01 X0.7726  Y0.2590  
G00 Z0.3000  
G00 X0.0265  Y0.0307  
G01 Z-0.0070 F5     
G01 X0.0232  Y0.0357  F7     
G01 X0.0209  Y0.0412  
G01 X0.0198  Y0.0470  
G01 X0.0198  Y1.2530  
G01 X0.0209  Y1.2588  
G01 X0.0232  Y1.2643  
G01 X0.0265  Y1.2693  
G01 X0.0307  Y1.2735  
G01 X0.0357  Y1.2768  
G01 X0.0412  Y1.2791  
G01 X0.0470  Y1.2802  
G01 X1.0030  Y1.2802  
G01 X1.0088  Y1.2791  
G01 X1.0143  Y1.2768  
G01 X1.0193  Y1.2735  
G01 X1.0235  Y1.2693  
G01 X1.0268  Y1.2643  
G01 X1.0291  Y1.2588  
G01 X1.0302  Y1.2530  
G01 X1.0302  Y0.0530  
G01 X1.0302  Y0.0470  
G01 X1.0291  Y0.0412  
G01 X1.0268  Y0.0357  
G01 X1.0235  Y0.0307  
G01 X1.0193  Y0.0265  
G01 X1.0143  Y0.0232  
G01 X1.0088  Y0.0209  
G01 X1.0030  Y0.0198  
G01 X0.0470  Y0.0198  
G01 X0.0412  Y0.0209  
G01 X0.0357  Y0.0232  
G01 X0.0307  Y0.0265  
G01 X0.0265  Y0.0307  
G00 Z0.3000  
G00 X0.7754  Y0.2633  
G01 Z-0.0070 F5     
G01 X0.7914  Y0.2567  F7     
G01 X0.8086  Y0.2567  
G01 X0.8246  Y0.2633  
G01 X0.8367  Y0.2754  
G01 X0.8433  Y0.2914  
G01 X0.8433  Y0.3086  
G01 X0.8367  Y0.3246  
G01 X0.8246  Y0.3367  
G01 X0.8086  Y0.3433  
G01 X0.7914  Y0.3433  
G01 X0.7754  Y0.3367  
G01 X0.7633  Y0.3246  
G01 X0.7567  Y0.3086  
G01 X0.7567  Y0.2914  
G01 X0.7633  Y0.2754  
G01 X0.7754  Y0.2633  
G00 Z0.3000  
G82 X0.8000  Y0.3000  Z-0.0110 F20    R0.3000  P1.000000
G82 X0.3000  Y0.4000  
G82 X0.3000  Y0.5000  
G82 X0.4000  Y0.4000  
G82 X0.4000  Y0.5000  
G82 X0.5000  Y0.4000  
G82 X0.5000  Y0.5000  
G82 X0.6000  Y1.0500  
G82 X0.7000  Y1.0500  
G82 X0.6000  Y0.9500  
G82 X0.7000  Y0.9500  
G82 X0.6000  Y0.8500  
G82 X0.7000  Y0.8500  
G00 Z0.5000  
M05
M02
